(Exported by FreeCAD)
(Post Processor: grbl_post)
(Output Time:2019-09-01 21:52:51.424585)
(begin preamble)
G17 G90
G21
(begin operation: Default Tool)
(Path: Default Tool)
(Default Tool)
(begin toolchange)
; M6 T1
M3 S0.0000
(finish operation: Default Tool)
(begin operation: Profile_Faces)
(Path: Profile_Faces)
(Profile_Faces)
(Compensated Tool Path. Diameter: 2.0)
G0 Z19.5000
G0 X293.3146 Y-269.9354
G0 Z17.5000
G1 X293.3146 Y-269.9354 Z12.5000 F100.00
G3 X293.2043 Y-269.9209 Z12.5000 I-0.0646 J-0.0646 F100.00
G3 X293.2957 Y-270.0791 Z12.5000 I0.0457 J-0.0791 F100.00
G3 X293.3146 Y-269.9354 Z12.5000 I-0.0457 J0.0791 F100.00
G1 X293.3146 Y-269.9354 Z11.5000 F100.00
G3 X293.2043 Y-269.9209 Z11.5000 I-0.0646 J-0.0646 F100.00
G3 X293.2957 Y-270.0791 Z11.5000 I0.0457 J-0.0791 F100.00
G3 X293.3146 Y-269.9354 Z11.5000 I-0.0457 J0.0791 F100.00
G1 X293.3146 Y-269.9354 Z10.5000 F100.00
G3 X293.2043 Y-269.9209 Z10.5000 I-0.0646 J-0.0646 F100.00
G3 X293.2957 Y-270.0791 Z10.5000 I0.0457 J-0.0791 F100.00
G3 X293.3146 Y-269.9354 Z10.5000 I-0.0457 J0.0791 F100.00
G1 X293.3146 Y-269.9354 Z9.5000 F100.00
G3 X293.2043 Y-269.9209 Z9.5000 I-0.0646 J-0.0646 F100.00
G3 X293.2957 Y-270.0791 Z9.5000 I0.0457 J-0.0791 F100.00
G3 X293.3146 Y-269.9354 Z9.5000 I-0.0457 J0.0791 F100.00
G1 X293.3146 Y-269.9354 Z8.5000 F100.00
G3 X293.2043 Y-269.9209 Z8.5000 I-0.0646 J-0.0646 F100.00
G3 X293.2957 Y-270.0791 Z8.5000 I0.0457 J-0.0791 F100.00
G3 X293.3146 Y-269.9354 Z8.5000 I-0.0457 J0.0791 F100.00
G1 X293.3146 Y-269.9354 Z7.5000 F100.00
G3 X293.2043 Y-269.9209 Z7.5000 I-0.0646 J-0.0646 F100.00
G3 X293.2957 Y-270.0791 Z7.5000 I0.0457 J-0.0791 F100.00
G3 X293.3146 Y-269.9354 Z7.5000 I-0.0457 J0.0791 F100.00
G1 X293.3146 Y-269.9354 Z6.5000 F100.00
G3 X293.2043 Y-269.9209 Z6.5000 I-0.0646 J-0.0646 F100.00
G3 X293.2957 Y-270.0791 Z6.5000 I0.0457 J-0.0791 F100.00
G3 X293.3146 Y-269.9354 Z6.5000 I-0.0457 J0.0791 F100.00
G1 X293.3146 Y-269.9354 Z5.5000 F100.00
G3 X293.2043 Y-269.9209 Z5.5000 I-0.0646 J-0.0646 F100.00
G3 X293.2957 Y-270.0791 Z5.5000 I0.0457 J-0.0791 F100.00
G3 X293.3146 Y-269.9354 Z5.5000 I-0.0457 J0.0791 F100.00
G1 X293.3146 Y-269.9354 Z4.5000 F100.00
G3 X293.2043 Y-269.9209 Z4.5000 I-0.0646 J-0.0646 F100.00
G3 X293.2957 Y-270.0791 Z4.5000 I0.0457 J-0.0791 F100.00
G3 X293.3146 Y-269.9354 Z4.5000 I-0.0457 J0.0791 F100.00
G1 X293.3146 Y-269.9354 Z3.5000 F100.00
G3 X293.2043 Y-269.9209 Z3.5000 I-0.0646 J-0.0646 F100.00
G3 X293.2957 Y-270.0791 Z3.5000 I0.0457 J-0.0791 F100.00
G3 X293.3146 Y-269.9354 Z3.5000 I-0.0457 J0.0791 F100.00
G1 X293.3146 Y-269.9354 Z2.5000 F100.00
G3 X293.2043 Y-269.9209 Z2.5000 I-0.0646 J-0.0646 F100.00
G3 X293.2957 Y-270.0791 Z2.5000 I0.0457 J-0.0791 F100.00
G3 X293.3146 Y-269.9354 Z2.5000 I-0.0457 J0.0791 F100.00
G1 X293.3146 Y-269.9354 Z1.5000 F100.00
G3 X293.2043 Y-269.9209 Z1.5000 I-0.0646 J-0.0646 F100.00
G3 X293.2957 Y-270.0791 Z1.5000 I0.0457 J-0.0791 F100.00
G3 X293.3146 Y-269.9354 Z1.5000 I-0.0457 J0.0791 F100.00
G1 X293.3146 Y-269.9354 Z0.5000 F100.00
G3 X293.2043 Y-269.9209 Z0.5000 I-0.0646 J-0.0646 F100.00
G3 X293.2957 Y-270.0791 Z0.5000 I0.0457 J-0.0791 F100.00
G3 X293.3146 Y-269.9354 Z0.5000 I-0.0457 J0.0791 F100.00
G1 X293.3146 Y-269.9354 Z0.0000 F100.00
G3 X293.2043 Y-269.9209 Z0.0000 I-0.0646 J-0.0646 F100.00
G3 X293.2957 Y-270.0791 Z0.0000 I0.0457 J-0.0791 F100.00
G3 X293.3146 Y-269.9354 Z0.0000 I-0.0457 J0.0791 F100.00
G0 Z19.5000
G0 X270.0646 Y-293.1854
G0 Z17.5000
G1 X270.0646 Y-293.1854 Z12.5000 F100.00
G3 X269.9543 Y-293.1709 Z12.5000 I-0.0646 J-0.0646 F100.00
G3 X270.0457 Y-293.3291 Z12.5000 I0.0457 J-0.0791 F100.00
G3 X270.0646 Y-293.1854 Z12.5000 I-0.0457 J0.0791 F100.00
G1 X270.0646 Y-293.1854 Z11.5000 F100.00
G3 X269.9543 Y-293.1709 Z11.5000 I-0.0646 J-0.0646 F100.00
G3 X270.0457 Y-293.3291 Z11.5000 I0.0457 J-0.0791 F100.00
G3 X270.0646 Y-293.1854 Z11.5000 I-0.0457 J0.0791 F100.00
G1 X270.0646 Y-293.1854 Z10.5000 F100.00
G3 X269.9543 Y-293.1709 Z10.5000 I-0.0646 J-0.0646 F100.00
G3 X270.0457 Y-293.3291 Z10.5000 I0.0457 J-0.0791 F100.00
G3 X270.0646 Y-293.1854 Z10.5000 I-0.0457 J0.0791 F100.00
G1 X270.0646 Y-293.1854 Z9.5000 F100.00
G3 X269.9543 Y-293.1709 Z9.5000 I-0.0646 J-0.0646 F100.00
G3 X270.0457 Y-293.3291 Z9.5000 I0.0457 J-0.0791 F100.00
G3 X270.0646 Y-293.1854 Z9.5000 I-0.0457 J0.0791 F100.00
G1 X270.0646 Y-293.1854 Z8.5000 F100.00
G3 X269.9543 Y-293.1709 Z8.5000 I-0.0646 J-0.0646 F100.00
G3 X270.0457 Y-293.3291 Z8.5000 I0.0457 J-0.0791 F100.00
G3 X270.0646 Y-293.1854 Z8.5000 I-0.0457 J0.0791 F100.00
G1 X270.0646 Y-293.1854 Z7.5000 F100.00
G3 X269.9543 Y-293.1709 Z7.5000 I-0.0646 J-0.0646 F100.00
G3 X270.0457 Y-293.3291 Z7.5000 I0.0457 J-0.0791 F100.00
G3 X270.0646 Y-293.1854 Z7.5000 I-0.0457 J0.0791 F100.00
G1 X270.0646 Y-293.1854 Z6.5000 F100.00
G3 X269.9543 Y-293.1709 Z6.5000 I-0.0646 J-0.0646 F100.00
G3 X270.0457 Y-293.3291 Z6.5000 I0.0457 J-0.0791 F100.00
G3 X270.0646 Y-293.1854 Z6.5000 I-0.0457 J0.0791 F100.00
G1 X270.0646 Y-293.1854 Z5.5000 F100.00
G3 X269.9543 Y-293.1709 Z5.5000 I-0.0646 J-0.0646 F100.00
G3 X270.0457 Y-293.3291 Z5.5000 I0.0457 J-0.0791 F100.00
G3 X270.0646 Y-293.1854 Z5.5000 I-0.0457 J0.0791 F100.00
G1 X270.0646 Y-293.1854 Z4.5000 F100.00
G3 X269.9543 Y-293.1709 Z4.5000 I-0.0646 J-0.0646 F100.00
G3 X270.0457 Y-293.3291 Z4.5000 I0.0457 J-0.0791 F100.00
G3 X270.0646 Y-293.1854 Z4.5000 I-0.0457 J0.0791 F100.00
G1 X270.0646 Y-293.1854 Z3.5000 F100.00
G3 X269.9543 Y-293.1709 Z3.5000 I-0.0646 J-0.0646 F100.00
G3 X270.0457 Y-293.3291 Z3.5000 I0.0457 J-0.0791 F100.00
G3 X270.0646 Y-293.1854 Z3.5000 I-0.0457 J0.0791 F100.00
G1 X270.0646 Y-293.1854 Z2.5000 F100.00
G3 X269.9543 Y-293.1709 Z2.5000 I-0.0646 J-0.0646 F100.00
G3 X270.0457 Y-293.3291 Z2.5000 I0.0457 J-0.0791 F100.00
G3 X270.0646 Y-293.1854 Z2.5000 I-0.0457 J0.0791 F100.00
G1 X270.0646 Y-293.1854 Z1.5000 F100.00
G3 X269.9543 Y-293.1709 Z1.5000 I-0.0646 J-0.0646 F100.00
G3 X270.0457 Y-293.3291 Z1.5000 I0.0457 J-0.0791 F100.00
G3 X270.0646 Y-293.1854 Z1.5000 I-0.0457 J0.0791 F100.00
G1 X270.0646 Y-293.1854 Z0.5000 F100.00
G3 X269.9543 Y-293.1709 Z0.5000 I-0.0646 J-0.0646 F100.00
G3 X270.0457 Y-293.3291 Z0.5000 I0.0457 J-0.0791 F100.00
G3 X270.0646 Y-293.1854 Z0.5000 I-0.0457 J0.0791 F100.00
G1 X270.0646 Y-293.1854 Z0.0000 F100.00
G3 X269.9543 Y-293.1709 Z0.0000 I-0.0646 J-0.0646 F100.00
G3 X270.0457 Y-293.3291 Z0.0000 I0.0457 J-0.0791 F100.00
G3 X270.0646 Y-293.1854 Z0.0000 I-0.0457 J0.0791 F100.00
G0 Z19.5000
G0 X293.3146 Y-29.9354
G0 Z17.5000
G1 X293.3146 Y-29.9354 Z12.5000 F100.00
G3 X293.2043 Y-29.9209 Z12.5000 I-0.0646 J-0.0646 F100.00
G3 X293.2957 Y-30.0791 Z12.5000 I0.0457 J-0.0791 F100.00
G3 X293.3146 Y-29.9354 Z12.5000 I-0.0457 J0.0791 F100.00
G1 X293.3146 Y-29.9354 Z11.5000 F100.00
G3 X293.2043 Y-29.9209 Z11.5000 I-0.0646 J-0.0646 F100.00
G3 X293.2957 Y-30.0791 Z11.5000 I0.0457 J-0.0791 F100.00
G3 X293.3146 Y-29.9354 Z11.5000 I-0.0457 J0.0791 F100.00
G1 X293.3146 Y-29.9354 Z10.5000 F100.00
G3 X293.2043 Y-29.9209 Z10.5000 I-0.0646 J-0.0646 F100.00
G3 X293.2957 Y-30.0791 Z10.5000 I0.0457 J-0.0791 F100.00
G3 X293.3146 Y-29.9354 Z10.5000 I-0.0457 J0.0791 F100.00
G1 X293.3146 Y-29.9354 Z9.5000 F100.00
G3 X293.2043 Y-29.9209 Z9.5000 I-0.0646 J-0.0646 F100.00
G3 X293.2957 Y-30.0791 Z9.5000 I0.0457 J-0.0791 F100.00
G3 X293.3146 Y-29.9354 Z9.5000 I-0.0457 J0.0791 F100.00
G1 X293.3146 Y-29.9354 Z8.5000 F100.00
G3 X293.2043 Y-29.9209 Z8.5000 I-0.0646 J-0.0646 F100.00
G3 X293.2957 Y-30.0791 Z8.5000 I0.0457 J-0.0791 F100.00
G3 X293.3146 Y-29.9354 Z8.5000 I-0.0457 J0.0791 F100.00
G1 X293.3146 Y-29.9354 Z7.5000 F100.00
G3 X293.2043 Y-29.9209 Z7.5000 I-0.0646 J-0.0646 F100.00
G3 X293.2957 Y-30.0791 Z7.5000 I0.0457 J-0.0791 F100.00
G3 X293.3146 Y-29.9354 Z7.5000 I-0.0457 J0.0791 F100.00
G1 X293.3146 Y-29.9354 Z6.5000 F100.00
G3 X293.2043 Y-29.9209 Z6.5000 I-0.0646 J-0.0646 F100.00
G3 X293.2957 Y-30.0791 Z6.5000 I0.0457 J-0.0791 F100.00
G3 X293.3146 Y-29.9354 Z6.5000 I-0.0457 J0.0791 F100.00
G1 X293.3146 Y-29.9354 Z5.5000 F100.00
G3 X293.2043 Y-29.9209 Z5.5000 I-0.0646 J-0.0646 F100.00
G3 X293.2957 Y-30.0791 Z5.5000 I0.0457 J-0.0791 F100.00
G3 X293.3146 Y-29.9354 Z5.5000 I-0.0457 J0.0791 F100.00
G1 X293.3146 Y-29.9354 Z4.5000 F100.00
G3 X293.2043 Y-29.9209 Z4.5000 I-0.0646 J-0.0646 F100.00
G3 X293.2957 Y-30.0791 Z4.5000 I0.0457 J-0.0791 F100.00
G3 X293.3146 Y-29.9354 Z4.5000 I-0.0457 J0.0791 F100.00
G1 X293.3146 Y-29.9354 Z3.5000 F100.00
G3 X293.2043 Y-29.9209 Z3.5000 I-0.0646 J-0.0646 F100.00
G3 X293.2957 Y-30.0791 Z3.5000 I0.0457 J-0.0791 F100.00
G3 X293.3146 Y-29.9354 Z3.5000 I-0.0457 J0.0791 F100.00
G1 X293.3146 Y-29.9354 Z2.5000 F100.00
G3 X293.2043 Y-29.9209 Z2.5000 I-0.0646 J-0.0646 F100.00
G3 X293.2957 Y-30.0791 Z2.5000 I0.0457 J-0.0791 F100.00
G3 X293.3146 Y-29.9354 Z2.5000 I-0.0457 J0.0791 F100.00
G1 X293.3146 Y-29.9354 Z1.5000 F100.00
G3 X293.2043 Y-29.9209 Z1.5000 I-0.0646 J-0.0646 F100.00
G3 X293.2957 Y-30.0791 Z1.5000 I0.0457 J-0.0791 F100.00
G3 X293.3146 Y-29.9354 Z1.5000 I-0.0457 J0.0791 F100.00
G1 X293.3146 Y-29.9354 Z0.5000 F100.00
G3 X293.2043 Y-29.9209 Z0.5000 I-0.0646 J-0.0646 F100.00
G3 X293.2957 Y-30.0791 Z0.5000 I0.0457 J-0.0791 F100.00
G3 X293.3146 Y-29.9354 Z0.5000 I-0.0457 J0.0791 F100.00
G1 X293.3146 Y-29.9354 Z0.0000 F100.00
G3 X293.2043 Y-29.9209 Z0.0000 I-0.0646 J-0.0646 F100.00
G3 X293.2957 Y-30.0791 Z0.0000 I0.0457 J-0.0791 F100.00
G3 X293.3146 Y-29.9354 Z0.0000 I-0.0457 J0.0791 F100.00
G0 Z19.5000
G0 X30.0646 Y-293.1854
G0 Z17.5000
G1 X30.0646 Y-293.1854 Z12.5000 F100.00
G3 X29.9543 Y-293.1709 Z12.5000 I-0.0646 J-0.0646 F100.00
G3 X30.0457 Y-293.3291 Z12.5000 I0.0457 J-0.0791 F100.00
G3 X30.0646 Y-293.1854 Z12.5000 I-0.0457 J0.0791 F100.00
G1 X30.0646 Y-293.1854 Z11.5000 F100.00
G3 X29.9543 Y-293.1709 Z11.5000 I-0.0646 J-0.0646 F100.00
G3 X30.0457 Y-293.3291 Z11.5000 I0.0457 J-0.0791 F100.00
G3 X30.0646 Y-293.1854 Z11.5000 I-0.0457 J0.0791 F100.00
G1 X30.0646 Y-293.1854 Z10.5000 F100.00
G3 X29.9543 Y-293.1709 Z10.5000 I-0.0646 J-0.0646 F100.00
G3 X30.0457 Y-293.3291 Z10.5000 I0.0457 J-0.0791 F100.00
G3 X30.0646 Y-293.1854 Z10.5000 I-0.0457 J0.0791 F100.00
G1 X30.0646 Y-293.1854 Z9.5000 F100.00
G3 X29.9543 Y-293.1709 Z9.5000 I-0.0646 J-0.0646 F100.00
G3 X30.0457 Y-293.3291 Z9.5000 I0.0457 J-0.0791 F100.00
G3 X30.0646 Y-293.1854 Z9.5000 I-0.0457 J0.0791 F100.00
G1 X30.0646 Y-293.1854 Z8.5000 F100.00
G3 X29.9543 Y-293.1709 Z8.5000 I-0.0646 J-0.0646 F100.00
G3 X30.0457 Y-293.3291 Z8.5000 I0.0457 J-0.0791 F100.00
G3 X30.0646 Y-293.1854 Z8.5000 I-0.0457 J0.0791 F100.00
G1 X30.0646 Y-293.1854 Z7.5000 F100.00
G3 X29.9543 Y-293.1709 Z7.5000 I-0.0646 J-0.0646 F100.00
G3 X30.0457 Y-293.3291 Z7.5000 I0.0457 J-0.0791 F100.00
G3 X30.0646 Y-293.1854 Z7.5000 I-0.0457 J0.0791 F100.00
G1 X30.0646 Y-293.1854 Z6.5000 F100.00
G3 X29.9543 Y-293.1709 Z6.5000 I-0.0646 J-0.0646 F100.00
G3 X30.0457 Y-293.3291 Z6.5000 I0.0457 J-0.0791 F100.00
G3 X30.0646 Y-293.1854 Z6.5000 I-0.0457 J0.0791 F100.00
G1 X30.0646 Y-293.1854 Z5.5000 F100.00
G3 X29.9543 Y-293.1709 Z5.5000 I-0.0646 J-0.0646 F100.00
G3 X30.0457 Y-293.3291 Z5.5000 I0.0457 J-0.0791 F100.00
G3 X30.0646 Y-293.1854 Z5.5000 I-0.0457 J0.0791 F100.00
G1 X30.0646 Y-293.1854 Z4.5000 F100.00
G3 X29.9543 Y-293.1709 Z4.5000 I-0.0646 J-0.0646 F100.00
G3 X30.0457 Y-293.3291 Z4.5000 I0.0457 J-0.0791 F100.00
G3 X30.0646 Y-293.1854 Z4.5000 I-0.0457 J0.0791 F100.00
G1 X30.0646 Y-293.1854 Z3.5000 F100.00
G3 X29.9543 Y-293.1709 Z3.5000 I-0.0646 J-0.0646 F100.00
G3 X30.0457 Y-293.3291 Z3.5000 I0.0457 J-0.0791 F100.00
G3 X30.0646 Y-293.1854 Z3.5000 I-0.0457 J0.0791 F100.00
G1 X30.0646 Y-293.1854 Z2.5000 F100.00
G3 X29.9543 Y-293.1709 Z2.5000 I-0.0646 J-0.0646 F100.00
G3 X30.0457 Y-293.3291 Z2.5000 I0.0457 J-0.0791 F100.00
G3 X30.0646 Y-293.1854 Z2.5000 I-0.0457 J0.0791 F100.00
G1 X30.0646 Y-293.1854 Z1.5000 F100.00
G3 X29.9543 Y-293.1709 Z1.5000 I-0.0646 J-0.0646 F100.00
G3 X30.0457 Y-293.3291 Z1.5000 I0.0457 J-0.0791 F100.00
G3 X30.0646 Y-293.1854 Z1.5000 I-0.0457 J0.0791 F100.00
G1 X30.0646 Y-293.1854 Z0.5000 F100.00
G3 X29.9543 Y-293.1709 Z0.5000 I-0.0646 J-0.0646 F100.00
G3 X30.0457 Y-293.3291 Z0.5000 I0.0457 J-0.0791 F100.00
G3 X30.0646 Y-293.1854 Z0.5000 I-0.0457 J0.0791 F100.00
G1 X30.0646 Y-293.1854 Z0.0000 F100.00
G3 X29.9543 Y-293.1709 Z0.0000 I-0.0646 J-0.0646 F100.00
G3 X30.0457 Y-293.3291 Z0.0000 I0.0457 J-0.0791 F100.00
G3 X30.0646 Y-293.1854 Z0.0000 I-0.0457 J0.0791 F100.00
G0 Z19.5000
G0 X270.0646 Y-6.6854
G0 Z17.5000
G1 X270.0646 Y-6.6854 Z12.5000 F100.00
G3 X269.9543 Y-6.6709 Z12.5000 I-0.0646 J-0.0646 F100.00
G3 X270.0457 Y-6.8291 Z12.5000 I0.0457 J-0.0791 F100.00
G3 X270.0646 Y-6.6854 Z12.5000 I-0.0457 J0.0791 F100.00
G1 X270.0646 Y-6.6854 Z11.5000 F100.00
G3 X269.9543 Y-6.6709 Z11.5000 I-0.0646 J-0.0646 F100.00
G3 X270.0457 Y-6.8291 Z11.5000 I0.0457 J-0.0791 F100.00
G3 X270.0646 Y-6.6854 Z11.5000 I-0.0457 J0.0791 F100.00
G1 X270.0646 Y-6.6854 Z10.5000 F100.00
G3 X269.9543 Y-6.6709 Z10.5000 I-0.0646 J-0.0646 F100.00
G3 X270.0457 Y-6.8291 Z10.5000 I0.0457 J-0.0791 F100.00
G3 X270.0646 Y-6.6854 Z10.5000 I-0.0457 J0.0791 F100.00
G1 X270.0646 Y-6.6854 Z9.5000 F100.00
G3 X269.9543 Y-6.6709 Z9.5000 I-0.0646 J-0.0646 F100.00
G3 X270.0457 Y-6.8291 Z9.5000 I0.0457 J-0.0791 F100.00
G3 X270.0646 Y-6.6854 Z9.5000 I-0.0457 J0.0791 F100.00
G1 X270.0646 Y-6.6854 Z8.5000 F100.00
G3 X269.9543 Y-6.6709 Z8.5000 I-0.0646 J-0.0646 F100.00
G3 X270.0457 Y-6.8291 Z8.5000 I0.0457 J-0.0791 F100.00
G3 X270.0646 Y-6.6854 Z8.5000 I-0.0457 J0.0791 F100.00
G1 X270.0646 Y-6.6854 Z7.5000 F100.00
G3 X269.9543 Y-6.6709 Z7.5000 I-0.0646 J-0.0646 F100.00
G3 X270.0457 Y-6.8291 Z7.5000 I0.0457 J-0.0791 F100.00
G3 X270.0646 Y-6.6854 Z7.5000 I-0.0457 J0.0791 F100.00
G1 X270.0646 Y-6.6854 Z6.5000 F100.00
G3 X269.9543 Y-6.6709 Z6.5000 I-0.0646 J-0.0646 F100.00
G3 X270.0457 Y-6.8291 Z6.5000 I0.0457 J-0.0791 F100.00
G3 X270.0646 Y-6.6854 Z6.5000 I-0.0457 J0.0791 F100.00
G1 X270.0646 Y-6.6854 Z5.5000 F100.00
G3 X269.9543 Y-6.6709 Z5.5000 I-0.0646 J-0.0646 F100.00
G3 X270.0457 Y-6.8291 Z5.5000 I0.0457 J-0.0791 F100.00
G3 X270.0646 Y-6.6854 Z5.5000 I-0.0457 J0.0791 F100.00
G1 X270.0646 Y-6.6854 Z4.5000 F100.00
G3 X269.9543 Y-6.6709 Z4.5000 I-0.0646 J-0.0646 F100.00
G3 X270.0457 Y-6.8291 Z4.5000 I0.0457 J-0.0791 F100.00
G3 X270.0646 Y-6.6854 Z4.5000 I-0.0457 J0.0791 F100.00
G1 X270.0646 Y-6.6854 Z3.5000 F100.00
G3 X269.9543 Y-6.6709 Z3.5000 I-0.0646 J-0.0646 F100.00
G3 X270.0457 Y-6.8291 Z3.5000 I0.0457 J-0.0791 F100.00
G3 X270.0646 Y-6.6854 Z3.5000 I-0.0457 J0.0791 F100.00
G1 X270.0646 Y-6.6854 Z2.5000 F100.00
G3 X269.9543 Y-6.6709 Z2.5000 I-0.0646 J-0.0646 F100.00
G3 X270.0457 Y-6.8291 Z2.5000 I0.0457 J-0.0791 F100.00
G3 X270.0646 Y-6.6854 Z2.5000 I-0.0457 J0.0791 F100.00
G1 X270.0646 Y-6.6854 Z1.5000 F100.00
G3 X269.9543 Y-6.6709 Z1.5000 I-0.0646 J-0.0646 F100.00
G3 X270.0457 Y-6.8291 Z1.5000 I0.0457 J-0.0791 F100.00
G3 X270.0646 Y-6.6854 Z1.5000 I-0.0457 J0.0791 F100.00
G1 X270.0646 Y-6.6854 Z0.5000 F100.00
G3 X269.9543 Y-6.6709 Z0.5000 I-0.0646 J-0.0646 F100.00
G3 X270.0457 Y-6.8291 Z0.5000 I0.0457 J-0.0791 F100.00
G3 X270.0646 Y-6.6854 Z0.5000 I-0.0457 J0.0791 F100.00
G1 X270.0646 Y-6.6854 Z0.0000 F100.00
G3 X269.9543 Y-6.6709 Z0.0000 I-0.0646 J-0.0646 F100.00
G3 X270.0457 Y-6.8291 Z0.0000 I0.0457 J-0.0791 F100.00
G3 X270.0646 Y-6.6854 Z0.0000 I-0.0457 J0.0791 F100.00
G0 Z19.5000
G0 X6.8146 Y-269.9354
G0 Z17.5000
G1 X6.8146 Y-269.9354 Z12.5000 F100.00
G3 X6.7043 Y-269.9209 Z12.5000 I-0.0646 J-0.0646 F100.00
G3 X6.7957 Y-270.0791 Z12.5000 I0.0457 J-0.0791 F100.00
G3 X6.8146 Y-269.9354 Z12.5000 I-0.0457 J0.0791 F100.00
G1 X6.8146 Y-269.9354 Z11.5000 F100.00
G3 X6.7043 Y-269.9209 Z11.5000 I-0.0646 J-0.0646 F100.00
G3 X6.7957 Y-270.0791 Z11.5000 I0.0457 J-0.0791 F100.00
G3 X6.8146 Y-269.9354 Z11.5000 I-0.0457 J0.0791 F100.00
G1 X6.8146 Y-269.9354 Z10.5000 F100.00
G3 X6.7043 Y-269.9209 Z10.5000 I-0.0646 J-0.0646 F100.00
G3 X6.7957 Y-270.0791 Z10.5000 I0.0457 J-0.0791 F100.00
G3 X6.8146 Y-269.9354 Z10.5000 I-0.0457 J0.0791 F100.00
G1 X6.8146 Y-269.9354 Z9.5000 F100.00
G3 X6.7043 Y-269.9209 Z9.5000 I-0.0646 J-0.0646 F100.00
G3 X6.7957 Y-270.0791 Z9.5000 I0.0457 J-0.0791 F100.00
G3 X6.8146 Y-269.9354 Z9.5000 I-0.0457 J0.0791 F100.00
G1 X6.8146 Y-269.9354 Z8.5000 F100.00
G3 X6.7043 Y-269.9209 Z8.5000 I-0.0646 J-0.0646 F100.00
G3 X6.7957 Y-270.0791 Z8.5000 I0.0457 J-0.0791 F100.00
G3 X6.8146 Y-269.9354 Z8.5000 I-0.0457 J0.0791 F100.00
G1 X6.8146 Y-269.9354 Z7.5000 F100.00
G3 X6.7043 Y-269.9209 Z7.5000 I-0.0646 J-0.0646 F100.00
G3 X6.7957 Y-270.0791 Z7.5000 I0.0457 J-0.0791 F100.00
G3 X6.8146 Y-269.9354 Z7.5000 I-0.0457 J0.0791 F100.00
G1 X6.8146 Y-269.9354 Z6.5000 F100.00
G3 X6.7043 Y-269.9209 Z6.5000 I-0.0646 J-0.0646 F100.00
G3 X6.7957 Y-270.0791 Z6.5000 I0.0457 J-0.0791 F100.00
G3 X6.8146 Y-269.9354 Z6.5000 I-0.0457 J0.0791 F100.00
G1 X6.8146 Y-269.9354 Z5.5000 F100.00
G3 X6.7043 Y-269.9209 Z5.5000 I-0.0646 J-0.0646 F100.00
G3 X6.7957 Y-270.0791 Z5.5000 I0.0457 J-0.0791 F100.00
G3 X6.8146 Y-269.9354 Z5.5000 I-0.0457 J0.0791 F100.00
G1 X6.8146 Y-269.9354 Z4.5000 F100.00
G3 X6.7043 Y-269.9209 Z4.5000 I-0.0646 J-0.0646 F100.00
G3 X6.7957 Y-270.0791 Z4.5000 I0.0457 J-0.0791 F100.00
G3 X6.8146 Y-269.9354 Z4.5000 I-0.0457 J0.0791 F100.00
G1 X6.8146 Y-269.9354 Z3.5000 F100.00
G3 X6.7043 Y-269.9209 Z3.5000 I-0.0646 J-0.0646 F100.00
G3 X6.7957 Y-270.0791 Z3.5000 I0.0457 J-0.0791 F100.00
G3 X6.8146 Y-269.9354 Z3.5000 I-0.0457 J0.0791 F100.00
G1 X6.8146 Y-269.9354 Z2.5000 F100.00
G3 X6.7043 Y-269.9209 Z2.5000 I-0.0646 J-0.0646 F100.00
G3 X6.7957 Y-270.0791 Z2.5000 I0.0457 J-0.0791 F100.00
G3 X6.8146 Y-269.9354 Z2.5000 I-0.0457 J0.0791 F100.00
G1 X6.8146 Y-269.9354 Z1.5000 F100.00
G3 X6.7043 Y-269.9209 Z1.5000 I-0.0646 J-0.0646 F100.00
G3 X6.7957 Y-270.0791 Z1.5000 I0.0457 J-0.0791 F100.00
G3 X6.8146 Y-269.9354 Z1.5000 I-0.0457 J0.0791 F100.00
G1 X6.8146 Y-269.9354 Z0.5000 F100.00
G3 X6.7043 Y-269.9209 Z0.5000 I-0.0646 J-0.0646 F100.00
G3 X6.7957 Y-270.0791 Z0.5000 I0.0457 J-0.0791 F100.00
G3 X6.8146 Y-269.9354 Z0.5000 I-0.0457 J0.0791 F100.00
G1 X6.8146 Y-269.9354 Z0.0000 F100.00
G3 X6.7043 Y-269.9209 Z0.0000 I-0.0646 J-0.0646 F100.00
G3 X6.7957 Y-270.0791 Z0.0000 I0.0457 J-0.0791 F100.00
G3 X6.8146 Y-269.9354 Z0.0000 I-0.0457 J0.0791 F100.00
G0 Z19.5000
G0 X293.3146 Y-199.9354
G0 Z17.5000
G1 X293.3146 Y-199.9354 Z12.5000 F100.00
G3 X293.2043 Y-199.9209 Z12.5000 I-0.0646 J-0.0646 F100.00
G3 X293.2957 Y-200.0791 Z12.5000 I0.0457 J-0.0791 F100.00
G3 X293.3146 Y-199.9354 Z12.5000 I-0.0457 J0.0791 F100.00
G1 X293.3146 Y-199.9354 Z11.5000 F100.00
G3 X293.2043 Y-199.9209 Z11.5000 I-0.0646 J-0.0646 F100.00
G3 X293.2957 Y-200.0791 Z11.5000 I0.0457 J-0.0791 F100.00
G3 X293.3146 Y-199.9354 Z11.5000 I-0.0457 J0.0791 F100.00
G1 X293.3146 Y-199.9354 Z10.5000 F100.00
G3 X293.2043 Y-199.9209 Z10.5000 I-0.0646 J-0.0646 F100.00
G3 X293.2957 Y-200.0791 Z10.5000 I0.0457 J-0.0791 F100.00
G3 X293.3146 Y-199.9354 Z10.5000 I-0.0457 J0.0791 F100.00
G1 X293.3146 Y-199.9354 Z9.5000 F100.00
G3 X293.2043 Y-199.9209 Z9.5000 I-0.0646 J-0.0646 F100.00
G3 X293.2957 Y-200.0791 Z9.5000 I0.0457 J-0.0791 F100.00
G3 X293.3146 Y-199.9354 Z9.5000 I-0.0457 J0.0791 F100.00
G1 X293.3146 Y-199.9354 Z8.5000 F100.00
G3 X293.2043 Y-199.9209 Z8.5000 I-0.0646 J-0.0646 F100.00
G3 X293.2957 Y-200.0791 Z8.5000 I0.0457 J-0.0791 F100.00
G3 X293.3146 Y-199.9354 Z8.5000 I-0.0457 J0.0791 F100.00
G1 X293.3146 Y-199.9354 Z7.5000 F100.00
G3 X293.2043 Y-199.9209 Z7.5000 I-0.0646 J-0.0646 F100.00
G3 X293.2957 Y-200.0791 Z7.5000 I0.0457 J-0.0791 F100.00
G3 X293.3146 Y-199.9354 Z7.5000 I-0.0457 J0.0791 F100.00
G1 X293.3146 Y-199.9354 Z6.5000 F100.00
G3 X293.2043 Y-199.9209 Z6.5000 I-0.0646 J-0.0646 F100.00
G3 X293.2957 Y-200.0791 Z6.5000 I0.0457 J-0.0791 F100.00
G3 X293.3146 Y-199.9354 Z6.5000 I-0.0457 J0.0791 F100.00
G1 X293.3146 Y-199.9354 Z5.5000 F100.00
G3 X293.2043 Y-199.9209 Z5.5000 I-0.0646 J-0.0646 F100.00
G3 X293.2957 Y-200.0791 Z5.5000 I0.0457 J-0.0791 F100.00
G3 X293.3146 Y-199.9354 Z5.5000 I-0.0457 J0.0791 F100.00
G1 X293.3146 Y-199.9354 Z4.5000 F100.00
G3 X293.2043 Y-199.9209 Z4.5000 I-0.0646 J-0.0646 F100.00
G3 X293.2957 Y-200.0791 Z4.5000 I0.0457 J-0.0791 F100.00
G3 X293.3146 Y-199.9354 Z4.5000 I-0.0457 J0.0791 F100.00
G1 X293.3146 Y-199.9354 Z3.5000 F100.00
G3 X293.2043 Y-199.9209 Z3.5000 I-0.0646 J-0.0646 F100.00
G3 X293.2957 Y-200.0791 Z3.5000 I0.0457 J-0.0791 F100.00
G3 X293.3146 Y-199.9354 Z3.5000 I-0.0457 J0.0791 F100.00
G1 X293.3146 Y-199.9354 Z2.5000 F100.00
G3 X293.2043 Y-199.9209 Z2.5000 I-0.0646 J-0.0646 F100.00
G3 X293.2957 Y-200.0791 Z2.5000 I0.0457 J-0.0791 F100.00
G3 X293.3146 Y-199.9354 Z2.5000 I-0.0457 J0.0791 F100.00
G1 X293.3146 Y-199.9354 Z1.5000 F100.00
G3 X293.2043 Y-199.9209 Z1.5000 I-0.0646 J-0.0646 F100.00
G3 X293.2957 Y-200.0791 Z1.5000 I0.0457 J-0.0791 F100.00
G3 X293.3146 Y-199.9354 Z1.5000 I-0.0457 J0.0791 F100.00
G1 X293.3146 Y-199.9354 Z0.5000 F100.00
G3 X293.2043 Y-199.9209 Z0.5000 I-0.0646 J-0.0646 F100.00
G3 X293.2957 Y-200.0791 Z0.5000 I0.0457 J-0.0791 F100.00
G3 X293.3146 Y-199.9354 Z0.5000 I-0.0457 J0.0791 F100.00
G1 X293.3146 Y-199.9354 Z0.0000 F100.00
G3 X293.2043 Y-199.9209 Z0.0000 I-0.0646 J-0.0646 F100.00
G3 X293.2957 Y-200.0791 Z0.0000 I0.0457 J-0.0791 F100.00
G3 X293.3146 Y-199.9354 Z0.0000 I-0.0457 J0.0791 F100.00
G0 Z19.5000
G0 X293.3146 Y-99.9354
G0 Z17.5000
G1 X293.3146 Y-99.9354 Z12.5000 F100.00
G3 X293.2043 Y-99.9209 Z12.5000 I-0.0646 J-0.0646 F100.00
G3 X293.2957 Y-100.0791 Z12.5000 I0.0457 J-0.0791 F100.00
G3 X293.3146 Y-99.9354 Z12.5000 I-0.0457 J0.0791 F100.00
G1 X293.3146 Y-99.9354 Z11.5000 F100.00
G3 X293.2043 Y-99.9209 Z11.5000 I-0.0646 J-0.0646 F100.00
G3 X293.2957 Y-100.0791 Z11.5000 I0.0457 J-0.0791 F100.00
G3 X293.3146 Y-99.9354 Z11.5000 I-0.0457 J0.0791 F100.00
G1 X293.3146 Y-99.9354 Z10.5000 F100.00
G3 X293.2043 Y-99.9209 Z10.5000 I-0.0646 J-0.0646 F100.00
G3 X293.2957 Y-100.0791 Z10.5000 I0.0457 J-0.0791 F100.00
G3 X293.3146 Y-99.9354 Z10.5000 I-0.0457 J0.0791 F100.00
G1 X293.3146 Y-99.9354 Z9.5000 F100.00
G3 X293.2043 Y-99.9209 Z9.5000 I-0.0646 J-0.0646 F100.00
G3 X293.2957 Y-100.0791 Z9.5000 I0.0457 J-0.0791 F100.00
G3 X293.3146 Y-99.9354 Z9.5000 I-0.0457 J0.0791 F100.00
G1 X293.3146 Y-99.9354 Z8.5000 F100.00
G3 X293.2043 Y-99.9209 Z8.5000 I-0.0646 J-0.0646 F100.00
G3 X293.2957 Y-100.0791 Z8.5000 I0.0457 J-0.0791 F100.00
G3 X293.3146 Y-99.9354 Z8.5000 I-0.0457 J0.0791 F100.00
G1 X293.3146 Y-99.9354 Z7.5000 F100.00
G3 X293.2043 Y-99.9209 Z7.5000 I-0.0646 J-0.0646 F100.00
G3 X293.2957 Y-100.0791 Z7.5000 I0.0457 J-0.0791 F100.00
G3 X293.3146 Y-99.9354 Z7.5000 I-0.0457 J0.0791 F100.00
G1 X293.3146 Y-99.9354 Z6.5000 F100.00
G3 X293.2043 Y-99.9209 Z6.5000 I-0.0646 J-0.0646 F100.00
G3 X293.2957 Y-100.0791 Z6.5000 I0.0457 J-0.0791 F100.00
G3 X293.3146 Y-99.9354 Z6.5000 I-0.0457 J0.0791 F100.00
G1 X293.3146 Y-99.9354 Z5.5000 F100.00
G3 X293.2043 Y-99.9209 Z5.5000 I-0.0646 J-0.0646 F100.00
G3 X293.2957 Y-100.0791 Z5.5000 I0.0457 J-0.0791 F100.00
G3 X293.3146 Y-99.9354 Z5.5000 I-0.0457 J0.0791 F100.00
G1 X293.3146 Y-99.9354 Z4.5000 F100.00
G3 X293.2043 Y-99.9209 Z4.5000 I-0.0646 J-0.0646 F100.00
G3 X293.2957 Y-100.0791 Z4.5000 I0.0457 J-0.0791 F100.00
G3 X293.3146 Y-99.9354 Z4.5000 I-0.0457 J0.0791 F100.00
G1 X293.3146 Y-99.9354 Z3.5000 F100.00
G3 X293.2043 Y-99.9209 Z3.5000 I-0.0646 J-0.0646 F100.00
G3 X293.2957 Y-100.0791 Z3.5000 I0.0457 J-0.0791 F100.00
G3 X293.3146 Y-99.9354 Z3.5000 I-0.0457 J0.0791 F100.00
G1 X293.3146 Y-99.9354 Z2.5000 F100.00
G3 X293.2043 Y-99.9209 Z2.5000 I-0.0646 J-0.0646 F100.00
G3 X293.2957 Y-100.0791 Z2.5000 I0.0457 J-0.0791 F100.00
G3 X293.3146 Y-99.9354 Z2.5000 I-0.0457 J0.0791 F100.00
G1 X293.3146 Y-99.9354 Z1.5000 F100.00
G3 X293.2043 Y-99.9209 Z1.5000 I-0.0646 J-0.0646 F100.00
G3 X293.2957 Y-100.0791 Z1.5000 I0.0457 J-0.0791 F100.00
G3 X293.3146 Y-99.9354 Z1.5000 I-0.0457 J0.0791 F100.00
G1 X293.3146 Y-99.9354 Z0.5000 F100.00
G3 X293.2043 Y-99.9209 Z0.5000 I-0.0646 J-0.0646 F100.00
G3 X293.2957 Y-100.0791 Z0.5000 I0.0457 J-0.0791 F100.00
G3 X293.3146 Y-99.9354 Z0.5000 I-0.0457 J0.0791 F100.00
G1 X293.3146 Y-99.9354 Z0.0000 F100.00
G3 X293.2043 Y-99.9209 Z0.0000 I-0.0646 J-0.0646 F100.00
G3 X293.2957 Y-100.0791 Z0.0000 I0.0457 J-0.0791 F100.00
G3 X293.3146 Y-99.9354 Z0.0000 I-0.0457 J0.0791 F100.00
G0 Z19.5000
G0 X200.0646 Y-293.1854
G0 Z17.5000
G1 X200.0646 Y-293.1854 Z12.5000 F100.00
G3 X199.9543 Y-293.1709 Z12.5000 I-0.0646 J-0.0646 F100.00
G3 X200.0457 Y-293.3291 Z12.5000 I0.0457 J-0.0791 F100.00
G3 X200.0646 Y-293.1854 Z12.5000 I-0.0457 J0.0791 F100.00
G1 X200.0646 Y-293.1854 Z11.5000 F100.00
G3 X199.9543 Y-293.1709 Z11.5000 I-0.0646 J-0.0646 F100.00
G3 X200.0457 Y-293.3291 Z11.5000 I0.0457 J-0.0791 F100.00
G3 X200.0646 Y-293.1854 Z11.5000 I-0.0457 J0.0791 F100.00
G1 X200.0646 Y-293.1854 Z10.5000 F100.00
G3 X199.9543 Y-293.1709 Z10.5000 I-0.0646 J-0.0646 F100.00
G3 X200.0457 Y-293.3291 Z10.5000 I0.0457 J-0.0791 F100.00
G3 X200.0646 Y-293.1854 Z10.5000 I-0.0457 J0.0791 F100.00
G1 X200.0646 Y-293.1854 Z9.5000 F100.00
G3 X199.9543 Y-293.1709 Z9.5000 I-0.0646 J-0.0646 F100.00
G3 X200.0457 Y-293.3291 Z9.5000 I0.0457 J-0.0791 F100.00
G3 X200.0646 Y-293.1854 Z9.5000 I-0.0457 J0.0791 F100.00
G1 X200.0646 Y-293.1854 Z8.5000 F100.00
G3 X199.9543 Y-293.1709 Z8.5000 I-0.0646 J-0.0646 F100.00
G3 X200.0457 Y-293.3291 Z8.5000 I0.0457 J-0.0791 F100.00
G3 X200.0646 Y-293.1854 Z8.5000 I-0.0457 J0.0791 F100.00
G1 X200.0646 Y-293.1854 Z7.5000 F100.00
G3 X199.9543 Y-293.1709 Z7.5000 I-0.0646 J-0.0646 F100.00
G3 X200.0457 Y-293.3291 Z7.5000 I0.0457 J-0.0791 F100.00
G3 X200.0646 Y-293.1854 Z7.5000 I-0.0457 J0.0791 F100.00
G1 X200.0646 Y-293.1854 Z6.5000 F100.00
G3 X199.9543 Y-293.1709 Z6.5000 I-0.0646 J-0.0646 F100.00
G3 X200.0457 Y-293.3291 Z6.5000 I0.0457 J-0.0791 F100.00
G3 X200.0646 Y-293.1854 Z6.5000 I-0.0457 J0.0791 F100.00
G1 X200.0646 Y-293.1854 Z5.5000 F100.00
G3 X199.9543 Y-293.1709 Z5.5000 I-0.0646 J-0.0646 F100.00
G3 X200.0457 Y-293.3291 Z5.5000 I0.0457 J-0.0791 F100.00
G3 X200.0646 Y-293.1854 Z5.5000 I-0.0457 J0.0791 F100.00
G1 X200.0646 Y-293.1854 Z4.5000 F100.00
G3 X199.9543 Y-293.1709 Z4.5000 I-0.0646 J-0.0646 F100.00
G3 X200.0457 Y-293.3291 Z4.5000 I0.0457 J-0.0791 F100.00
G3 X200.0646 Y-293.1854 Z4.5000 I-0.0457 J0.0791 F100.00
G1 X200.0646 Y-293.1854 Z3.5000 F100.00
G3 X199.9543 Y-293.1709 Z3.5000 I-0.0646 J-0.0646 F100.00
G3 X200.0457 Y-293.3291 Z3.5000 I0.0457 J-0.0791 F100.00
G3 X200.0646 Y-293.1854 Z3.5000 I-0.0457 J0.0791 F100.00
G1 X200.0646 Y-293.1854 Z2.5000 F100.00
G3 X199.9543 Y-293.1709 Z2.5000 I-0.0646 J-0.0646 F100.00
G3 X200.0457 Y-293.3291 Z2.5000 I0.0457 J-0.0791 F100.00
G3 X200.0646 Y-293.1854 Z2.5000 I-0.0457 J0.0791 F100.00
G1 X200.0646 Y-293.1854 Z1.5000 F100.00
G3 X199.9543 Y-293.1709 Z1.5000 I-0.0646 J-0.0646 F100.00
G3 X200.0457 Y-293.3291 Z1.5000 I0.0457 J-0.0791 F100.00
G3 X200.0646 Y-293.1854 Z1.5000 I-0.0457 J0.0791 F100.00
G1 X200.0646 Y-293.1854 Z0.5000 F100.00
G3 X199.9543 Y-293.1709 Z0.5000 I-0.0646 J-0.0646 F100.00
G3 X200.0457 Y-293.3291 Z0.5000 I0.0457 J-0.0791 F100.00
G3 X200.0646 Y-293.1854 Z0.5000 I-0.0457 J0.0791 F100.00
G1 X200.0646 Y-293.1854 Z0.0000 F100.00
G3 X199.9543 Y-293.1709 Z0.0000 I-0.0646 J-0.0646 F100.00
G3 X200.0457 Y-293.3291 Z0.0000 I0.0457 J-0.0791 F100.00
G3 X200.0646 Y-293.1854 Z0.0000 I-0.0457 J0.0791 F100.00
G0 Z19.5000
G0 X100.0646 Y-293.1854
G0 Z17.5000
G1 X100.0646 Y-293.1854 Z12.5000 F100.00
G3 X99.9543 Y-293.1709 Z12.5000 I-0.0646 J-0.0646 F100.00
G3 X100.0457 Y-293.3291 Z12.5000 I0.0457 J-0.0791 F100.00
G3 X100.0646 Y-293.1854 Z12.5000 I-0.0457 J0.0791 F100.00
G1 X100.0646 Y-293.1854 Z11.5000 F100.00
G3 X99.9543 Y-293.1709 Z11.5000 I-0.0646 J-0.0646 F100.00
G3 X100.0457 Y-293.3291 Z11.5000 I0.0457 J-0.0791 F100.00
G3 X100.0646 Y-293.1854 Z11.5000 I-0.0457 J0.0791 F100.00
G1 X100.0646 Y-293.1854 Z10.5000 F100.00
G3 X99.9543 Y-293.1709 Z10.5000 I-0.0646 J-0.0646 F100.00
G3 X100.0457 Y-293.3291 Z10.5000 I0.0457 J-0.0791 F100.00
G3 X100.0646 Y-293.1854 Z10.5000 I-0.0457 J0.0791 F100.00
G1 X100.0646 Y-293.1854 Z9.5000 F100.00
G3 X99.9543 Y-293.1709 Z9.5000 I-0.0646 J-0.0646 F100.00
G3 X100.0457 Y-293.3291 Z9.5000 I0.0457 J-0.0791 F100.00
G3 X100.0646 Y-293.1854 Z9.5000 I-0.0457 J0.0791 F100.00
G1 X100.0646 Y-293.1854 Z8.5000 F100.00
G3 X99.9543 Y-293.1709 Z8.5000 I-0.0646 J-0.0646 F100.00
G3 X100.0457 Y-293.3291 Z8.5000 I0.0457 J-0.0791 F100.00
G3 X100.0646 Y-293.1854 Z8.5000 I-0.0457 J0.0791 F100.00
G1 X100.0646 Y-293.1854 Z7.5000 F100.00
G3 X99.9543 Y-293.1709 Z7.5000 I-0.0646 J-0.0646 F100.00
G3 X100.0457 Y-293.3291 Z7.5000 I0.0457 J-0.0791 F100.00
G3 X100.0646 Y-293.1854 Z7.5000 I-0.0457 J0.0791 F100.00
G1 X100.0646 Y-293.1854 Z6.5000 F100.00
G3 X99.9543 Y-293.1709 Z6.5000 I-0.0646 J-0.0646 F100.00
G3 X100.0457 Y-293.3291 Z6.5000 I0.0457 J-0.0791 F100.00
G3 X100.0646 Y-293.1854 Z6.5000 I-0.0457 J0.0791 F100.00
G1 X100.0646 Y-293.1854 Z5.5000 F100.00
G3 X99.9543 Y-293.1709 Z5.5000 I-0.0646 J-0.0646 F100.00
G3 X100.0457 Y-293.3291 Z5.5000 I0.0457 J-0.0791 F100.00
G3 X100.0646 Y-293.1854 Z5.5000 I-0.0457 J0.0791 F100.00
G1 X100.0646 Y-293.1854 Z4.5000 F100.00
G3 X99.9543 Y-293.1709 Z4.5000 I-0.0646 J-0.0646 F100.00
G3 X100.0457 Y-293.3291 Z4.5000 I0.0457 J-0.0791 F100.00
G3 X100.0646 Y-293.1854 Z4.5000 I-0.0457 J0.0791 F100.00
G1 X100.0646 Y-293.1854 Z3.5000 F100.00
G3 X99.9543 Y-293.1709 Z3.5000 I-0.0646 J-0.0646 F100.00
G3 X100.0457 Y-293.3291 Z3.5000 I0.0457 J-0.0791 F100.00
G3 X100.0646 Y-293.1854 Z3.5000 I-0.0457 J0.0791 F100.00
G1 X100.0646 Y-293.1854 Z2.5000 F100.00
G3 X99.9543 Y-293.1709 Z2.5000 I-0.0646 J-0.0646 F100.00
G3 X100.0457 Y-293.3291 Z2.5000 I0.0457 J-0.0791 F100.00
G3 X100.0646 Y-293.1854 Z2.5000 I-0.0457 J0.0791 F100.00
G1 X100.0646 Y-293.1854 Z1.5000 F100.00
G3 X99.9543 Y-293.1709 Z1.5000 I-0.0646 J-0.0646 F100.00
G3 X100.0457 Y-293.3291 Z1.5000 I0.0457 J-0.0791 F100.00
G3 X100.0646 Y-293.1854 Z1.5000 I-0.0457 J0.0791 F100.00
G1 X100.0646 Y-293.1854 Z0.5000 F100.00
G3 X99.9543 Y-293.1709 Z0.5000 I-0.0646 J-0.0646 F100.00
G3 X100.0457 Y-293.3291 Z0.5000 I0.0457 J-0.0791 F100.00
G3 X100.0646 Y-293.1854 Z0.5000 I-0.0457 J0.0791 F100.00
G1 X100.0646 Y-293.1854 Z0.0000 F100.00
G3 X99.9543 Y-293.1709 Z0.0000 I-0.0646 J-0.0646 F100.00
G3 X100.0457 Y-293.3291 Z0.0000 I0.0457 J-0.0791 F100.00
G3 X100.0646 Y-293.1854 Z0.0000 I-0.0457 J0.0791 F100.00
G0 Z19.5000
G0 X30.0646 Y-6.6854
G0 Z17.5000
G1 X30.0646 Y-6.6854 Z12.5000 F100.00
G3 X29.9543 Y-6.6709 Z12.5000 I-0.0646 J-0.0646 F100.00
G3 X30.0457 Y-6.8291 Z12.5000 I0.0457 J-0.0791 F100.00
G3 X30.0646 Y-6.6854 Z12.5000 I-0.0457 J0.0791 F100.00
G1 X30.0646 Y-6.6854 Z11.5000 F100.00
G3 X29.9543 Y-6.6709 Z11.5000 I-0.0646 J-0.0646 F100.00
G3 X30.0457 Y-6.8291 Z11.5000 I0.0457 J-0.0791 F100.00
G3 X30.0646 Y-6.6854 Z11.5000 I-0.0457 J0.0791 F100.00
G1 X30.0646 Y-6.6854 Z10.5000 F100.00
G3 X29.9543 Y-6.6709 Z10.5000 I-0.0646 J-0.0646 F100.00
G3 X30.0457 Y-6.8291 Z10.5000 I0.0457 J-0.0791 F100.00
G3 X30.0646 Y-6.6854 Z10.5000 I-0.0457 J0.0791 F100.00
G1 X30.0646 Y-6.6854 Z9.5000 F100.00
G3 X29.9543 Y-6.6709 Z9.5000 I-0.0646 J-0.0646 F100.00
G3 X30.0457 Y-6.8291 Z9.5000 I0.0457 J-0.0791 F100.00
G3 X30.0646 Y-6.6854 Z9.5000 I-0.0457 J0.0791 F100.00
G1 X30.0646 Y-6.6854 Z8.5000 F100.00
G3 X29.9543 Y-6.6709 Z8.5000 I-0.0646 J-0.0646 F100.00
G3 X30.0457 Y-6.8291 Z8.5000 I0.0457 J-0.0791 F100.00
G3 X30.0646 Y-6.6854 Z8.5000 I-0.0457 J0.0791 F100.00
G1 X30.0646 Y-6.6854 Z7.5000 F100.00
G3 X29.9543 Y-6.6709 Z7.5000 I-0.0646 J-0.0646 F100.00
G3 X30.0457 Y-6.8291 Z7.5000 I0.0457 J-0.0791 F100.00
G3 X30.0646 Y-6.6854 Z7.5000 I-0.0457 J0.0791 F100.00
G1 X30.0646 Y-6.6854 Z6.5000 F100.00
G3 X29.9543 Y-6.6709 Z6.5000 I-0.0646 J-0.0646 F100.00
G3 X30.0457 Y-6.8291 Z6.5000 I0.0457 J-0.0791 F100.00
G3 X30.0646 Y-6.6854 Z6.5000 I-0.0457 J0.0791 F100.00
G1 X30.0646 Y-6.6854 Z5.5000 F100.00
G3 X29.9543 Y-6.6709 Z5.5000 I-0.0646 J-0.0646 F100.00
G3 X30.0457 Y-6.8291 Z5.5000 I0.0457 J-0.0791 F100.00
G3 X30.0646 Y-6.6854 Z5.5000 I-0.0457 J0.0791 F100.00
G1 X30.0646 Y-6.6854 Z4.5000 F100.00
G3 X29.9543 Y-6.6709 Z4.5000 I-0.0646 J-0.0646 F100.00
G3 X30.0457 Y-6.8291 Z4.5000 I0.0457 J-0.0791 F100.00
G3 X30.0646 Y-6.6854 Z4.5000 I-0.0457 J0.0791 F100.00
G1 X30.0646 Y-6.6854 Z3.5000 F100.00
G3 X29.9543 Y-6.6709 Z3.5000 I-0.0646 J-0.0646 F100.00
G3 X30.0457 Y-6.8291 Z3.5000 I0.0457 J-0.0791 F100.00
G3 X30.0646 Y-6.6854 Z3.5000 I-0.0457 J0.0791 F100.00
G1 X30.0646 Y-6.6854 Z2.5000 F100.00
G3 X29.9543 Y-6.6709 Z2.5000 I-0.0646 J-0.0646 F100.00
G3 X30.0457 Y-6.8291 Z2.5000 I0.0457 J-0.0791 F100.00
G3 X30.0646 Y-6.6854 Z2.5000 I-0.0457 J0.0791 F100.00
G1 X30.0646 Y-6.6854 Z1.5000 F100.00
G3 X29.9543 Y-6.6709 Z1.5000 I-0.0646 J-0.0646 F100.00
G3 X30.0457 Y-6.8291 Z1.5000 I0.0457 J-0.0791 F100.00
G3 X30.0646 Y-6.6854 Z1.5000 I-0.0457 J0.0791 F100.00
G1 X30.0646 Y-6.6854 Z0.5000 F100.00
G3 X29.9543 Y-6.6709 Z0.5000 I-0.0646 J-0.0646 F100.00
G3 X30.0457 Y-6.8291 Z0.5000 I0.0457 J-0.0791 F100.00
G3 X30.0646 Y-6.6854 Z0.5000 I-0.0457 J0.0791 F100.00
G1 X30.0646 Y-6.6854 Z0.0000 F100.00
G3 X29.9543 Y-6.6709 Z0.0000 I-0.0646 J-0.0646 F100.00
G3 X30.0457 Y-6.8291 Z0.0000 I0.0457 J-0.0791 F100.00
G3 X30.0646 Y-6.6854 Z0.0000 I-0.0457 J0.0791 F100.00
G0 Z19.5000
G0 X6.8146 Y-29.9354
G0 Z17.5000
G1 X6.8146 Y-29.9354 Z12.5000 F100.00
G3 X6.7043 Y-29.9209 Z12.5000 I-0.0646 J-0.0646 F100.00
G3 X6.7957 Y-30.0791 Z12.5000 I0.0457 J-0.0791 F100.00
G3 X6.8146 Y-29.9354 Z12.5000 I-0.0457 J0.0791 F100.00
G1 X6.8146 Y-29.9354 Z11.5000 F100.00
G3 X6.7043 Y-29.9209 Z11.5000 I-0.0646 J-0.0646 F100.00
G3 X6.7957 Y-30.0791 Z11.5000 I0.0457 J-0.0791 F100.00
G3 X6.8146 Y-29.9354 Z11.5000 I-0.0457 J0.0791 F100.00
G1 X6.8146 Y-29.9354 Z10.5000 F100.00
G3 X6.7043 Y-29.9209 Z10.5000 I-0.0646 J-0.0646 F100.00
G3 X6.7957 Y-30.0791 Z10.5000 I0.0457 J-0.0791 F100.00
G3 X6.8146 Y-29.9354 Z10.5000 I-0.0457 J0.0791 F100.00
G1 X6.8146 Y-29.9354 Z9.5000 F100.00
G3 X6.7043 Y-29.9209 Z9.5000 I-0.0646 J-0.0646 F100.00
G3 X6.7957 Y-30.0791 Z9.5000 I0.0457 J-0.0791 F100.00
G3 X6.8146 Y-29.9354 Z9.5000 I-0.0457 J0.0791 F100.00
G1 X6.8146 Y-29.9354 Z8.5000 F100.00
G3 X6.7043 Y-29.9209 Z8.5000 I-0.0646 J-0.0646 F100.00
G3 X6.7957 Y-30.0791 Z8.5000 I0.0457 J-0.0791 F100.00
G3 X6.8146 Y-29.9354 Z8.5000 I-0.0457 J0.0791 F100.00
G1 X6.8146 Y-29.9354 Z7.5000 F100.00
G3 X6.7043 Y-29.9209 Z7.5000 I-0.0646 J-0.0646 F100.00
G3 X6.7957 Y-30.0791 Z7.5000 I0.0457 J-0.0791 F100.00
G3 X6.8146 Y-29.9354 Z7.5000 I-0.0457 J0.0791 F100.00
G1 X6.8146 Y-29.9354 Z6.5000 F100.00
G3 X6.7043 Y-29.9209 Z6.5000 I-0.0646 J-0.0646 F100.00
G3 X6.7957 Y-30.0791 Z6.5000 I0.0457 J-0.0791 F100.00
G3 X6.8146 Y-29.9354 Z6.5000 I-0.0457 J0.0791 F100.00
G1 X6.8146 Y-29.9354 Z5.5000 F100.00
G3 X6.7043 Y-29.9209 Z5.5000 I-0.0646 J-0.0646 F100.00
G3 X6.7957 Y-30.0791 Z5.5000 I0.0457 J-0.0791 F100.00
G3 X6.8146 Y-29.9354 Z5.5000 I-0.0457 J0.0791 F100.00
G1 X6.8146 Y-29.9354 Z4.5000 F100.00
G3 X6.7043 Y-29.9209 Z4.5000 I-0.0646 J-0.0646 F100.00
G3 X6.7957 Y-30.0791 Z4.5000 I0.0457 J-0.0791 F100.00
G3 X6.8146 Y-29.9354 Z4.5000 I-0.0457 J0.0791 F100.00
G1 X6.8146 Y-29.9354 Z3.5000 F100.00
G3 X6.7043 Y-29.9209 Z3.5000 I-0.0646 J-0.0646 F100.00
G3 X6.7957 Y-30.0791 Z3.5000 I0.0457 J-0.0791 F100.00
G3 X6.8146 Y-29.9354 Z3.5000 I-0.0457 J0.0791 F100.00
G1 X6.8146 Y-29.9354 Z2.5000 F100.00
G3 X6.7043 Y-29.9209 Z2.5000 I-0.0646 J-0.0646 F100.00
G3 X6.7957 Y-30.0791 Z2.5000 I0.0457 J-0.0791 F100.00
G3 X6.8146 Y-29.9354 Z2.5000 I-0.0457 J0.0791 F100.00
G1 X6.8146 Y-29.9354 Z1.5000 F100.00
G3 X6.7043 Y-29.9209 Z1.5000 I-0.0646 J-0.0646 F100.00
G3 X6.7957 Y-30.0791 Z1.5000 I0.0457 J-0.0791 F100.00
G3 X6.8146 Y-29.9354 Z1.5000 I-0.0457 J0.0791 F100.00
G1 X6.8146 Y-29.9354 Z0.5000 F100.00
G3 X6.7043 Y-29.9209 Z0.5000 I-0.0646 J-0.0646 F100.00
G3 X6.7957 Y-30.0791 Z0.5000 I0.0457 J-0.0791 F100.00
G3 X6.8146 Y-29.9354 Z0.5000 I-0.0457 J0.0791 F100.00
G1 X6.8146 Y-29.9354 Z0.0000 F100.00
G3 X6.7043 Y-29.9209 Z0.0000 I-0.0646 J-0.0646 F100.00
G3 X6.7957 Y-30.0791 Z0.0000 I0.0457 J-0.0791 F100.00
G3 X6.8146 Y-29.9354 Z0.0000 I-0.0457 J0.0791 F100.00
G0 Z19.5000
G0 X100.0646 Y-6.6854
G0 Z17.5000
G1 X100.0646 Y-6.6854 Z12.5000 F100.00
G3 X99.9543 Y-6.6709 Z12.5000 I-0.0646 J-0.0646 F100.00
G3 X100.0457 Y-6.8291 Z12.5000 I0.0457 J-0.0791 F100.00
G3 X100.0646 Y-6.6854 Z12.5000 I-0.0457 J0.0791 F100.00
G1 X100.0646 Y-6.6854 Z11.5000 F100.00
G3 X99.9543 Y-6.6709 Z11.5000 I-0.0646 J-0.0646 F100.00
G3 X100.0457 Y-6.8291 Z11.5000 I0.0457 J-0.0791 F100.00
G3 X100.0646 Y-6.6854 Z11.5000 I-0.0457 J0.0791 F100.00
G1 X100.0646 Y-6.6854 Z10.5000 F100.00
G3 X99.9543 Y-6.6709 Z10.5000 I-0.0646 J-0.0646 F100.00
G3 X100.0457 Y-6.8291 Z10.5000 I0.0457 J-0.0791 F100.00
G3 X100.0646 Y-6.6854 Z10.5000 I-0.0457 J0.0791 F100.00
G1 X100.0646 Y-6.6854 Z9.5000 F100.00
G3 X99.9543 Y-6.6709 Z9.5000 I-0.0646 J-0.0646 F100.00
G3 X100.0457 Y-6.8291 Z9.5000 I0.0457 J-0.0791 F100.00
G3 X100.0646 Y-6.6854 Z9.5000 I-0.0457 J0.0791 F100.00
G1 X100.0646 Y-6.6854 Z8.5000 F100.00
G3 X99.9543 Y-6.6709 Z8.5000 I-0.0646 J-0.0646 F100.00
G3 X100.0457 Y-6.8291 Z8.5000 I0.0457 J-0.0791 F100.00
G3 X100.0646 Y-6.6854 Z8.5000 I-0.0457 J0.0791 F100.00
G1 X100.0646 Y-6.6854 Z7.5000 F100.00
G3 X99.9543 Y-6.6709 Z7.5000 I-0.0646 J-0.0646 F100.00
G3 X100.0457 Y-6.8291 Z7.5000 I0.0457 J-0.0791 F100.00
G3 X100.0646 Y-6.6854 Z7.5000 I-0.0457 J0.0791 F100.00
G1 X100.0646 Y-6.6854 Z6.5000 F100.00
G3 X99.9543 Y-6.6709 Z6.5000 I-0.0646 J-0.0646 F100.00
G3 X100.0457 Y-6.8291 Z6.5000 I0.0457 J-0.0791 F100.00
G3 X100.0646 Y-6.6854 Z6.5000 I-0.0457 J0.0791 F100.00
G1 X100.0646 Y-6.6854 Z5.5000 F100.00
G3 X99.9543 Y-6.6709 Z5.5000 I-0.0646 J-0.0646 F100.00
G3 X100.0457 Y-6.8291 Z5.5000 I0.0457 J-0.0791 F100.00
G3 X100.0646 Y-6.6854 Z5.5000 I-0.0457 J0.0791 F100.00
G1 X100.0646 Y-6.6854 Z4.5000 F100.00
G3 X99.9543 Y-6.6709 Z4.5000 I-0.0646 J-0.0646 F100.00
G3 X100.0457 Y-6.8291 Z4.5000 I0.0457 J-0.0791 F100.00
G3 X100.0646 Y-6.6854 Z4.5000 I-0.0457 J0.0791 F100.00
G1 X100.0646 Y-6.6854 Z3.5000 F100.00
G3 X99.9543 Y-6.6709 Z3.5000 I-0.0646 J-0.0646 F100.00
G3 X100.0457 Y-6.8291 Z3.5000 I0.0457 J-0.0791 F100.00
G3 X100.0646 Y-6.6854 Z3.5000 I-0.0457 J0.0791 F100.00
G1 X100.0646 Y-6.6854 Z2.5000 F100.00
G3 X99.9543 Y-6.6709 Z2.5000 I-0.0646 J-0.0646 F100.00
G3 X100.0457 Y-6.8291 Z2.5000 I0.0457 J-0.0791 F100.00
G3 X100.0646 Y-6.6854 Z2.5000 I-0.0457 J0.0791 F100.00
G1 X100.0646 Y-6.6854 Z1.5000 F100.00
G3 X99.9543 Y-6.6709 Z1.5000 I-0.0646 J-0.0646 F100.00
G3 X100.0457 Y-6.8291 Z1.5000 I0.0457 J-0.0791 F100.00
G3 X100.0646 Y-6.6854 Z1.5000 I-0.0457 J0.0791 F100.00
G1 X100.0646 Y-6.6854 Z0.5000 F100.00
G3 X99.9543 Y-6.6709 Z0.5000 I-0.0646 J-0.0646 F100.00
G3 X100.0457 Y-6.8291 Z0.5000 I0.0457 J-0.0791 F100.00
G3 X100.0646 Y-6.6854 Z0.5000 I-0.0457 J0.0791 F100.00
G1 X100.0646 Y-6.6854 Z0.0000 F100.00
G3 X99.9543 Y-6.6709 Z0.0000 I-0.0646 J-0.0646 F100.00
G3 X100.0457 Y-6.8291 Z0.0000 I0.0457 J-0.0791 F100.00
G3 X100.0646 Y-6.6854 Z0.0000 I-0.0457 J0.0791 F100.00
G0 Z19.5000
G0 X6.8146 Y-99.9354
G0 Z17.5000
G1 X6.8146 Y-99.9354 Z12.5000 F100.00
G3 X6.7043 Y-99.9209 Z12.5000 I-0.0646 J-0.0646 F100.00
G3 X6.7957 Y-100.0791 Z12.5000 I0.0457 J-0.0791 F100.00
G3 X6.8146 Y-99.9354 Z12.5000 I-0.0457 J0.0791 F100.00
G1 X6.8146 Y-99.9354 Z11.5000 F100.00
G3 X6.7043 Y-99.9209 Z11.5000 I-0.0646 J-0.0646 F100.00
G3 X6.7957 Y-100.0791 Z11.5000 I0.0457 J-0.0791 F100.00
G3 X6.8146 Y-99.9354 Z11.5000 I-0.0457 J0.0791 F100.00
G1 X6.8146 Y-99.9354 Z10.5000 F100.00
G3 X6.7043 Y-99.9209 Z10.5000 I-0.0646 J-0.0646 F100.00
G3 X6.7957 Y-100.0791 Z10.5000 I0.0457 J-0.0791 F100.00
G3 X6.8146 Y-99.9354 Z10.5000 I-0.0457 J0.0791 F100.00
G1 X6.8146 Y-99.9354 Z9.5000 F100.00
G3 X6.7043 Y-99.9209 Z9.5000 I-0.0646 J-0.0646 F100.00
G3 X6.7957 Y-100.0791 Z9.5000 I0.0457 J-0.0791 F100.00
G3 X6.8146 Y-99.9354 Z9.5000 I-0.0457 J0.0791 F100.00
G1 X6.8146 Y-99.9354 Z8.5000 F100.00
G3 X6.7043 Y-99.9209 Z8.5000 I-0.0646 J-0.0646 F100.00
G3 X6.7957 Y-100.0791 Z8.5000 I0.0457 J-0.0791 F100.00
G3 X6.8146 Y-99.9354 Z8.5000 I-0.0457 J0.0791 F100.00
G1 X6.8146 Y-99.9354 Z7.5000 F100.00
G3 X6.7043 Y-99.9209 Z7.5000 I-0.0646 J-0.0646 F100.00
G3 X6.7957 Y-100.0791 Z7.5000 I0.0457 J-0.0791 F100.00
G3 X6.8146 Y-99.9354 Z7.5000 I-0.0457 J0.0791 F100.00
G1 X6.8146 Y-99.9354 Z6.5000 F100.00
G3 X6.7043 Y-99.9209 Z6.5000 I-0.0646 J-0.0646 F100.00
G3 X6.7957 Y-100.0791 Z6.5000 I0.0457 J-0.0791 F100.00
G3 X6.8146 Y-99.9354 Z6.5000 I-0.0457 J0.0791 F100.00
G1 X6.8146 Y-99.9354 Z5.5000 F100.00
G3 X6.7043 Y-99.9209 Z5.5000 I-0.0646 J-0.0646 F100.00
G3 X6.7957 Y-100.0791 Z5.5000 I0.0457 J-0.0791 F100.00
G3 X6.8146 Y-99.9354 Z5.5000 I-0.0457 J0.0791 F100.00
G1 X6.8146 Y-99.9354 Z4.5000 F100.00
G3 X6.7043 Y-99.9209 Z4.5000 I-0.0646 J-0.0646 F100.00
G3 X6.7957 Y-100.0791 Z4.5000 I0.0457 J-0.0791 F100.00
G3 X6.8146 Y-99.9354 Z4.5000 I-0.0457 J0.0791 F100.00
G1 X6.8146 Y-99.9354 Z3.5000 F100.00
G3 X6.7043 Y-99.9209 Z3.5000 I-0.0646 J-0.0646 F100.00
G3 X6.7957 Y-100.0791 Z3.5000 I0.0457 J-0.0791 F100.00
G3 X6.8146 Y-99.9354 Z3.5000 I-0.0457 J0.0791 F100.00
G1 X6.8146 Y-99.9354 Z2.5000 F100.00
G3 X6.7043 Y-99.9209 Z2.5000 I-0.0646 J-0.0646 F100.00
G3 X6.7957 Y-100.0791 Z2.5000 I0.0457 J-0.0791 F100.00
G3 X6.8146 Y-99.9354 Z2.5000 I-0.0457 J0.0791 F100.00
G1 X6.8146 Y-99.9354 Z1.5000 F100.00
G3 X6.7043 Y-99.9209 Z1.5000 I-0.0646 J-0.0646 F100.00
G3 X6.7957 Y-100.0791 Z1.5000 I0.0457 J-0.0791 F100.00
G3 X6.8146 Y-99.9354 Z1.5000 I-0.0457 J0.0791 F100.00
G1 X6.8146 Y-99.9354 Z0.5000 F100.00
G3 X6.7043 Y-99.9209 Z0.5000 I-0.0646 J-0.0646 F100.00
G3 X6.7957 Y-100.0791 Z0.5000 I0.0457 J-0.0791 F100.00
G3 X6.8146 Y-99.9354 Z0.5000 I-0.0457 J0.0791 F100.00
G1 X6.8146 Y-99.9354 Z0.0000 F100.00
G3 X6.7043 Y-99.9209 Z0.0000 I-0.0646 J-0.0646 F100.00
G3 X6.7957 Y-100.0791 Z0.0000 I0.0457 J-0.0791 F100.00
G3 X6.8146 Y-99.9354 Z0.0000 I-0.0457 J0.0791 F100.00
G0 Z19.5000
G0 X6.8146 Y-199.9354
G0 Z17.5000
G1 X6.8146 Y-199.9354 Z12.5000 F100.00
G3 X6.7043 Y-199.9209 Z12.5000 I-0.0646 J-0.0646 F100.00
G3 X6.7957 Y-200.0791 Z12.5000 I0.0457 J-0.0791 F100.00
G3 X6.8146 Y-199.9354 Z12.5000 I-0.0457 J0.0791 F100.00
G1 X6.8146 Y-199.9354 Z11.5000 F100.00
G3 X6.7043 Y-199.9209 Z11.5000 I-0.0646 J-0.0646 F100.00
G3 X6.7957 Y-200.0791 Z11.5000 I0.0457 J-0.0791 F100.00
G3 X6.8146 Y-199.9354 Z11.5000 I-0.0457 J0.0791 F100.00
G1 X6.8146 Y-199.9354 Z10.5000 F100.00
G3 X6.7043 Y-199.9209 Z10.5000 I-0.0646 J-0.0646 F100.00
G3 X6.7957 Y-200.0791 Z10.5000 I0.0457 J-0.0791 F100.00
G3 X6.8146 Y-199.9354 Z10.5000 I-0.0457 J0.0791 F100.00
G1 X6.8146 Y-199.9354 Z9.5000 F100.00
G3 X6.7043 Y-199.9209 Z9.5000 I-0.0646 J-0.0646 F100.00
G3 X6.7957 Y-200.0791 Z9.5000 I0.0457 J-0.0791 F100.00
G3 X6.8146 Y-199.9354 Z9.5000 I-0.0457 J0.0791 F100.00
G1 X6.8146 Y-199.9354 Z8.5000 F100.00
G3 X6.7043 Y-199.9209 Z8.5000 I-0.0646 J-0.0646 F100.00
G3 X6.7957 Y-200.0791 Z8.5000 I0.0457 J-0.0791 F100.00
G3 X6.8146 Y-199.9354 Z8.5000 I-0.0457 J0.0791 F100.00
G1 X6.8146 Y-199.9354 Z7.5000 F100.00
G3 X6.7043 Y-199.9209 Z7.5000 I-0.0646 J-0.0646 F100.00
G3 X6.7957 Y-200.0791 Z7.5000 I0.0457 J-0.0791 F100.00
G3 X6.8146 Y-199.9354 Z7.5000 I-0.0457 J0.0791 F100.00
G1 X6.8146 Y-199.9354 Z6.5000 F100.00
G3 X6.7043 Y-199.9209 Z6.5000 I-0.0646 J-0.0646 F100.00
G3 X6.7957 Y-200.0791 Z6.5000 I0.0457 J-0.0791 F100.00
G3 X6.8146 Y-199.9354 Z6.5000 I-0.0457 J0.0791 F100.00
G1 X6.8146 Y-199.9354 Z5.5000 F100.00
G3 X6.7043 Y-199.9209 Z5.5000 I-0.0646 J-0.0646 F100.00
G3 X6.7957 Y-200.0791 Z5.5000 I0.0457 J-0.0791 F100.00
G3 X6.8146 Y-199.9354 Z5.5000 I-0.0457 J0.0791 F100.00
G1 X6.8146 Y-199.9354 Z4.5000 F100.00
G3 X6.7043 Y-199.9209 Z4.5000 I-0.0646 J-0.0646 F100.00
G3 X6.7957 Y-200.0791 Z4.5000 I0.0457 J-0.0791 F100.00
G3 X6.8146 Y-199.9354 Z4.5000 I-0.0457 J0.0791 F100.00
G1 X6.8146 Y-199.9354 Z3.5000 F100.00
G3 X6.7043 Y-199.9209 Z3.5000 I-0.0646 J-0.0646 F100.00
G3 X6.7957 Y-200.0791 Z3.5000 I0.0457 J-0.0791 F100.00
G3 X6.8146 Y-199.9354 Z3.5000 I-0.0457 J0.0791 F100.00
G1 X6.8146 Y-199.9354 Z2.5000 F100.00
G3 X6.7043 Y-199.9209 Z2.5000 I-0.0646 J-0.0646 F100.00
G3 X6.7957 Y-200.0791 Z2.5000 I0.0457 J-0.0791 F100.00
G3 X6.8146 Y-199.9354 Z2.5000 I-0.0457 J0.0791 F100.00
G1 X6.8146 Y-199.9354 Z1.5000 F100.00
G3 X6.7043 Y-199.9209 Z1.5000 I-0.0646 J-0.0646 F100.00
G3 X6.7957 Y-200.0791 Z1.5000 I0.0457 J-0.0791 F100.00
G3 X6.8146 Y-199.9354 Z1.5000 I-0.0457 J0.0791 F100.00
G1 X6.8146 Y-199.9354 Z0.5000 F100.00
G3 X6.7043 Y-199.9209 Z0.5000 I-0.0646 J-0.0646 F100.00
G3 X6.7957 Y-200.0791 Z0.5000 I0.0457 J-0.0791 F100.00
G3 X6.8146 Y-199.9354 Z0.5000 I-0.0457 J0.0791 F100.00
G1 X6.8146 Y-199.9354 Z0.0000 F100.00
G3 X6.7043 Y-199.9209 Z0.0000 I-0.0646 J-0.0646 F100.00
G3 X6.7957 Y-200.0791 Z0.0000 I0.0457 J-0.0791 F100.00
G3 X6.8146 Y-199.9354 Z0.0000 I-0.0457 J0.0791 F100.00
G0 Z19.5000
G0 X200.0646 Y-6.6854
G0 Z17.5000
G1 X200.0646 Y-6.6854 Z12.5000 F100.00
G3 X199.9543 Y-6.6709 Z12.5000 I-0.0646 J-0.0646 F100.00
G3 X200.0457 Y-6.8291 Z12.5000 I0.0457 J-0.0791 F100.00
G3 X200.0646 Y-6.6854 Z12.5000 I-0.0457 J0.0791 F100.00
G1 X200.0646 Y-6.6854 Z11.5000 F100.00
G3 X199.9543 Y-6.6709 Z11.5000 I-0.0646 J-0.0646 F100.00
G3 X200.0457 Y-6.8291 Z11.5000 I0.0457 J-0.0791 F100.00
G3 X200.0646 Y-6.6854 Z11.5000 I-0.0457 J0.0791 F100.00
G1 X200.0646 Y-6.6854 Z10.5000 F100.00
G3 X199.9543 Y-6.6709 Z10.5000 I-0.0646 J-0.0646 F100.00
G3 X200.0457 Y-6.8291 Z10.5000 I0.0457 J-0.0791 F100.00
G3 X200.0646 Y-6.6854 Z10.5000 I-0.0457 J0.0791 F100.00
G1 X200.0646 Y-6.6854 Z9.5000 F100.00
G3 X199.9543 Y-6.6709 Z9.5000 I-0.0646 J-0.0646 F100.00
G3 X200.0457 Y-6.8291 Z9.5000 I0.0457 J-0.0791 F100.00
G3 X200.0646 Y-6.6854 Z9.5000 I-0.0457 J0.0791 F100.00
G1 X200.0646 Y-6.6854 Z8.5000 F100.00
G3 X199.9543 Y-6.6709 Z8.5000 I-0.0646 J-0.0646 F100.00
G3 X200.0457 Y-6.8291 Z8.5000 I0.0457 J-0.0791 F100.00
G3 X200.0646 Y-6.6854 Z8.5000 I-0.0457 J0.0791 F100.00
G1 X200.0646 Y-6.6854 Z7.5000 F100.00
G3 X199.9543 Y-6.6709 Z7.5000 I-0.0646 J-0.0646 F100.00
G3 X200.0457 Y-6.8291 Z7.5000 I0.0457 J-0.0791 F100.00
G3 X200.0646 Y-6.6854 Z7.5000 I-0.0457 J0.0791 F100.00
G1 X200.0646 Y-6.6854 Z6.5000 F100.00
G3 X199.9543 Y-6.6709 Z6.5000 I-0.0646 J-0.0646 F100.00
G3 X200.0457 Y-6.8291 Z6.5000 I0.0457 J-0.0791 F100.00
G3 X200.0646 Y-6.6854 Z6.5000 I-0.0457 J0.0791 F100.00
G1 X200.0646 Y-6.6854 Z5.5000 F100.00
G3 X199.9543 Y-6.6709 Z5.5000 I-0.0646 J-0.0646 F100.00
G3 X200.0457 Y-6.8291 Z5.5000 I0.0457 J-0.0791 F100.00
G3 X200.0646 Y-6.6854 Z5.5000 I-0.0457 J0.0791 F100.00
G1 X200.0646 Y-6.6854 Z4.5000 F100.00
G3 X199.9543 Y-6.6709 Z4.5000 I-0.0646 J-0.0646 F100.00
G3 X200.0457 Y-6.8291 Z4.5000 I0.0457 J-0.0791 F100.00
G3 X200.0646 Y-6.6854 Z4.5000 I-0.0457 J0.0791 F100.00
G1 X200.0646 Y-6.6854 Z3.5000 F100.00
G3 X199.9543 Y-6.6709 Z3.5000 I-0.0646 J-0.0646 F100.00
G3 X200.0457 Y-6.8291 Z3.5000 I0.0457 J-0.0791 F100.00
G3 X200.0646 Y-6.6854 Z3.5000 I-0.0457 J0.0791 F100.00
G1 X200.0646 Y-6.6854 Z2.5000 F100.00
G3 X199.9543 Y-6.6709 Z2.5000 I-0.0646 J-0.0646 F100.00
G3 X200.0457 Y-6.8291 Z2.5000 I0.0457 J-0.0791 F100.00
G3 X200.0646 Y-6.6854 Z2.5000 I-0.0457 J0.0791 F100.00
G1 X200.0646 Y-6.6854 Z1.5000 F100.00
G3 X199.9543 Y-6.6709 Z1.5000 I-0.0646 J-0.0646 F100.00
G3 X200.0457 Y-6.8291 Z1.5000 I0.0457 J-0.0791 F100.00
G3 X200.0646 Y-6.6854 Z1.5000 I-0.0457 J0.0791 F100.00
G1 X200.0646 Y-6.6854 Z0.5000 F100.00
G3 X199.9543 Y-6.6709 Z0.5000 I-0.0646 J-0.0646 F100.00
G3 X200.0457 Y-6.8291 Z0.5000 I0.0457 J-0.0791 F100.00
G3 X200.0646 Y-6.6854 Z0.5000 I-0.0457 J0.0791 F100.00
G1 X200.0646 Y-6.6854 Z0.0000 F100.00
G3 X199.9543 Y-6.6709 Z0.0000 I-0.0646 J-0.0646 F100.00
G3 X200.0457 Y-6.8291 Z0.0000 I0.0457 J-0.0791 F100.00
G3 X200.0646 Y-6.6854 Z0.0000 I-0.0457 J0.0791 F100.00
G0 Z19.5000
G0 X300.7071 Y0.7071
G0 Z17.5000
G1 X300.7071 Y0.7071 Z12.5000 F100.00
G2 X301.0000 Y0.0000 Z12.5000 I-0.7071 J-0.7071 F100.00
G1 X301.0000 Y-300.0000 Z12.5000 F100.00
G2 X300.0000 Y-301.0000 Z12.5000 I-1.0000 J0.0000 F100.00
G1 X0.0000 Y-301.0000 Z12.5000 F100.00
G2 X-1.0000 Y-300.0000 Z12.5000 I0.0000 J1.0000 F100.00
G1 X-1.0000 Y0.0000 Z12.5000 F100.00
G2 X0.0000 Y1.0000 Z12.5000 I1.0000 J0.0000 F100.00
G1 X300.0000 Y1.0000 Z12.5000 F100.00
G2 X300.7071 Y0.7071 Z12.5000 I0.0000 J-1.0000 F100.00
G1 X300.7071 Y0.7071 Z11.5000 F100.00
G2 X301.0000 Y0.0000 Z11.5000 I-0.7071 J-0.7071 F100.00
G1 X301.0000 Y-300.0000 Z11.5000 F100.00
G2 X300.0000 Y-301.0000 Z11.5000 I-1.0000 J0.0000 F100.00
G1 X0.0000 Y-301.0000 Z11.5000 F100.00
G2 X-1.0000 Y-300.0000 Z11.5000 I0.0000 J1.0000 F100.00
G1 X-1.0000 Y0.0000 Z11.5000 F100.00
G2 X0.0000 Y1.0000 Z11.5000 I1.0000 J0.0000 F100.00
G1 X300.0000 Y1.0000 Z11.5000 F100.00
G2 X300.7071 Y0.7071 Z11.5000 I0.0000 J-1.0000 F100.00
G1 X300.7071 Y0.7071 Z10.5000 F100.00
G2 X301.0000 Y0.0000 Z10.5000 I-0.7071 J-0.7071 F100.00
G1 X301.0000 Y-300.0000 Z10.5000 F100.00
G2 X300.0000 Y-301.0000 Z10.5000 I-1.0000 J0.0000 F100.00
G1 X0.0000 Y-301.0000 Z10.5000 F100.00
G2 X-1.0000 Y-300.0000 Z10.5000 I0.0000 J1.0000 F100.00
G1 X-1.0000 Y0.0000 Z10.5000 F100.00
G2 X0.0000 Y1.0000 Z10.5000 I1.0000 J0.0000 F100.00
G1 X300.0000 Y1.0000 Z10.5000 F100.00
G2 X300.7071 Y0.7071 Z10.5000 I0.0000 J-1.0000 F100.00
G1 X300.7071 Y0.7071 Z9.5000 F100.00
G2 X301.0000 Y0.0000 Z9.5000 I-0.7071 J-0.7071 F100.00
G1 X301.0000 Y-300.0000 Z9.5000 F100.00
G2 X300.0000 Y-301.0000 Z9.5000 I-1.0000 J0.0000 F100.00
G1 X0.0000 Y-301.0000 Z9.5000 F100.00
G2 X-1.0000 Y-300.0000 Z9.5000 I0.0000 J1.0000 F100.00
G1 X-1.0000 Y0.0000 Z9.5000 F100.00
G2 X0.0000 Y1.0000 Z9.5000 I1.0000 J0.0000 F100.00
G1 X300.0000 Y1.0000 Z9.5000 F100.00
G2 X300.7071 Y0.7071 Z9.5000 I0.0000 J-1.0000 F100.00
G1 X300.7071 Y0.7071 Z8.5000 F100.00
G2 X301.0000 Y0.0000 Z8.5000 I-0.7071 J-0.7071 F100.00
G1 X301.0000 Y-300.0000 Z8.5000 F100.00
G2 X300.0000 Y-301.0000 Z8.5000 I-1.0000 J0.0000 F100.00
G1 X0.0000 Y-301.0000 Z8.5000 F100.00
G2 X-1.0000 Y-300.0000 Z8.5000 I0.0000 J1.0000 F100.00
G1 X-1.0000 Y0.0000 Z8.5000 F100.00
G2 X0.0000 Y1.0000 Z8.5000 I1.0000 J0.0000 F100.00
G1 X300.0000 Y1.0000 Z8.5000 F100.00
G2 X300.7071 Y0.7071 Z8.5000 I0.0000 J-1.0000 F100.00
G1 X300.7071 Y0.7071 Z7.5000 F100.00
G2 X301.0000 Y0.0000 Z7.5000 I-0.7071 J-0.7071 F100.00
G1 X301.0000 Y-300.0000 Z7.5000 F100.00
G2 X300.0000 Y-301.0000 Z7.5000 I-1.0000 J0.0000 F100.00
G1 X0.0000 Y-301.0000 Z7.5000 F100.00
G2 X-1.0000 Y-300.0000 Z7.5000 I0.0000 J1.0000 F100.00
G1 X-1.0000 Y0.0000 Z7.5000 F100.00
G2 X0.0000 Y1.0000 Z7.5000 I1.0000 J0.0000 F100.00
G1 X300.0000 Y1.0000 Z7.5000 F100.00
G2 X300.7071 Y0.7071 Z7.5000 I0.0000 J-1.0000 F100.00
G1 X300.7071 Y0.7071 Z6.5000 F100.00
G2 X301.0000 Y0.0000 Z6.5000 I-0.7071 J-0.7071 F100.00
G1 X301.0000 Y-300.0000 Z6.5000 F100.00
G2 X300.0000 Y-301.0000 Z6.5000 I-1.0000 J0.0000 F100.00
G1 X0.0000 Y-301.0000 Z6.5000 F100.00
G2 X-1.0000 Y-300.0000 Z6.5000 I0.0000 J1.0000 F100.00
G1 X-1.0000 Y0.0000 Z6.5000 F100.00
G2 X0.0000 Y1.0000 Z6.5000 I1.0000 J0.0000 F100.00
G1 X300.0000 Y1.0000 Z6.5000 F100.00
G2 X300.7071 Y0.7071 Z6.5000 I0.0000 J-1.0000 F100.00
G1 X300.7071 Y0.7071 Z5.5000 F100.00
G2 X301.0000 Y0.0000 Z5.5000 I-0.7071 J-0.7071 F100.00
G1 X301.0000 Y-300.0000 Z5.5000 F100.00
G2 X300.0000 Y-301.0000 Z5.5000 I-1.0000 J0.0000 F100.00
G1 X0.0000 Y-301.0000 Z5.5000 F100.00
G2 X-1.0000 Y-300.0000 Z5.5000 I0.0000 J1.0000 F100.00
G1 X-1.0000 Y0.0000 Z5.5000 F100.00
G2 X0.0000 Y1.0000 Z5.5000 I1.0000 J0.0000 F100.00
G1 X300.0000 Y1.0000 Z5.5000 F100.00
G2 X300.7071 Y0.7071 Z5.5000 I0.0000 J-1.0000 F100.00
G1 X300.7071 Y0.7071 Z4.5000 F100.00
G2 X301.0000 Y0.0000 Z4.5000 I-0.7071 J-0.7071 F100.00
G1 X301.0000 Y-300.0000 Z4.5000 F100.00
G2 X300.0000 Y-301.0000 Z4.5000 I-1.0000 J0.0000 F100.00
G1 X0.0000 Y-301.0000 Z4.5000 F100.00
G2 X-1.0000 Y-300.0000 Z4.5000 I0.0000 J1.0000 F100.00
G1 X-1.0000 Y0.0000 Z4.5000 F100.00
G2 X0.0000 Y1.0000 Z4.5000 I1.0000 J0.0000 F100.00
G1 X300.0000 Y1.0000 Z4.5000 F100.00
G2 X300.7071 Y0.7071 Z4.5000 I0.0000 J-1.0000 F100.00
G1 X300.7071 Y0.7071 Z3.5000 F100.00
G2 X301.0000 Y0.0000 Z3.5000 I-0.7071 J-0.7071 F100.00
G1 X301.0000 Y-300.0000 Z3.5000 F100.00
G2 X300.0000 Y-301.0000 Z3.5000 I-1.0000 J0.0000 F100.00
G1 X0.0000 Y-301.0000 Z3.5000 F100.00
G2 X-1.0000 Y-300.0000 Z3.5000 I0.0000 J1.0000 F100.00
G1 X-1.0000 Y0.0000 Z3.5000 F100.00
G2 X0.0000 Y1.0000 Z3.5000 I1.0000 J0.0000 F100.00
G1 X300.0000 Y1.0000 Z3.5000 F100.00
G2 X300.7071 Y0.7071 Z3.5000 I0.0000 J-1.0000 F100.00
G1 X300.7071 Y0.7071 Z2.5000 F100.00
G2 X301.0000 Y0.0000 Z2.5000 I-0.7071 J-0.7071 F100.00
G1 X301.0000 Y-300.0000 Z2.5000 F100.00
G2 X300.0000 Y-301.0000 Z2.5000 I-1.0000 J0.0000 F100.00
G1 X0.0000 Y-301.0000 Z2.5000 F100.00
G2 X-1.0000 Y-300.0000 Z2.5000 I0.0000 J1.0000 F100.00
G1 X-1.0000 Y0.0000 Z2.5000 F100.00
G2 X0.0000 Y1.0000 Z2.5000 I1.0000 J0.0000 F100.00
G1 X300.0000 Y1.0000 Z2.5000 F100.00
G2 X300.7071 Y0.7071 Z2.5000 I0.0000 J-1.0000 F100.00
G1 X300.7071 Y0.7071 Z1.5000 F100.00
G2 X301.0000 Y0.0000 Z1.5000 I-0.7071 J-0.7071 F100.00
G1 X301.0000 Y-300.0000 Z1.5000 F100.00
G2 X300.0000 Y-301.0000 Z1.5000 I-1.0000 J0.0000 F100.00
G1 X0.0000 Y-301.0000 Z1.5000 F100.00
G2 X-1.0000 Y-300.0000 Z1.5000 I0.0000 J1.0000 F100.00
G1 X-1.0000 Y0.0000 Z1.5000 F100.00
G2 X0.0000 Y1.0000 Z1.5000 I1.0000 J0.0000 F100.00
G1 X300.0000 Y1.0000 Z1.5000 F100.00
G2 X300.7071 Y0.7071 Z1.5000 I0.0000 J-1.0000 F100.00
G1 X300.7071 Y0.7071 Z0.5000 F100.00
G2 X301.0000 Y0.0000 Z0.5000 I-0.7071 J-0.7071 F100.00
G1 X301.0000 Y-300.0000 Z0.5000 F100.00
G2 X300.0000 Y-301.0000 Z0.5000 I-1.0000 J0.0000 F100.00
G1 X0.0000 Y-301.0000 Z0.5000 F100.00
G2 X-1.0000 Y-300.0000 Z0.5000 I0.0000 J1.0000 F100.00
G1 X-1.0000 Y0.0000 Z0.5000 F100.00
G2 X0.0000 Y1.0000 Z0.5000 I1.0000 J0.0000 F100.00
G1 X300.0000 Y1.0000 Z0.5000 F100.00
G2 X300.7071 Y0.7071 Z0.5000 I0.0000 J-1.0000 F100.00
G1 X300.7071 Y0.7071 Z0.0000 F100.00
G2 X301.0000 Y0.0000 Z0.0000 I-0.7071 J-0.7071 F100.00
G1 X301.0000 Y-300.0000 Z0.0000 F100.00
G2 X300.0000 Y-301.0000 Z0.0000 I-1.0000 J0.0000 F100.00
G1 X0.0000 Y-301.0000 Z0.0000 F100.00
G2 X-1.0000 Y-300.0000 Z0.0000 I0.0000 J1.0000 F100.00
G1 X-1.0000 Y0.0000 Z0.0000 F100.00
G2 X0.0000 Y1.0000 Z0.0000 I1.0000 J0.0000 F100.00
G1 X300.0000 Y1.0000 Z0.0000 F100.00
G2 X300.7071 Y0.7071 Z0.0000 I0.0000 J-1.0000 F100.00
G0 Z19.5000
G0 X387.3697 Y-141.8803
G0 Z17.5000
G1 X387.3697 Y-141.8803 Z12.5000 F100.00
G3 X384.2461 Y-141.1754 Z12.5000 I-2.1197 J-2.1197 F100.00
G3 X382.4254 Y-145.0039 Z12.5000 I1.0039 J-2.8246 F100.00
G3 X386.2539 Y-146.8246 Z12.5000 I2.8246 J1.0039 F100.00
G3 X387.3697 Y-141.8803 Z12.5000 I-1.0039 J2.8246 F100.00
G1 X387.3697 Y-141.8803 Z11.5000 F100.00
G3 X384.2461 Y-141.1754 Z11.5000 I-2.1197 J-2.1197 F100.00
G3 X382.4254 Y-145.0039 Z11.5000 I1.0039 J-2.8246 F100.00
G3 X386.2539 Y-146.8246 Z11.5000 I2.8246 J1.0039 F100.00
G3 X387.3697 Y-141.8803 Z11.5000 I-1.0039 J2.8246 F100.00
G1 X387.3697 Y-141.8803 Z10.5000 F100.00
G3 X384.2461 Y-141.1754 Z10.5000 I-2.1197 J-2.1197 F100.00
G3 X382.4254 Y-145.0039 Z10.5000 I1.0039 J-2.8246 F100.00
G3 X386.2539 Y-146.8246 Z10.5000 I2.8246 J1.0039 F100.00
G3 X387.3697 Y-141.8803 Z10.5000 I-1.0039 J2.8246 F100.00
G1 X387.3697 Y-141.8803 Z9.5000 F100.00
G3 X384.2461 Y-141.1754 Z9.5000 I-2.1197 J-2.1197 F100.00
G3 X382.4254 Y-145.0039 Z9.5000 I1.0039 J-2.8246 F100.00
G3 X386.2539 Y-146.8246 Z9.5000 I2.8246 J1.0039 F100.00
G3 X387.3697 Y-141.8803 Z9.5000 I-1.0039 J2.8246 F100.00
G1 X387.3697 Y-141.8803 Z8.5000 F100.00
G3 X384.2461 Y-141.1754 Z8.5000 I-2.1197 J-2.1197 F100.00
G3 X382.4254 Y-145.0039 Z8.5000 I1.0039 J-2.8246 F100.00
G3 X386.2539 Y-146.8246 Z8.5000 I2.8246 J1.0039 F100.00
G3 X387.3697 Y-141.8803 Z8.5000 I-1.0039 J2.8246 F100.00
G1 X387.3697 Y-141.8803 Z7.5000 F100.00
G3 X384.2461 Y-141.1754 Z7.5000 I-2.1197 J-2.1197 F100.00
G3 X382.4254 Y-145.0039 Z7.5000 I1.0039 J-2.8246 F100.00
G3 X386.2539 Y-146.8246 Z7.5000 I2.8246 J1.0039 F100.00
G3 X387.3697 Y-141.8803 Z7.5000 I-1.0039 J2.8246 F100.00
G1 X387.3697 Y-141.8803 Z6.5000 F100.00
G3 X384.2461 Y-141.1754 Z6.5000 I-2.1197 J-2.1197 F100.00
G3 X382.4254 Y-145.0039 Z6.5000 I1.0039 J-2.8246 F100.00
G3 X386.2539 Y-146.8246 Z6.5000 I2.8246 J1.0039 F100.00
G3 X387.3697 Y-141.8803 Z6.5000 I-1.0039 J2.8246 F100.00
G1 X387.3697 Y-141.8803 Z5.5000 F100.00
G3 X384.2461 Y-141.1754 Z5.5000 I-2.1197 J-2.1197 F100.00
G3 X382.4254 Y-145.0039 Z5.5000 I1.0039 J-2.8246 F100.00
G3 X386.2539 Y-146.8246 Z5.5000 I2.8246 J1.0039 F100.00
G3 X387.3697 Y-141.8803 Z5.5000 I-1.0039 J2.8246 F100.00
G1 X387.3697 Y-141.8803 Z4.5000 F100.00
G3 X384.2461 Y-141.1754 Z4.5000 I-2.1197 J-2.1197 F100.00
G3 X382.4254 Y-145.0039 Z4.5000 I1.0039 J-2.8246 F100.00
G3 X386.2539 Y-146.8246 Z4.5000 I2.8246 J1.0039 F100.00
G3 X387.3697 Y-141.8803 Z4.5000 I-1.0039 J2.8246 F100.00
G1 X387.3697 Y-141.8803 Z3.5000 F100.00
G3 X384.2461 Y-141.1754 Z3.5000 I-2.1197 J-2.1197 F100.00
G3 X382.4254 Y-145.0039 Z3.5000 I1.0039 J-2.8246 F100.00
G3 X386.2539 Y-146.8246 Z3.5000 I2.8246 J1.0039 F100.00
G3 X387.3697 Y-141.8803 Z3.5000 I-1.0039 J2.8246 F100.00
G1 X387.3697 Y-141.8803 Z2.5000 F100.00
G3 X384.2461 Y-141.1754 Z2.5000 I-2.1197 J-2.1197 F100.00
G3 X382.4254 Y-145.0039 Z2.5000 I1.0039 J-2.8246 F100.00
G3 X386.2539 Y-146.8246 Z2.5000 I2.8246 J1.0039 F100.00
G3 X387.3697 Y-141.8803 Z2.5000 I-1.0039 J2.8246 F100.00
G1 X387.3697 Y-141.8803 Z1.5000 F100.00
G3 X384.2461 Y-141.1754 Z1.5000 I-2.1197 J-2.1197 F100.00
G3 X382.4254 Y-145.0039 Z1.5000 I1.0039 J-2.8246 F100.00
G3 X386.2539 Y-146.8246 Z1.5000 I2.8246 J1.0039 F100.00
G3 X387.3697 Y-141.8803 Z1.5000 I-1.0039 J2.8246 F100.00
G1 X387.3697 Y-141.8803 Z0.5000 F100.00
G3 X384.2461 Y-141.1754 Z0.5000 I-2.1197 J-2.1197 F100.00
G3 X382.4254 Y-145.0039 Z0.5000 I1.0039 J-2.8246 F100.00
G3 X386.2539 Y-146.8246 Z0.5000 I2.8246 J1.0039 F100.00
G3 X387.3697 Y-141.8803 Z0.5000 I-1.0039 J2.8246 F100.00
G1 X387.3697 Y-141.8803 Z0.0000 F100.00
G3 X384.2461 Y-141.1754 Z0.0000 I-2.1197 J-2.1197 F100.00
G3 X382.4254 Y-145.0039 Z0.0000 I1.0039 J-2.8246 F100.00
G3 X386.2539 Y-146.8246 Z0.0000 I2.8246 J1.0039 F100.00
G3 X387.3697 Y-141.8803 Z0.0000 I-1.0039 J2.8246 F100.00
G0 Z19.5000
G0 X390.1197 Y-157.8803
G0 Z17.5000
G1 X390.1197 Y-157.8803 Z12.5000 F100.00
G3 X386.9961 Y-157.1754 Z12.5000 I-2.1197 J-2.1197 F100.00
G3 X385.1754 Y-161.0039 Z12.5000 I1.0039 J-2.8246 F100.00
G3 X389.0039 Y-162.8246 Z12.5000 I2.8246 J1.0039 F100.00
G3 X390.1197 Y-157.8803 Z12.5000 I-1.0039 J2.8246 F100.00
G1 X390.1197 Y-157.8803 Z11.5000 F100.00
G3 X386.9961 Y-157.1754 Z11.5000 I-2.1197 J-2.1197 F100.00
G3 X385.1754 Y-161.0039 Z11.5000 I1.0039 J-2.8246 F100.00
G3 X389.0039 Y-162.8246 Z11.5000 I2.8246 J1.0039 F100.00
G3 X390.1197 Y-157.8803 Z11.5000 I-1.0039 J2.8246 F100.00
G1 X390.1197 Y-157.8803 Z10.5000 F100.00
G3 X386.9961 Y-157.1754 Z10.5000 I-2.1197 J-2.1197 F100.00
G3 X385.1754 Y-161.0039 Z10.5000 I1.0039 J-2.8246 F100.00
G3 X389.0039 Y-162.8246 Z10.5000 I2.8246 J1.0039 F100.00
G3 X390.1197 Y-157.8803 Z10.5000 I-1.0039 J2.8246 F100.00
G1 X390.1197 Y-157.8803 Z9.5000 F100.00
G3 X386.9961 Y-157.1754 Z9.5000 I-2.1197 J-2.1197 F100.00
G3 X385.1754 Y-161.0039 Z9.5000 I1.0039 J-2.8246 F100.00
G3 X389.0039 Y-162.8246 Z9.5000 I2.8246 J1.0039 F100.00
G3 X390.1197 Y-157.8803 Z9.5000 I-1.0039 J2.8246 F100.00
G1 X390.1197 Y-157.8803 Z8.5000 F100.00
G3 X386.9961 Y-157.1754 Z8.5000 I-2.1197 J-2.1197 F100.00
G3 X385.1754 Y-161.0039 Z8.5000 I1.0039 J-2.8246 F100.00
G3 X389.0039 Y-162.8246 Z8.5000 I2.8246 J1.0039 F100.00
G3 X390.1197 Y-157.8803 Z8.5000 I-1.0039 J2.8246 F100.00
G1 X390.1197 Y-157.8803 Z7.5000 F100.00
G3 X386.9961 Y-157.1754 Z7.5000 I-2.1197 J-2.1197 F100.00
G3 X385.1754 Y-161.0039 Z7.5000 I1.0039 J-2.8246 F100.00
G3 X389.0039 Y-162.8246 Z7.5000 I2.8246 J1.0039 F100.00
G3 X390.1197 Y-157.8803 Z7.5000 I-1.0039 J2.8246 F100.00
G1 X390.1197 Y-157.8803 Z6.5000 F100.00
G3 X386.9961 Y-157.1754 Z6.5000 I-2.1197 J-2.1197 F100.00
G3 X385.1754 Y-161.0039 Z6.5000 I1.0039 J-2.8246 F100.00
G3 X389.0039 Y-162.8246 Z6.5000 I2.8246 J1.0039 F100.00
G3 X390.1197 Y-157.8803 Z6.5000 I-1.0039 J2.8246 F100.00
G1 X390.1197 Y-157.8803 Z5.5000 F100.00
G3 X386.9961 Y-157.1754 Z5.5000 I-2.1197 J-2.1197 F100.00
G3 X385.1754 Y-161.0039 Z5.5000 I1.0039 J-2.8246 F100.00
G3 X389.0039 Y-162.8246 Z5.5000 I2.8246 J1.0039 F100.00
G3 X390.1197 Y-157.8803 Z5.5000 I-1.0039 J2.8246 F100.00
G1 X390.1197 Y-157.8803 Z4.5000 F100.00
G3 X386.9961 Y-157.1754 Z4.5000 I-2.1197 J-2.1197 F100.00
G3 X385.1754 Y-161.0039 Z4.5000 I1.0039 J-2.8246 F100.00
G3 X389.0039 Y-162.8246 Z4.5000 I2.8246 J1.0039 F100.00
G3 X390.1197 Y-157.8803 Z4.5000 I-1.0039 J2.8246 F100.00
G1 X390.1197 Y-157.8803 Z3.5000 F100.00
G3 X386.9961 Y-157.1754 Z3.5000 I-2.1197 J-2.1197 F100.00
G3 X385.1754 Y-161.0039 Z3.5000 I1.0039 J-2.8246 F100.00
G3 X389.0039 Y-162.8246 Z3.5000 I2.8246 J1.0039 F100.00
G3 X390.1197 Y-157.8803 Z3.5000 I-1.0039 J2.8246 F100.00
G1 X390.1197 Y-157.8803 Z2.5000 F100.00
G3 X386.9961 Y-157.1754 Z2.5000 I-2.1197 J-2.1197 F100.00
G3 X385.1754 Y-161.0039 Z2.5000 I1.0039 J-2.8246 F100.00
G3 X389.0039 Y-162.8246 Z2.5000 I2.8246 J1.0039 F100.00
G3 X390.1197 Y-157.8803 Z2.5000 I-1.0039 J2.8246 F100.00
G1 X390.1197 Y-157.8803 Z1.5000 F100.00
G3 X386.9961 Y-157.1754 Z1.5000 I-2.1197 J-2.1197 F100.00
G3 X385.1754 Y-161.0039 Z1.5000 I1.0039 J-2.8246 F100.00
G3 X389.0039 Y-162.8246 Z1.5000 I2.8246 J1.0039 F100.00
G3 X390.1197 Y-157.8803 Z1.5000 I-1.0039 J2.8246 F100.00
G1 X390.1197 Y-157.8803 Z0.5000 F100.00
G3 X386.9961 Y-157.1754 Z0.5000 I-2.1197 J-2.1197 F100.00
G3 X385.1754 Y-161.0039 Z0.5000 I1.0039 J-2.8246 F100.00
G3 X389.0039 Y-162.8246 Z0.5000 I2.8246 J1.0039 F100.00
G3 X390.1197 Y-157.8803 Z0.5000 I-1.0039 J2.8246 F100.00
G1 X390.1197 Y-157.8803 Z0.0000 F100.00
G3 X386.9961 Y-157.1754 Z0.0000 I-2.1197 J-2.1197 F100.00
G3 X385.1754 Y-161.0039 Z0.0000 I1.0039 J-2.8246 F100.00
G3 X389.0039 Y-162.8246 Z0.0000 I2.8246 J1.0039 F100.00
G3 X390.1197 Y-157.8803 Z0.0000 I-1.0039 J2.8246 F100.00
G0 Z19.5000
G0 X390.1197 Y-67.8803
G0 Z17.5000
G1 X390.1197 Y-67.8803 Z12.5000 F100.00
G3 X386.9961 Y-67.1754 Z12.5000 I-2.1197 J-2.1197 F100.00
G3 X385.1754 Y-71.0039 Z12.5000 I1.0039 J-2.8246 F100.00
G3 X389.0039 Y-72.8246 Z12.5000 I2.8246 J1.0039 F100.00
G3 X390.1197 Y-67.8803 Z12.5000 I-1.0039 J2.8246 F100.00
G1 X390.1197 Y-67.8803 Z11.5000 F100.00
G3 X386.9961 Y-67.1754 Z11.5000 I-2.1197 J-2.1197 F100.00
G3 X385.1754 Y-71.0039 Z11.5000 I1.0039 J-2.8246 F100.00
G3 X389.0039 Y-72.8246 Z11.5000 I2.8246 J1.0039 F100.00
G3 X390.1197 Y-67.8803 Z11.5000 I-1.0039 J2.8246 F100.00
G1 X390.1197 Y-67.8803 Z10.5000 F100.00
G3 X386.9961 Y-67.1754 Z10.5000 I-2.1197 J-2.1197 F100.00
G3 X385.1754 Y-71.0039 Z10.5000 I1.0039 J-2.8246 F100.00
G3 X389.0039 Y-72.8246 Z10.5000 I2.8246 J1.0039 F100.00
G3 X390.1197 Y-67.8803 Z10.5000 I-1.0039 J2.8246 F100.00
G1 X390.1197 Y-67.8803 Z9.5000 F100.00
G3 X386.9961 Y-67.1754 Z9.5000 I-2.1197 J-2.1197 F100.00
G3 X385.1754 Y-71.0039 Z9.5000 I1.0039 J-2.8246 F100.00
G3 X389.0039 Y-72.8246 Z9.5000 I2.8246 J1.0039 F100.00
G3 X390.1197 Y-67.8803 Z9.5000 I-1.0039 J2.8246 F100.00
G1 X390.1197 Y-67.8803 Z8.5000 F100.00
G3 X386.9961 Y-67.1754 Z8.5000 I-2.1197 J-2.1197 F100.00
G3 X385.1754 Y-71.0039 Z8.5000 I1.0039 J-2.8246 F100.00
G3 X389.0039 Y-72.8246 Z8.5000 I2.8246 J1.0039 F100.00
G3 X390.1197 Y-67.8803 Z8.5000 I-1.0039 J2.8246 F100.00
G1 X390.1197 Y-67.8803 Z7.5000 F100.00
G3 X386.9961 Y-67.1754 Z7.5000 I-2.1197 J-2.1197 F100.00
G3 X385.1754 Y-71.0039 Z7.5000 I1.0039 J-2.8246 F100.00
G3 X389.0039 Y-72.8246 Z7.5000 I2.8246 J1.0039 F100.00
G3 X390.1197 Y-67.8803 Z7.5000 I-1.0039 J2.8246 F100.00
G1 X390.1197 Y-67.8803 Z6.5000 F100.00
G3 X386.9961 Y-67.1754 Z6.5000 I-2.1197 J-2.1197 F100.00
G3 X385.1754 Y-71.0039 Z6.5000 I1.0039 J-2.8246 F100.00
G3 X389.0039 Y-72.8246 Z6.5000 I2.8246 J1.0039 F100.00
G3 X390.1197 Y-67.8803 Z6.5000 I-1.0039 J2.8246 F100.00
G1 X390.1197 Y-67.8803 Z5.5000 F100.00
G3 X386.9961 Y-67.1754 Z5.5000 I-2.1197 J-2.1197 F100.00
G3 X385.1754 Y-71.0039 Z5.5000 I1.0039 J-2.8246 F100.00
G3 X389.0039 Y-72.8246 Z5.5000 I2.8246 J1.0039 F100.00
G3 X390.1197 Y-67.8803 Z5.5000 I-1.0039 J2.8246 F100.00
G1 X390.1197 Y-67.8803 Z4.5000 F100.00
G3 X386.9961 Y-67.1754 Z4.5000 I-2.1197 J-2.1197 F100.00
G3 X385.1754 Y-71.0039 Z4.5000 I1.0039 J-2.8246 F100.00
G3 X389.0039 Y-72.8246 Z4.5000 I2.8246 J1.0039 F100.00
G3 X390.1197 Y-67.8803 Z4.5000 I-1.0039 J2.8246 F100.00
G1 X390.1197 Y-67.8803 Z3.5000 F100.00
G3 X386.9961 Y-67.1754 Z3.5000 I-2.1197 J-2.1197 F100.00
G3 X385.1754 Y-71.0039 Z3.5000 I1.0039 J-2.8246 F100.00
G3 X389.0039 Y-72.8246 Z3.5000 I2.8246 J1.0039 F100.00
G3 X390.1197 Y-67.8803 Z3.5000 I-1.0039 J2.8246 F100.00
G1 X390.1197 Y-67.8803 Z2.5000 F100.00
G3 X386.9961 Y-67.1754 Z2.5000 I-2.1197 J-2.1197 F100.00
G3 X385.1754 Y-71.0039 Z2.5000 I1.0039 J-2.8246 F100.00
G3 X389.0039 Y-72.8246 Z2.5000 I2.8246 J1.0039 F100.00
G3 X390.1197 Y-67.8803 Z2.5000 I-1.0039 J2.8246 F100.00
G1 X390.1197 Y-67.8803 Z1.5000 F100.00
G3 X386.9961 Y-67.1754 Z1.5000 I-2.1197 J-2.1197 F100.00
G3 X385.1754 Y-71.0039 Z1.5000 I1.0039 J-2.8246 F100.00
G3 X389.0039 Y-72.8246 Z1.5000 I2.8246 J1.0039 F100.00
G3 X390.1197 Y-67.8803 Z1.5000 I-1.0039 J2.8246 F100.00
G1 X390.1197 Y-67.8803 Z0.5000 F100.00
G3 X386.9961 Y-67.1754 Z0.5000 I-2.1197 J-2.1197 F100.00
G3 X385.1754 Y-71.0039 Z0.5000 I1.0039 J-2.8246 F100.00
G3 X389.0039 Y-72.8246 Z0.5000 I2.8246 J1.0039 F100.00
G3 X390.1197 Y-67.8803 Z0.5000 I-1.0039 J2.8246 F100.00
G1 X390.1197 Y-67.8803 Z0.0000 F100.00
G3 X386.9961 Y-67.1754 Z0.0000 I-2.1197 J-2.1197 F100.00
G3 X385.1754 Y-71.0039 Z0.0000 I1.0039 J-2.8246 F100.00
G3 X389.0039 Y-72.8246 Z0.0000 I2.8246 J1.0039 F100.00
G3 X390.1197 Y-67.8803 Z0.0000 I-1.0039 J2.8246 F100.00
G0 Z19.5000
G0 X442.5000 Y-54.9927
G0 Z17.5000
G1 X442.5000 Y-55.0000 Z12.5000 F100.00
G1 X442.5000 Y-204.0000 Z12.5000 F100.00
G1 X578.0000 Y-204.0000 Z12.5000 F100.00
G2 X579.0000 Y-205.0000 Z12.5000 I0.0000 J-1.0000 F100.00
G1 X579.0000 Y-255.0000 Z12.5000 F100.00
G2 X578.0000 Y-256.0000 Z12.5000 I-1.0000 J0.0000 F100.00
G1 X305.0000 Y-256.0000 Z12.5000 F100.00
G2 X304.0000 Y-255.0000 Z12.5000 I0.0000 J1.0000 F100.00
G1 X304.0000 Y-55.0000 Z12.5000 F100.00
G2 X305.0000 Y-54.0000 Z12.5000 I1.0000 J0.0000 F100.00
G1 X441.5000 Y-54.0000 Z12.5000 F100.00
G2 X442.5000 Y-55.0000 Z12.5000 I0.0000 J-1.0000 F100.00
G1 X442.5000 Y-55.0000 Z11.5000 F100.00
G1 X442.5000 Y-204.0000 Z11.5000 F100.00
G1 X578.0000 Y-204.0000 Z11.5000 F100.00
G2 X579.0000 Y-205.0000 Z11.5000 I0.0000 J-1.0000 F100.00
G1 X579.0000 Y-255.0000 Z11.5000 F100.00
G2 X578.0000 Y-256.0000 Z11.5000 I-1.0000 J0.0000 F100.00
G1 X305.0000 Y-256.0000 Z11.5000 F100.00
G2 X304.0000 Y-255.0000 Z11.5000 I0.0000 J1.0000 F100.00
G1 X304.0000 Y-55.0000 Z11.5000 F100.00
G2 X305.0000 Y-54.0000 Z11.5000 I1.0000 J0.0000 F100.00
G1 X441.5000 Y-54.0000 Z11.5000 F100.00
G2 X442.5000 Y-55.0000 Z11.5000 I0.0000 J-1.0000 F100.00
G1 X442.5000 Y-55.0000 Z10.5000 F100.00
G1 X442.5000 Y-204.0000 Z10.5000 F100.00
G1 X578.0000 Y-204.0000 Z10.5000 F100.00
G2 X579.0000 Y-205.0000 Z10.5000 I0.0000 J-1.0000 F100.00
G1 X579.0000 Y-255.0000 Z10.5000 F100.00
G2 X578.0000 Y-256.0000 Z10.5000 I-1.0000 J0.0000 F100.00
G1 X305.0000 Y-256.0000 Z10.5000 F100.00
G2 X304.0000 Y-255.0000 Z10.5000 I0.0000 J1.0000 F100.00
G1 X304.0000 Y-55.0000 Z10.5000 F100.00
G2 X305.0000 Y-54.0000 Z10.5000 I1.0000 J0.0000 F100.00
G1 X441.5000 Y-54.0000 Z10.5000 F100.00
G2 X442.5000 Y-55.0000 Z10.5000 I0.0000 J-1.0000 F100.00
G1 X442.5000 Y-55.0000 Z9.5000 F100.00
G1 X442.5000 Y-204.0000 Z9.5000 F100.00
G1 X578.0000 Y-204.0000 Z9.5000 F100.00
G2 X579.0000 Y-205.0000 Z9.5000 I0.0000 J-1.0000 F100.00
G1 X579.0000 Y-255.0000 Z9.5000 F100.00
G2 X578.0000 Y-256.0000 Z9.5000 I-1.0000 J0.0000 F100.00
G1 X305.0000 Y-256.0000 Z9.5000 F100.00
G2 X304.0000 Y-255.0000 Z9.5000 I0.0000 J1.0000 F100.00
G1 X304.0000 Y-55.0000 Z9.5000 F100.00
G2 X305.0000 Y-54.0000 Z9.5000 I1.0000 J0.0000 F100.00
G1 X441.5000 Y-54.0000 Z9.5000 F100.00
G2 X442.5000 Y-55.0000 Z9.5000 I0.0000 J-1.0000 F100.00
G1 X442.5000 Y-55.0000 Z8.5000 F100.00
G1 X442.5000 Y-204.0000 Z8.5000 F100.00
G1 X578.0000 Y-204.0000 Z8.5000 F100.00
G2 X579.0000 Y-205.0000 Z8.5000 I0.0000 J-1.0000 F100.00
G1 X579.0000 Y-255.0000 Z8.5000 F100.00
G2 X578.0000 Y-256.0000 Z8.5000 I-1.0000 J0.0000 F100.00
G1 X305.0000 Y-256.0000 Z8.5000 F100.00
G2 X304.0000 Y-255.0000 Z8.5000 I0.0000 J1.0000 F100.00
G1 X304.0000 Y-55.0000 Z8.5000 F100.00
G2 X305.0000 Y-54.0000 Z8.5000 I1.0000 J0.0000 F100.00
G1 X441.5000 Y-54.0000 Z8.5000 F100.00
G2 X442.5000 Y-55.0000 Z8.5000 I0.0000 J-1.0000 F100.00
G1 X442.5000 Y-55.0000 Z7.5000 F100.00
G1 X442.5000 Y-204.0000 Z7.5000 F100.00
G1 X578.0000 Y-204.0000 Z7.5000 F100.00
G2 X579.0000 Y-205.0000 Z7.5000 I0.0000 J-1.0000 F100.00
G1 X579.0000 Y-255.0000 Z7.5000 F100.00
G2 X578.0000 Y-256.0000 Z7.5000 I-1.0000 J0.0000 F100.00
G1 X305.0000 Y-256.0000 Z7.5000 F100.00
G2 X304.0000 Y-255.0000 Z7.5000 I0.0000 J1.0000 F100.00
G1 X304.0000 Y-55.0000 Z7.5000 F100.00
G2 X305.0000 Y-54.0000 Z7.5000 I1.0000 J0.0000 F100.00
G1 X441.5000 Y-54.0000 Z7.5000 F100.00
G2 X442.5000 Y-55.0000 Z7.5000 I0.0000 J-1.0000 F100.00
G1 X442.5000 Y-55.0000 Z6.5000 F100.00
G1 X442.5000 Y-204.0000 Z6.5000 F100.00
G1 X578.0000 Y-204.0000 Z6.5000 F100.00
G2 X579.0000 Y-205.0000 Z6.5000 I0.0000 J-1.0000 F100.00
G1 X579.0000 Y-255.0000 Z6.5000 F100.00
G2 X578.0000 Y-256.0000 Z6.5000 I-1.0000 J0.0000 F100.00
G1 X305.0000 Y-256.0000 Z6.5000 F100.00
G2 X304.0000 Y-255.0000 Z6.5000 I0.0000 J1.0000 F100.00
G1 X304.0000 Y-55.0000 Z6.5000 F100.00
G2 X305.0000 Y-54.0000 Z6.5000 I1.0000 J0.0000 F100.00
G1 X441.5000 Y-54.0000 Z6.5000 F100.00
G2 X442.5000 Y-55.0000 Z6.5000 I0.0000 J-1.0000 F100.00
G1 X442.5000 Y-55.0000 Z5.5000 F100.00
G1 X442.5000 Y-204.0000 Z5.5000 F100.00
G1 X578.0000 Y-204.0000 Z5.5000 F100.00
G2 X579.0000 Y-205.0000 Z5.5000 I0.0000 J-1.0000 F100.00
G1 X579.0000 Y-255.0000 Z5.5000 F100.00
G2 X578.0000 Y-256.0000 Z5.5000 I-1.0000 J0.0000 F100.00
G1 X305.0000 Y-256.0000 Z5.5000 F100.00
G2 X304.0000 Y-255.0000 Z5.5000 I0.0000 J1.0000 F100.00
G1 X304.0000 Y-55.0000 Z5.5000 F100.00
G2 X305.0000 Y-54.0000 Z5.5000 I1.0000 J0.0000 F100.00
G1 X441.5000 Y-54.0000 Z5.5000 F100.00
G2 X442.5000 Y-55.0000 Z5.5000 I0.0000 J-1.0000 F100.00
G1 X442.5000 Y-55.0000 Z4.5000 F100.00
G1 X442.5000 Y-204.0000 Z4.5000 F100.00
G1 X578.0000 Y-204.0000 Z4.5000 F100.00
G2 X579.0000 Y-205.0000 Z4.5000 I0.0000 J-1.0000 F100.00
G1 X579.0000 Y-255.0000 Z4.5000 F100.00
G2 X578.0000 Y-256.0000 Z4.5000 I-1.0000 J0.0000 F100.00
G1 X305.0000 Y-256.0000 Z4.5000 F100.00
G2 X304.0000 Y-255.0000 Z4.5000 I0.0000 J1.0000 F100.00
G1 X304.0000 Y-55.0000 Z4.5000 F100.00
G2 X305.0000 Y-54.0000 Z4.5000 I1.0000 J0.0000 F100.00
G1 X441.5000 Y-54.0000 Z4.5000 F100.00
G2 X442.5000 Y-55.0000 Z4.5000 I0.0000 J-1.0000 F100.00
G1 X442.5000 Y-55.0000 Z3.5000 F100.00
G1 X442.5000 Y-204.0000 Z3.5000 F100.00
G1 X578.0000 Y-204.0000 Z3.5000 F100.00
G2 X579.0000 Y-205.0000 Z3.5000 I0.0000 J-1.0000 F100.00
G1 X579.0000 Y-255.0000 Z3.5000 F100.00
G2 X578.0000 Y-256.0000 Z3.5000 I-1.0000 J0.0000 F100.00
G1 X305.0000 Y-256.0000 Z3.5000 F100.00
G2 X304.0000 Y-255.0000 Z3.5000 I0.0000 J1.0000 F100.00
G1 X304.0000 Y-55.0000 Z3.5000 F100.00
G2 X305.0000 Y-54.0000 Z3.5000 I1.0000 J0.0000 F100.00
G1 X441.5000 Y-54.0000 Z3.5000 F100.00
G2 X442.5000 Y-55.0000 Z3.5000 I0.0000 J-1.0000 F100.00
G1 X442.5000 Y-55.0000 Z2.5000 F100.00
G1 X442.5000 Y-204.0000 Z2.5000 F100.00
G1 X578.0000 Y-204.0000 Z2.5000 F100.00
G2 X579.0000 Y-205.0000 Z2.5000 I0.0000 J-1.0000 F100.00
G1 X579.0000 Y-255.0000 Z2.5000 F100.00
G2 X578.0000 Y-256.0000 Z2.5000 I-1.0000 J0.0000 F100.00
G1 X305.0000 Y-256.0000 Z2.5000 F100.00
G2 X304.0000 Y-255.0000 Z2.5000 I0.0000 J1.0000 F100.00
G1 X304.0000 Y-55.0000 Z2.5000 F100.00
G2 X305.0000 Y-54.0000 Z2.5000 I1.0000 J0.0000 F100.00
G1 X441.5000 Y-54.0000 Z2.5000 F100.00
G2 X442.5000 Y-55.0000 Z2.5000 I0.0000 J-1.0000 F100.00
G1 X442.5000 Y-55.0000 Z1.5000 F100.00
G1 X442.5000 Y-204.0000 Z1.5000 F100.00
G1 X578.0000 Y-204.0000 Z1.5000 F100.00
G2 X579.0000 Y-205.0000 Z1.5000 I0.0000 J-1.0000 F100.00
G1 X579.0000 Y-255.0000 Z1.5000 F100.00
G2 X578.0000 Y-256.0000 Z1.5000 I-1.0000 J0.0000 F100.00
G1 X305.0000 Y-256.0000 Z1.5000 F100.00
G2 X304.0000 Y-255.0000 Z1.5000 I0.0000 J1.0000 F100.00
G1 X304.0000 Y-55.0000 Z1.5000 F100.00
G2 X305.0000 Y-54.0000 Z1.5000 I1.0000 J0.0000 F100.00
G1 X441.5000 Y-54.0000 Z1.5000 F100.00
G2 X442.5000 Y-55.0000 Z1.5000 I0.0000 J-1.0000 F100.00
G1 X442.5000 Y-55.0000 Z0.5000 F100.00
G1 X442.5000 Y-204.0000 Z0.5000 F100.00
G1 X578.0000 Y-204.0000 Z0.5000 F100.00
G2 X579.0000 Y-205.0000 Z0.5000 I0.0000 J-1.0000 F100.00
G1 X579.0000 Y-255.0000 Z0.5000 F100.00
G2 X578.0000 Y-256.0000 Z0.5000 I-1.0000 J0.0000 F100.00
G1 X305.0000 Y-256.0000 Z0.5000 F100.00
G2 X304.0000 Y-255.0000 Z0.5000 I0.0000 J1.0000 F100.00
G1 X304.0000 Y-55.0000 Z0.5000 F100.00
G2 X305.0000 Y-54.0000 Z0.5000 I1.0000 J0.0000 F100.00
G1 X441.5000 Y-54.0000 Z0.5000 F100.00
G2 X442.5000 Y-55.0000 Z0.5000 I0.0000 J-1.0000 F100.00
G1 X442.5000 Y-55.0000 Z0.0000 F100.00
G1 X442.5000 Y-204.0000 Z0.0000 F100.00
G1 X578.0000 Y-204.0000 Z0.0000 F100.00
G2 X579.0000 Y-205.0000 Z0.0000 I0.0000 J-1.0000 F100.00
G1 X579.0000 Y-255.0000 Z0.0000 F100.00
G2 X578.0000 Y-256.0000 Z0.0000 I-1.0000 J0.0000 F100.00
G1 X305.0000 Y-256.0000 Z0.0000 F100.00
G2 X304.0000 Y-255.0000 Z0.0000 I0.0000 J1.0000 F100.00
G1 X304.0000 Y-55.0000 Z0.0000 F100.00
G2 X305.0000 Y-54.0000 Z0.0000 I1.0000 J0.0000 F100.00
G1 X441.5000 Y-54.0000 Z0.0000 F100.00
G2 X442.5000 Y-55.0000 Z0.0000 I0.0000 J-1.0000 F100.00
G0 Z19.5000
G0 X516.8204 Y-103.9296
G0 Z17.5000
G1 X516.8204 Y-103.9296 Z12.5000 F100.00
G3 X507.6434 Y-101.2253 Z12.5000 I-7.0704 J-7.0704 F100.00
G3 X499.9753 Y-113.1066 Z12.5000 I2.1066 J-9.7747 F100.00
G3 X511.8566 Y-120.7747 Z12.5000 I9.7747 J2.1066 F100.00
G3 X516.8204 Y-103.9296 Z12.5000 I-2.1066 J9.7747 F100.00
G1 X516.8204 Y-103.9296 Z11.5000 F100.00
G3 X507.6434 Y-101.2253 Z11.5000 I-7.0704 J-7.0704 F100.00
G3 X499.9753 Y-113.1066 Z11.5000 I2.1066 J-9.7747 F100.00
G3 X511.8566 Y-120.7747 Z11.5000 I9.7747 J2.1066 F100.00
G3 X516.8204 Y-103.9296 Z11.5000 I-2.1066 J9.7747 F100.00
G1 X516.8204 Y-103.9296 Z10.5000 F100.00
G3 X507.6434 Y-101.2253 Z10.5000 I-7.0704 J-7.0704 F100.00
G3 X499.9753 Y-113.1066 Z10.5000 I2.1066 J-9.7747 F100.00
G3 X511.8566 Y-120.7747 Z10.5000 I9.7747 J2.1066 F100.00
G3 X516.8204 Y-103.9296 Z10.5000 I-2.1066 J9.7747 F100.00
G1 X516.8204 Y-103.9296 Z9.5000 F100.00
G3 X507.6434 Y-101.2253 Z9.5000 I-7.0704 J-7.0704 F100.00
G3 X499.9753 Y-113.1066 Z9.5000 I2.1066 J-9.7747 F100.00
G3 X511.8566 Y-120.7747 Z9.5000 I9.7747 J2.1066 F100.00
G3 X516.8204 Y-103.9296 Z9.5000 I-2.1066 J9.7747 F100.00
G1 X516.8204 Y-103.9296 Z8.5000 F100.00
G3 X507.6434 Y-101.2253 Z8.5000 I-7.0704 J-7.0704 F100.00
G3 X499.9753 Y-113.1066 Z8.5000 I2.1066 J-9.7747 F100.00
G3 X511.8566 Y-120.7747 Z8.5000 I9.7747 J2.1066 F100.00
G3 X516.8204 Y-103.9296 Z8.5000 I-2.1066 J9.7747 F100.00
G1 X516.8204 Y-103.9296 Z7.5000 F100.00
G3 X507.6434 Y-101.2253 Z7.5000 I-7.0704 J-7.0704 F100.00
G3 X499.9753 Y-113.1066 Z7.5000 I2.1066 J-9.7747 F100.00
G3 X511.8566 Y-120.7747 Z7.5000 I9.7747 J2.1066 F100.00
G3 X516.8204 Y-103.9296 Z7.5000 I-2.1066 J9.7747 F100.00
G1 X516.8204 Y-103.9296 Z6.5000 F100.00
G3 X507.6434 Y-101.2253 Z6.5000 I-7.0704 J-7.0704 F100.00
G3 X499.9753 Y-113.1066 Z6.5000 I2.1066 J-9.7747 F100.00
G3 X511.8566 Y-120.7747 Z6.5000 I9.7747 J2.1066 F100.00
G3 X516.8204 Y-103.9296 Z6.5000 I-2.1066 J9.7747 F100.00
G1 X516.8204 Y-103.9296 Z5.5000 F100.00
G3 X507.6434 Y-101.2253 Z5.5000 I-7.0704 J-7.0704 F100.00
G3 X499.9753 Y-113.1066 Z5.5000 I2.1066 J-9.7747 F100.00
G3 X511.8566 Y-120.7747 Z5.5000 I9.7747 J2.1066 F100.00
G3 X516.8204 Y-103.9296 Z5.5000 I-2.1066 J9.7747 F100.00
G1 X516.8204 Y-103.9296 Z4.5000 F100.00
G3 X507.6434 Y-101.2253 Z4.5000 I-7.0704 J-7.0704 F100.00
G3 X499.9753 Y-113.1066 Z4.5000 I2.1066 J-9.7747 F100.00
G3 X511.8566 Y-120.7747 Z4.5000 I9.7747 J2.1066 F100.00
G3 X516.8204 Y-103.9296 Z4.5000 I-2.1066 J9.7747 F100.00
G1 X516.8204 Y-103.9296 Z3.5000 F100.00
G3 X507.6434 Y-101.2253 Z3.5000 I-7.0704 J-7.0704 F100.00
G3 X499.9753 Y-113.1066 Z3.5000 I2.1066 J-9.7747 F100.00
G3 X511.8566 Y-120.7747 Z3.5000 I9.7747 J2.1066 F100.00
G3 X516.8204 Y-103.9296 Z3.5000 I-2.1066 J9.7747 F100.00
G1 X516.8204 Y-103.9296 Z2.5000 F100.00
G3 X507.6434 Y-101.2253 Z2.5000 I-7.0704 J-7.0704 F100.00
G3 X499.9753 Y-113.1066 Z2.5000 I2.1066 J-9.7747 F100.00
G3 X511.8566 Y-120.7747 Z2.5000 I9.7747 J2.1066 F100.00
G3 X516.8204 Y-103.9296 Z2.5000 I-2.1066 J9.7747 F100.00
G1 X516.8204 Y-103.9296 Z1.5000 F100.00
G3 X507.6434 Y-101.2253 Z1.5000 I-7.0704 J-7.0704 F100.00
G3 X499.9753 Y-113.1066 Z1.5000 I2.1066 J-9.7747 F100.00
G3 X511.8566 Y-120.7747 Z1.5000 I9.7747 J2.1066 F100.00
G3 X516.8204 Y-103.9296 Z1.5000 I-2.1066 J9.7747 F100.00
G1 X516.8204 Y-103.9296 Z0.5000 F100.00
G3 X507.6434 Y-101.2253 Z0.5000 I-7.0704 J-7.0704 F100.00
G3 X499.9753 Y-113.1066 Z0.5000 I2.1066 J-9.7747 F100.00
G3 X511.8566 Y-120.7747 Z0.5000 I9.7747 J2.1066 F100.00
G3 X516.8204 Y-103.9296 Z0.5000 I-2.1066 J9.7747 F100.00
G1 X516.8204 Y-103.9296 Z0.0000 F100.00
G3 X507.6434 Y-101.2253 Z0.0000 I-7.0704 J-7.0704 F100.00
G3 X499.9753 Y-113.1066 Z0.0000 I2.1066 J-9.7747 F100.00
G3 X511.8566 Y-120.7747 Z0.0000 I9.7747 J2.1066 F100.00
G3 X516.8204 Y-103.9296 Z0.0000 I-2.1066 J9.7747 F100.00
G0 Z19.5000
G0 X509.1197 Y-182.8803
G0 Z17.5000
G1 X509.1197 Y-182.8803 Z12.5000 F100.00
G3 X505.9961 Y-182.1754 Z12.5000 I-2.1197 J-2.1197 F100.00
G3 X504.1754 Y-186.0039 Z12.5000 I1.0039 J-2.8246 F100.00
G3 X508.0039 Y-187.8246 Z12.5000 I2.8246 J1.0039 F100.00
G3 X509.1197 Y-182.8803 Z12.5000 I-1.0039 J2.8246 F100.00
G1 X509.1197 Y-182.8803 Z11.5000 F100.00
G3 X505.9961 Y-182.1754 Z11.5000 I-2.1197 J-2.1197 F100.00
G3 X504.1754 Y-186.0039 Z11.5000 I1.0039 J-2.8246 F100.00
G3 X508.0039 Y-187.8246 Z11.5000 I2.8246 J1.0039 F100.00
G3 X509.1197 Y-182.8803 Z11.5000 I-1.0039 J2.8246 F100.00
G1 X509.1197 Y-182.8803 Z10.5000 F100.00
G3 X505.9961 Y-182.1754 Z10.5000 I-2.1197 J-2.1197 F100.00
G3 X504.1754 Y-186.0039 Z10.5000 I1.0039 J-2.8246 F100.00
G3 X508.0039 Y-187.8246 Z10.5000 I2.8246 J1.0039 F100.00
G3 X509.1197 Y-182.8803 Z10.5000 I-1.0039 J2.8246 F100.00
G1 X509.1197 Y-182.8803 Z9.5000 F100.00
G3 X505.9961 Y-182.1754 Z9.5000 I-2.1197 J-2.1197 F100.00
G3 X504.1754 Y-186.0039 Z9.5000 I1.0039 J-2.8246 F100.00
G3 X508.0039 Y-187.8246 Z9.5000 I2.8246 J1.0039 F100.00
G3 X509.1197 Y-182.8803 Z9.5000 I-1.0039 J2.8246 F100.00
G1 X509.1197 Y-182.8803 Z8.5000 F100.00
G3 X505.9961 Y-182.1754 Z8.5000 I-2.1197 J-2.1197 F100.00
G3 X504.1754 Y-186.0039 Z8.5000 I1.0039 J-2.8246 F100.00
G3 X508.0039 Y-187.8246 Z8.5000 I2.8246 J1.0039 F100.00
G3 X509.1197 Y-182.8803 Z8.5000 I-1.0039 J2.8246 F100.00
G1 X509.1197 Y-182.8803 Z7.5000 F100.00
G3 X505.9961 Y-182.1754 Z7.5000 I-2.1197 J-2.1197 F100.00
G3 X504.1754 Y-186.0039 Z7.5000 I1.0039 J-2.8246 F100.00
G3 X508.0039 Y-187.8246 Z7.5000 I2.8246 J1.0039 F100.00
G3 X509.1197 Y-182.8803 Z7.5000 I-1.0039 J2.8246 F100.00
G1 X509.1197 Y-182.8803 Z6.5000 F100.00
G3 X505.9961 Y-182.1754 Z6.5000 I-2.1197 J-2.1197 F100.00
G3 X504.1754 Y-186.0039 Z6.5000 I1.0039 J-2.8246 F100.00
G3 X508.0039 Y-187.8246 Z6.5000 I2.8246 J1.0039 F100.00
G3 X509.1197 Y-182.8803 Z6.5000 I-1.0039 J2.8246 F100.00
G1 X509.1197 Y-182.8803 Z5.5000 F100.00
G3 X505.9961 Y-182.1754 Z5.5000 I-2.1197 J-2.1197 F100.00
G3 X504.1754 Y-186.0039 Z5.5000 I1.0039 J-2.8246 F100.00
G3 X508.0039 Y-187.8246 Z5.5000 I2.8246 J1.0039 F100.00
G3 X509.1197 Y-182.8803 Z5.5000 I-1.0039 J2.8246 F100.00
G1 X509.1197 Y-182.8803 Z4.5000 F100.00
G3 X505.9961 Y-182.1754 Z4.5000 I-2.1197 J-2.1197 F100.00
G3 X504.1754 Y-186.0039 Z4.5000 I1.0039 J-2.8246 F100.00
G3 X508.0039 Y-187.8246 Z4.5000 I2.8246 J1.0039 F100.00
G3 X509.1197 Y-182.8803 Z4.5000 I-1.0039 J2.8246 F100.00
G1 X509.1197 Y-182.8803 Z3.5000 F100.00
G3 X505.9961 Y-182.1754 Z3.5000 I-2.1197 J-2.1197 F100.00
G3 X504.1754 Y-186.0039 Z3.5000 I1.0039 J-2.8246 F100.00
G3 X508.0039 Y-187.8246 Z3.5000 I2.8246 J1.0039 F100.00
G3 X509.1197 Y-182.8803 Z3.5000 I-1.0039 J2.8246 F100.00
G1 X509.1197 Y-182.8803 Z2.5000 F100.00
G3 X505.9961 Y-182.1754 Z2.5000 I-2.1197 J-2.1197 F100.00
G3 X504.1754 Y-186.0039 Z2.5000 I1.0039 J-2.8246 F100.00
G3 X508.0039 Y-187.8246 Z2.5000 I2.8246 J1.0039 F100.00
G3 X509.1197 Y-182.8803 Z2.5000 I-1.0039 J2.8246 F100.00
G1 X509.1197 Y-182.8803 Z1.5000 F100.00
G3 X505.9961 Y-182.1754 Z1.5000 I-2.1197 J-2.1197 F100.00
G3 X504.1754 Y-186.0039 Z1.5000 I1.0039 J-2.8246 F100.00
G3 X508.0039 Y-187.8246 Z1.5000 I2.8246 J1.0039 F100.00
G3 X509.1197 Y-182.8803 Z1.5000 I-1.0039 J2.8246 F100.00
G1 X509.1197 Y-182.8803 Z0.5000 F100.00
G3 X505.9961 Y-182.1754 Z0.5000 I-2.1197 J-2.1197 F100.00
G3 X504.1754 Y-186.0039 Z0.5000 I1.0039 J-2.8246 F100.00
G3 X508.0039 Y-187.8246 Z0.5000 I2.8246 J1.0039 F100.00
G3 X509.1197 Y-182.8803 Z0.5000 I-1.0039 J2.8246 F100.00
G1 X509.1197 Y-182.8803 Z0.0000 F100.00
G3 X505.9961 Y-182.1754 Z0.0000 I-2.1197 J-2.1197 F100.00
G3 X504.1754 Y-186.0039 Z0.0000 I1.0039 J-2.8246 F100.00
G3 X508.0039 Y-187.8246 Z0.0000 I2.8246 J1.0039 F100.00
G3 X509.1197 Y-182.8803 Z0.0000 I-1.0039 J2.8246 F100.00
G0 Z19.5000
G0 X509.1197 Y-92.8803
G0 Z17.5000
G1 X509.1197 Y-92.8803 Z12.5000 F100.00
G3 X505.9961 Y-92.1754 Z12.5000 I-2.1197 J-2.1197 F100.00
G3 X504.1754 Y-96.0039 Z12.5000 I1.0039 J-2.8246 F100.00
G3 X508.0039 Y-97.8246 Z12.5000 I2.8246 J1.0039 F100.00
G3 X509.1197 Y-92.8803 Z12.5000 I-1.0039 J2.8246 F100.00
G1 X509.1197 Y-92.8803 Z11.5000 F100.00
G3 X505.9961 Y-92.1754 Z11.5000 I-2.1197 J-2.1197 F100.00
G3 X504.1754 Y-96.0039 Z11.5000 I1.0039 J-2.8246 F100.00
G3 X508.0039 Y-97.8246 Z11.5000 I2.8246 J1.0039 F100.00
G3 X509.1197 Y-92.8803 Z11.5000 I-1.0039 J2.8246 F100.00
G1 X509.1197 Y-92.8803 Z10.5000 F100.00
G3 X505.9961 Y-92.1754 Z10.5000 I-2.1197 J-2.1197 F100.00
G3 X504.1754 Y-96.0039 Z10.5000 I1.0039 J-2.8246 F100.00
G3 X508.0039 Y-97.8246 Z10.5000 I2.8246 J1.0039 F100.00
G3 X509.1197 Y-92.8803 Z10.5000 I-1.0039 J2.8246 F100.00
G1 X509.1197 Y-92.8803 Z9.5000 F100.00
G3 X505.9961 Y-92.1754 Z9.5000 I-2.1197 J-2.1197 F100.00
G3 X504.1754 Y-96.0039 Z9.5000 I1.0039 J-2.8246 F100.00
G3 X508.0039 Y-97.8246 Z9.5000 I2.8246 J1.0039 F100.00
G3 X509.1197 Y-92.8803 Z9.5000 I-1.0039 J2.8246 F100.00
G1 X509.1197 Y-92.8803 Z8.5000 F100.00
G3 X505.9961 Y-92.1754 Z8.5000 I-2.1197 J-2.1197 F100.00
G3 X504.1754 Y-96.0039 Z8.5000 I1.0039 J-2.8246 F100.00
G3 X508.0039 Y-97.8246 Z8.5000 I2.8246 J1.0039 F100.00
G3 X509.1197 Y-92.8803 Z8.5000 I-1.0039 J2.8246 F100.00
G1 X509.1197 Y-92.8803 Z7.5000 F100.00
G3 X505.9961 Y-92.1754 Z7.5000 I-2.1197 J-2.1197 F100.00
G3 X504.1754 Y-96.0039 Z7.5000 I1.0039 J-2.8246 F100.00
G3 X508.0039 Y-97.8246 Z7.5000 I2.8246 J1.0039 F100.00
G3 X509.1197 Y-92.8803 Z7.5000 I-1.0039 J2.8246 F100.00
G1 X509.1197 Y-92.8803 Z6.5000 F100.00
G3 X505.9961 Y-92.1754 Z6.5000 I-2.1197 J-2.1197 F100.00
G3 X504.1754 Y-96.0039 Z6.5000 I1.0039 J-2.8246 F100.00
G3 X508.0039 Y-97.8246 Z6.5000 I2.8246 J1.0039 F100.00
G3 X509.1197 Y-92.8803 Z6.5000 I-1.0039 J2.8246 F100.00
G1 X509.1197 Y-92.8803 Z5.5000 F100.00
G3 X505.9961 Y-92.1754 Z5.5000 I-2.1197 J-2.1197 F100.00
G3 X504.1754 Y-96.0039 Z5.5000 I1.0039 J-2.8246 F100.00
G3 X508.0039 Y-97.8246 Z5.5000 I2.8246 J1.0039 F100.00
G3 X509.1197 Y-92.8803 Z5.5000 I-1.0039 J2.8246 F100.00
G1 X509.1197 Y-92.8803 Z4.5000 F100.00
G3 X505.9961 Y-92.1754 Z4.5000 I-2.1197 J-2.1197 F100.00
G3 X504.1754 Y-96.0039 Z4.5000 I1.0039 J-2.8246 F100.00
G3 X508.0039 Y-97.8246 Z4.5000 I2.8246 J1.0039 F100.00
G3 X509.1197 Y-92.8803 Z4.5000 I-1.0039 J2.8246 F100.00
G1 X509.1197 Y-92.8803 Z3.5000 F100.00
G3 X505.9961 Y-92.1754 Z3.5000 I-2.1197 J-2.1197 F100.00
G3 X504.1754 Y-96.0039 Z3.5000 I1.0039 J-2.8246 F100.00
G3 X508.0039 Y-97.8246 Z3.5000 I2.8246 J1.0039 F100.00
G3 X509.1197 Y-92.8803 Z3.5000 I-1.0039 J2.8246 F100.00
G1 X509.1197 Y-92.8803 Z2.5000 F100.00
G3 X505.9961 Y-92.1754 Z2.5000 I-2.1197 J-2.1197 F100.00
G3 X504.1754 Y-96.0039 Z2.5000 I1.0039 J-2.8246 F100.00
G3 X508.0039 Y-97.8246 Z2.5000 I2.8246 J1.0039 F100.00
G3 X509.1197 Y-92.8803 Z2.5000 I-1.0039 J2.8246 F100.00
G1 X509.1197 Y-92.8803 Z1.5000 F100.00
G3 X505.9961 Y-92.1754 Z1.5000 I-2.1197 J-2.1197 F100.00
G3 X504.1754 Y-96.0039 Z1.5000 I1.0039 J-2.8246 F100.00
G3 X508.0039 Y-97.8246 Z1.5000 I2.8246 J1.0039 F100.00
G3 X509.1197 Y-92.8803 Z1.5000 I-1.0039 J2.8246 F100.00
G1 X509.1197 Y-92.8803 Z0.5000 F100.00
G3 X505.9961 Y-92.1754 Z0.5000 I-2.1197 J-2.1197 F100.00
G3 X504.1754 Y-96.0039 Z0.5000 I1.0039 J-2.8246 F100.00
G3 X508.0039 Y-97.8246 Z0.5000 I2.8246 J1.0039 F100.00
G3 X509.1197 Y-92.8803 Z0.5000 I-1.0039 J2.8246 F100.00
G1 X509.1197 Y-92.8803 Z0.0000 F100.00
G3 X505.9961 Y-92.1754 Z0.0000 I-2.1197 J-2.1197 F100.00
G3 X504.1754 Y-96.0039 Z0.0000 I1.0039 J-2.8246 F100.00
G3 X508.0039 Y-97.8246 Z0.0000 I2.8246 J1.0039 F100.00
G3 X509.1197 Y-92.8803 Z0.0000 I-1.0039 J2.8246 F100.00
G0 Z19.5000
G0 X494.5991 Y-126.1509
G0 Z17.5000
G1 X494.5991 Y-126.1509 Z12.5000 F100.00
G3 X494.0358 Y-126.0552 Z12.5000 I-0.3491 J-0.3491 F100.00
G3 X493.8052 Y-126.7142 Z12.5000 I0.2142 J-0.4448 F100.00
G3 X494.4642 Y-126.9448 Z12.5000 I0.4448 J0.2142 F100.00
G3 X494.5991 Y-126.1509 Z12.5000 I-0.2142 J0.4448 F100.00
G1 X494.5991 Y-126.1509 Z11.5000 F100.00
G3 X494.0358 Y-126.0552 Z11.5000 I-0.3491 J-0.3491 F100.00
G3 X493.8052 Y-126.7142 Z11.5000 I0.2142 J-0.4448 F100.00
G3 X494.4642 Y-126.9448 Z11.5000 I0.4448 J0.2142 F100.00
G3 X494.5991 Y-126.1509 Z11.5000 I-0.2142 J0.4448 F100.00
G1 X494.5991 Y-126.1509 Z10.5000 F100.00
G3 X494.0358 Y-126.0552 Z10.5000 I-0.3491 J-0.3491 F100.00
G3 X493.8052 Y-126.7142 Z10.5000 I0.2142 J-0.4448 F100.00
G3 X494.4642 Y-126.9448 Z10.5000 I0.4448 J0.2142 F100.00
G3 X494.5991 Y-126.1509 Z10.5000 I-0.2142 J0.4448 F100.00
G1 X494.5991 Y-126.1509 Z9.5000 F100.00
G3 X494.0358 Y-126.0552 Z9.5000 I-0.3491 J-0.3491 F100.00
G3 X493.8052 Y-126.7142 Z9.5000 I0.2142 J-0.4448 F100.00
G3 X494.4642 Y-126.9448 Z9.5000 I0.4448 J0.2142 F100.00
G3 X494.5991 Y-126.1509 Z9.5000 I-0.2142 J0.4448 F100.00
G1 X494.5991 Y-126.1509 Z8.5000 F100.00
G3 X494.0358 Y-126.0552 Z8.5000 I-0.3491 J-0.3491 F100.00
G3 X493.8052 Y-126.7142 Z8.5000 I0.2142 J-0.4448 F100.00
G3 X494.4642 Y-126.9448 Z8.5000 I0.4448 J0.2142 F100.00
G3 X494.5991 Y-126.1509 Z8.5000 I-0.2142 J0.4448 F100.00
G1 X494.5991 Y-126.1509 Z7.5000 F100.00
G3 X494.0358 Y-126.0552 Z7.5000 I-0.3491 J-0.3491 F100.00
G3 X493.8052 Y-126.7142 Z7.5000 I0.2142 J-0.4448 F100.00
G3 X494.4642 Y-126.9448 Z7.5000 I0.4448 J0.2142 F100.00
G3 X494.5991 Y-126.1509 Z7.5000 I-0.2142 J0.4448 F100.00
G1 X494.5991 Y-126.1509 Z6.5000 F100.00
G3 X494.0358 Y-126.0552 Z6.5000 I-0.3491 J-0.3491 F100.00
G3 X493.8052 Y-126.7142 Z6.5000 I0.2142 J-0.4448 F100.00
G3 X494.4642 Y-126.9448 Z6.5000 I0.4448 J0.2142 F100.00
G3 X494.5991 Y-126.1509 Z6.5000 I-0.2142 J0.4448 F100.00
G1 X494.5991 Y-126.1509 Z5.5000 F100.00
G3 X494.0358 Y-126.0552 Z5.5000 I-0.3491 J-0.3491 F100.00
G3 X493.8052 Y-126.7142 Z5.5000 I0.2142 J-0.4448 F100.00
G3 X494.4642 Y-126.9448 Z5.5000 I0.4448 J0.2142 F100.00
G3 X494.5991 Y-126.1509 Z5.5000 I-0.2142 J0.4448 F100.00
G1 X494.5991 Y-126.1509 Z4.5000 F100.00
G3 X494.0358 Y-126.0552 Z4.5000 I-0.3491 J-0.3491 F100.00
G3 X493.8052 Y-126.7142 Z4.5000 I0.2142 J-0.4448 F100.00
G3 X494.4642 Y-126.9448 Z4.5000 I0.4448 J0.2142 F100.00
G3 X494.5991 Y-126.1509 Z4.5000 I-0.2142 J0.4448 F100.00
G1 X494.5991 Y-126.1509 Z3.5000 F100.00
G3 X494.0358 Y-126.0552 Z3.5000 I-0.3491 J-0.3491 F100.00
G3 X493.8052 Y-126.7142 Z3.5000 I0.2142 J-0.4448 F100.00
G3 X494.4642 Y-126.9448 Z3.5000 I0.4448 J0.2142 F100.00
G3 X494.5991 Y-126.1509 Z3.5000 I-0.2142 J0.4448 F100.00
G1 X494.5991 Y-126.1509 Z2.5000 F100.00
G3 X494.0358 Y-126.0552 Z2.5000 I-0.3491 J-0.3491 F100.00
G3 X493.8052 Y-126.7142 Z2.5000 I0.2142 J-0.4448 F100.00
G3 X494.4642 Y-126.9448 Z2.5000 I0.4448 J0.2142 F100.00
G3 X494.5991 Y-126.1509 Z2.5000 I-0.2142 J0.4448 F100.00
G1 X494.5991 Y-126.1509 Z1.5000 F100.00
G3 X494.0358 Y-126.0552 Z1.5000 I-0.3491 J-0.3491 F100.00
G3 X493.8052 Y-126.7142 Z1.5000 I0.2142 J-0.4448 F100.00
G3 X494.4642 Y-126.9448 Z1.5000 I0.4448 J0.2142 F100.00
G3 X494.5991 Y-126.1509 Z1.5000 I-0.2142 J0.4448 F100.00
G1 X494.5991 Y-126.1509 Z0.5000 F100.00
G3 X494.0358 Y-126.0552 Z0.5000 I-0.3491 J-0.3491 F100.00
G3 X493.8052 Y-126.7142 Z0.5000 I0.2142 J-0.4448 F100.00
G3 X494.4642 Y-126.9448 Z0.5000 I0.4448 J0.2142 F100.00
G3 X494.5991 Y-126.1509 Z0.5000 I-0.2142 J0.4448 F100.00
G1 X494.5991 Y-126.1509 Z0.0000 F100.00
G3 X494.0358 Y-126.0552 Z0.0000 I-0.3491 J-0.3491 F100.00
G3 X493.8052 Y-126.7142 Z0.0000 I0.2142 J-0.4448 F100.00
G3 X494.4642 Y-126.9448 Z0.0000 I0.4448 J0.2142 F100.00
G3 X494.5991 Y-126.1509 Z0.0000 I-0.2142 J0.4448 F100.00
G0 Z19.5000
G0 X525.5991 Y-95.1509
G0 Z17.5000
G1 X525.5991 Y-95.1509 Z12.5000 F100.00
G3 X525.0358 Y-95.0552 Z12.5000 I-0.3491 J-0.3491 F100.00
G3 X524.8052 Y-95.7142 Z12.5000 I0.2142 J-0.4448 F100.00
G3 X525.4642 Y-95.9448 Z12.5000 I0.4448 J0.2142 F100.00
G3 X525.5991 Y-95.1509 Z12.5000 I-0.2142 J0.4448 F100.00
G1 X525.5991 Y-95.1509 Z11.5000 F100.00
G3 X525.0358 Y-95.0552 Z11.5000 I-0.3491 J-0.3491 F100.00
G3 X524.8052 Y-95.7142 Z11.5000 I0.2142 J-0.4448 F100.00
G3 X525.4642 Y-95.9448 Z11.5000 I0.4448 J0.2142 F100.00
G3 X525.5991 Y-95.1509 Z11.5000 I-0.2142 J0.4448 F100.00
G1 X525.5991 Y-95.1509 Z10.5000 F100.00
G3 X525.0358 Y-95.0552 Z10.5000 I-0.3491 J-0.3491 F100.00
G3 X524.8052 Y-95.7142 Z10.5000 I0.2142 J-0.4448 F100.00
G3 X525.4642 Y-95.9448 Z10.5000 I0.4448 J0.2142 F100.00
G3 X525.5991 Y-95.1509 Z10.5000 I-0.2142 J0.4448 F100.00
G1 X525.5991 Y-95.1509 Z9.5000 F100.00
G3 X525.0358 Y-95.0552 Z9.5000 I-0.3491 J-0.3491 F100.00
G3 X524.8052 Y-95.7142 Z9.5000 I0.2142 J-0.4448 F100.00
G3 X525.4642 Y-95.9448 Z9.5000 I0.4448 J0.2142 F100.00
G3 X525.5991 Y-95.1509 Z9.5000 I-0.2142 J0.4448 F100.00
G1 X525.5991 Y-95.1509 Z8.5000 F100.00
G3 X525.0358 Y-95.0552 Z8.5000 I-0.3491 J-0.3491 F100.00
G3 X524.8052 Y-95.7142 Z8.5000 I0.2142 J-0.4448 F100.00
G3 X525.4642 Y-95.9448 Z8.5000 I0.4448 J0.2142 F100.00
G3 X525.5991 Y-95.1509 Z8.5000 I-0.2142 J0.4448 F100.00
G1 X525.5991 Y-95.1509 Z7.5000 F100.00
G3 X525.0358 Y-95.0552 Z7.5000 I-0.3491 J-0.3491 F100.00
G3 X524.8052 Y-95.7142 Z7.5000 I0.2142 J-0.4448 F100.00
G3 X525.4642 Y-95.9448 Z7.5000 I0.4448 J0.2142 F100.00
G3 X525.5991 Y-95.1509 Z7.5000 I-0.2142 J0.4448 F100.00
G1 X525.5991 Y-95.1509 Z6.5000 F100.00
G3 X525.0358 Y-95.0552 Z6.5000 I-0.3491 J-0.3491 F100.00
G3 X524.8052 Y-95.7142 Z6.5000 I0.2142 J-0.4448 F100.00
G3 X525.4642 Y-95.9448 Z6.5000 I0.4448 J0.2142 F100.00
G3 X525.5991 Y-95.1509 Z6.5000 I-0.2142 J0.4448 F100.00
G1 X525.5991 Y-95.1509 Z5.5000 F100.00
G3 X525.0358 Y-95.0552 Z5.5000 I-0.3491 J-0.3491 F100.00
G3 X524.8052 Y-95.7142 Z5.5000 I0.2142 J-0.4448 F100.00
G3 X525.4642 Y-95.9448 Z5.5000 I0.4448 J0.2142 F100.00
G3 X525.5991 Y-95.1509 Z5.5000 I-0.2142 J0.4448 F100.00
G1 X525.5991 Y-95.1509 Z4.5000 F100.00
G3 X525.0358 Y-95.0552 Z4.5000 I-0.3491 J-0.3491 F100.00
G3 X524.8052 Y-95.7142 Z4.5000 I0.2142 J-0.4448 F100.00
G3 X525.4642 Y-95.9448 Z4.5000 I0.4448 J0.2142 F100.00
G3 X525.5991 Y-95.1509 Z4.5000 I-0.2142 J0.4448 F100.00
G1 X525.5991 Y-95.1509 Z3.5000 F100.00
G3 X525.0358 Y-95.0552 Z3.5000 I-0.3491 J-0.3491 F100.00
G3 X524.8052 Y-95.7142 Z3.5000 I0.2142 J-0.4448 F100.00
G3 X525.4642 Y-95.9448 Z3.5000 I0.4448 J0.2142 F100.00
G3 X525.5991 Y-95.1509 Z3.5000 I-0.2142 J0.4448 F100.00
G1 X525.5991 Y-95.1509 Z2.5000 F100.00
G3 X525.0358 Y-95.0552 Z2.5000 I-0.3491 J-0.3491 F100.00
G3 X524.8052 Y-95.7142 Z2.5000 I0.2142 J-0.4448 F100.00
G3 X525.4642 Y-95.9448 Z2.5000 I0.4448 J0.2142 F100.00
G3 X525.5991 Y-95.1509 Z2.5000 I-0.2142 J0.4448 F100.00
G1 X525.5991 Y-95.1509 Z1.5000 F100.00
G3 X525.0358 Y-95.0552 Z1.5000 I-0.3491 J-0.3491 F100.00
G3 X524.8052 Y-95.7142 Z1.5000 I0.2142 J-0.4448 F100.00
G3 X525.4642 Y-95.9448 Z1.5000 I0.4448 J0.2142 F100.00
G3 X525.5991 Y-95.1509 Z1.5000 I-0.2142 J0.4448 F100.00
G1 X525.5991 Y-95.1509 Z0.5000 F100.00
G3 X525.0358 Y-95.0552 Z0.5000 I-0.3491 J-0.3491 F100.00
G3 X524.8052 Y-95.7142 Z0.5000 I0.2142 J-0.4448 F100.00
G3 X525.4642 Y-95.9448 Z0.5000 I0.4448 J0.2142 F100.00
G3 X525.5991 Y-95.1509 Z0.5000 I-0.2142 J0.4448 F100.00
G1 X525.5991 Y-95.1509 Z0.0000 F100.00
G3 X525.0358 Y-95.0552 Z0.0000 I-0.3491 J-0.3491 F100.00
G3 X524.8052 Y-95.7142 Z0.0000 I0.2142 J-0.4448 F100.00
G3 X525.4642 Y-95.9448 Z0.0000 I0.4448 J0.2142 F100.00
G3 X525.5991 Y-95.1509 Z0.0000 I-0.2142 J0.4448 F100.00
G0 Z19.5000
G0 X494.5991 Y-95.1509
G0 Z17.5000
G1 X494.5991 Y-95.1509 Z12.5000 F100.00
G3 X494.0358 Y-95.0552 Z12.5000 I-0.3491 J-0.3491 F100.00
G3 X493.8052 Y-95.7142 Z12.5000 I0.2142 J-0.4448 F100.00
G3 X494.4642 Y-95.9448 Z12.5000 I0.4448 J0.2142 F100.00
G3 X494.5991 Y-95.1509 Z12.5000 I-0.2142 J0.4448 F100.00
G1 X494.5991 Y-95.1509 Z11.5000 F100.00
G3 X494.0358 Y-95.0552 Z11.5000 I-0.3491 J-0.3491 F100.00
G3 X493.8052 Y-95.7142 Z11.5000 I0.2142 J-0.4448 F100.00
G3 X494.4642 Y-95.9448 Z11.5000 I0.4448 J0.2142 F100.00
G3 X494.5991 Y-95.1509 Z11.5000 I-0.2142 J0.4448 F100.00
G1 X494.5991 Y-95.1509 Z10.5000 F100.00
G3 X494.0358 Y-95.0552 Z10.5000 I-0.3491 J-0.3491 F100.00
G3 X493.8052 Y-95.7142 Z10.5000 I0.2142 J-0.4448 F100.00
G3 X494.4642 Y-95.9448 Z10.5000 I0.4448 J0.2142 F100.00
G3 X494.5991 Y-95.1509 Z10.5000 I-0.2142 J0.4448 F100.00
G1 X494.5991 Y-95.1509 Z9.5000 F100.00
G3 X494.0358 Y-95.0552 Z9.5000 I-0.3491 J-0.3491 F100.00
G3 X493.8052 Y-95.7142 Z9.5000 I0.2142 J-0.4448 F100.00
G3 X494.4642 Y-95.9448 Z9.5000 I0.4448 J0.2142 F100.00
G3 X494.5991 Y-95.1509 Z9.5000 I-0.2142 J0.4448 F100.00
G1 X494.5991 Y-95.1509 Z8.5000 F100.00
G3 X494.0358 Y-95.0552 Z8.5000 I-0.3491 J-0.3491 F100.00
G3 X493.8052 Y-95.7142 Z8.5000 I0.2142 J-0.4448 F100.00
G3 X494.4642 Y-95.9448 Z8.5000 I0.4448 J0.2142 F100.00
G3 X494.5991 Y-95.1509 Z8.5000 I-0.2142 J0.4448 F100.00
G1 X494.5991 Y-95.1509 Z7.5000 F100.00
G3 X494.0358 Y-95.0552 Z7.5000 I-0.3491 J-0.3491 F100.00
G3 X493.8052 Y-95.7142 Z7.5000 I0.2142 J-0.4448 F100.00
G3 X494.4642 Y-95.9448 Z7.5000 I0.4448 J0.2142 F100.00
G3 X494.5991 Y-95.1509 Z7.5000 I-0.2142 J0.4448 F100.00
G1 X494.5991 Y-95.1509 Z6.5000 F100.00
G3 X494.0358 Y-95.0552 Z6.5000 I-0.3491 J-0.3491 F100.00
G3 X493.8052 Y-95.7142 Z6.5000 I0.2142 J-0.4448 F100.00
G3 X494.4642 Y-95.9448 Z6.5000 I0.4448 J0.2142 F100.00
G3 X494.5991 Y-95.1509 Z6.5000 I-0.2142 J0.4448 F100.00
G1 X494.5991 Y-95.1509 Z5.5000 F100.00
G3 X494.0358 Y-95.0552 Z5.5000 I-0.3491 J-0.3491 F100.00
G3 X493.8052 Y-95.7142 Z5.5000 I0.2142 J-0.4448 F100.00
G3 X494.4642 Y-95.9448 Z5.5000 I0.4448 J0.2142 F100.00
G3 X494.5991 Y-95.1509 Z5.5000 I-0.2142 J0.4448 F100.00
G1 X494.5991 Y-95.1509 Z4.5000 F100.00
G3 X494.0358 Y-95.0552 Z4.5000 I-0.3491 J-0.3491 F100.00
G3 X493.8052 Y-95.7142 Z4.5000 I0.2142 J-0.4448 F100.00
G3 X494.4642 Y-95.9448 Z4.5000 I0.4448 J0.2142 F100.00
G3 X494.5991 Y-95.1509 Z4.5000 I-0.2142 J0.4448 F100.00
G1 X494.5991 Y-95.1509 Z3.5000 F100.00
G3 X494.0358 Y-95.0552 Z3.5000 I-0.3491 J-0.3491 F100.00
G3 X493.8052 Y-95.7142 Z3.5000 I0.2142 J-0.4448 F100.00
G3 X494.4642 Y-95.9448 Z3.5000 I0.4448 J0.2142 F100.00
G3 X494.5991 Y-95.1509 Z3.5000 I-0.2142 J0.4448 F100.00
G1 X494.5991 Y-95.1509 Z2.5000 F100.00
G3 X494.0358 Y-95.0552 Z2.5000 I-0.3491 J-0.3491 F100.00
G3 X493.8052 Y-95.7142 Z2.5000 I0.2142 J-0.4448 F100.00
G3 X494.4642 Y-95.9448 Z2.5000 I0.4448 J0.2142 F100.00
G3 X494.5991 Y-95.1509 Z2.5000 I-0.2142 J0.4448 F100.00
G1 X494.5991 Y-95.1509 Z1.5000 F100.00
G3 X494.0358 Y-95.0552 Z1.5000 I-0.3491 J-0.3491 F100.00
G3 X493.8052 Y-95.7142 Z1.5000 I0.2142 J-0.4448 F100.00
G3 X494.4642 Y-95.9448 Z1.5000 I0.4448 J0.2142 F100.00
G3 X494.5991 Y-95.1509 Z1.5000 I-0.2142 J0.4448 F100.00
G1 X494.5991 Y-95.1509 Z0.5000 F100.00
G3 X494.0358 Y-95.0552 Z0.5000 I-0.3491 J-0.3491 F100.00
G3 X493.8052 Y-95.7142 Z0.5000 I0.2142 J-0.4448 F100.00
G3 X494.4642 Y-95.9448 Z0.5000 I0.4448 J0.2142 F100.00
G3 X494.5991 Y-95.1509 Z0.5000 I-0.2142 J0.4448 F100.00
G1 X494.5991 Y-95.1509 Z0.0000 F100.00
G3 X494.0358 Y-95.0552 Z0.0000 I-0.3491 J-0.3491 F100.00
G3 X493.8052 Y-95.7142 Z0.0000 I0.2142 J-0.4448 F100.00
G3 X494.4642 Y-95.9448 Z0.0000 I0.4448 J0.2142 F100.00
G3 X494.5991 Y-95.1509 Z0.0000 I-0.2142 J0.4448 F100.00
G0 Z19.5000
G0 X525.5991 Y-126.1509
G0 Z17.5000
G1 X525.5991 Y-126.1509 Z12.5000 F100.00
G3 X525.0358 Y-126.0552 Z12.5000 I-0.3491 J-0.3491 F100.00
G3 X524.8052 Y-126.7142 Z12.5000 I0.2142 J-0.4448 F100.00
G3 X525.4642 Y-126.9448 Z12.5000 I0.4448 J0.2142 F100.00
G3 X525.5991 Y-126.1509 Z12.5000 I-0.2142 J0.4448 F100.00
G1 X525.5991 Y-126.1509 Z11.5000 F100.00
G3 X525.0358 Y-126.0552 Z11.5000 I-0.3491 J-0.3491 F100.00
G3 X524.8052 Y-126.7142 Z11.5000 I0.2142 J-0.4448 F100.00
G3 X525.4642 Y-126.9448 Z11.5000 I0.4448 J0.2142 F100.00
G3 X525.5991 Y-126.1509 Z11.5000 I-0.2142 J0.4448 F100.00
G1 X525.5991 Y-126.1509 Z10.5000 F100.00
G3 X525.0358 Y-126.0552 Z10.5000 I-0.3491 J-0.3491 F100.00
G3 X524.8052 Y-126.7142 Z10.5000 I0.2142 J-0.4448 F100.00
G3 X525.4642 Y-126.9448 Z10.5000 I0.4448 J0.2142 F100.00
G3 X525.5991 Y-126.1509 Z10.5000 I-0.2142 J0.4448 F100.00
G1 X525.5991 Y-126.1509 Z9.5000 F100.00
G3 X525.0358 Y-126.0552 Z9.5000 I-0.3491 J-0.3491 F100.00
G3 X524.8052 Y-126.7142 Z9.5000 I0.2142 J-0.4448 F100.00
G3 X525.4642 Y-126.9448 Z9.5000 I0.4448 J0.2142 F100.00
G3 X525.5991 Y-126.1509 Z9.5000 I-0.2142 J0.4448 F100.00
G1 X525.5991 Y-126.1509 Z8.5000 F100.00
G3 X525.0358 Y-126.0552 Z8.5000 I-0.3491 J-0.3491 F100.00
G3 X524.8052 Y-126.7142 Z8.5000 I0.2142 J-0.4448 F100.00
G3 X525.4642 Y-126.9448 Z8.5000 I0.4448 J0.2142 F100.00
G3 X525.5991 Y-126.1509 Z8.5000 I-0.2142 J0.4448 F100.00
G1 X525.5991 Y-126.1509 Z7.5000 F100.00
G3 X525.0358 Y-126.0552 Z7.5000 I-0.3491 J-0.3491 F100.00
G3 X524.8052 Y-126.7142 Z7.5000 I0.2142 J-0.4448 F100.00
G3 X525.4642 Y-126.9448 Z7.5000 I0.4448 J0.2142 F100.00
G3 X525.5991 Y-126.1509 Z7.5000 I-0.2142 J0.4448 F100.00
G1 X525.5991 Y-126.1509 Z6.5000 F100.00
G3 X525.0358 Y-126.0552 Z6.5000 I-0.3491 J-0.3491 F100.00
G3 X524.8052 Y-126.7142 Z6.5000 I0.2142 J-0.4448 F100.00
G3 X525.4642 Y-126.9448 Z6.5000 I0.4448 J0.2142 F100.00
G3 X525.5991 Y-126.1509 Z6.5000 I-0.2142 J0.4448 F100.00
G1 X525.5991 Y-126.1509 Z5.5000 F100.00
G3 X525.0358 Y-126.0552 Z5.5000 I-0.3491 J-0.3491 F100.00
G3 X524.8052 Y-126.7142 Z5.5000 I0.2142 J-0.4448 F100.00
G3 X525.4642 Y-126.9448 Z5.5000 I0.4448 J0.2142 F100.00
G3 X525.5991 Y-126.1509 Z5.5000 I-0.2142 J0.4448 F100.00
G1 X525.5991 Y-126.1509 Z4.5000 F100.00
G3 X525.0358 Y-126.0552 Z4.5000 I-0.3491 J-0.3491 F100.00
G3 X524.8052 Y-126.7142 Z4.5000 I0.2142 J-0.4448 F100.00
G3 X525.4642 Y-126.9448 Z4.5000 I0.4448 J0.2142 F100.00
G3 X525.5991 Y-126.1509 Z4.5000 I-0.2142 J0.4448 F100.00
G1 X525.5991 Y-126.1509 Z3.5000 F100.00
G3 X525.0358 Y-126.0552 Z3.5000 I-0.3491 J-0.3491 F100.00
G3 X524.8052 Y-126.7142 Z3.5000 I0.2142 J-0.4448 F100.00
G3 X525.4642 Y-126.9448 Z3.5000 I0.4448 J0.2142 F100.00
G3 X525.5991 Y-126.1509 Z3.5000 I-0.2142 J0.4448 F100.00
G1 X525.5991 Y-126.1509 Z2.5000 F100.00
G3 X525.0358 Y-126.0552 Z2.5000 I-0.3491 J-0.3491 F100.00
G3 X524.8052 Y-126.7142 Z2.5000 I0.2142 J-0.4448 F100.00
G3 X525.4642 Y-126.9448 Z2.5000 I0.4448 J0.2142 F100.00
G3 X525.5991 Y-126.1509 Z2.5000 I-0.2142 J0.4448 F100.00
G1 X525.5991 Y-126.1509 Z1.5000 F100.00
G3 X525.0358 Y-126.0552 Z1.5000 I-0.3491 J-0.3491 F100.00
G3 X524.8052 Y-126.7142 Z1.5000 I0.2142 J-0.4448 F100.00
G3 X525.4642 Y-126.9448 Z1.5000 I0.4448 J0.2142 F100.00
G3 X525.5991 Y-126.1509 Z1.5000 I-0.2142 J0.4448 F100.00
G1 X525.5991 Y-126.1509 Z0.5000 F100.00
G3 X525.0358 Y-126.0552 Z0.5000 I-0.3491 J-0.3491 F100.00
G3 X524.8052 Y-126.7142 Z0.5000 I0.2142 J-0.4448 F100.00
G3 X525.4642 Y-126.9448 Z0.5000 I0.4448 J0.2142 F100.00
G3 X525.5991 Y-126.1509 Z0.5000 I-0.2142 J0.4448 F100.00
G1 X525.5991 Y-126.1509 Z0.0000 F100.00
G3 X525.0358 Y-126.0552 Z0.0000 I-0.3491 J-0.3491 F100.00
G3 X524.8052 Y-126.7142 Z0.0000 I0.2142 J-0.4448 F100.00
G3 X525.4642 Y-126.9448 Z0.0000 I0.4448 J0.2142 F100.00
G3 X525.5991 Y-126.1509 Z0.0000 I-0.2142 J0.4448 F100.00
G0 Z19.5000
G0 X590.7071 Y0.7071
G0 Z17.5000
G1 X590.7071 Y0.7071 Z12.5000 F100.00
G2 X591.0000 Y0.0000 Z12.5000 I-0.7071 J-0.7071 F100.00
