(Exported by FreeCAD)
(Post Processor: KineticNCBeamicon2_post)
(Output Time:2025-03-13 20:24:21.293058)
(begin preamble)
%
G17 G21 G40 G49 G80 G90
M08
G21
(begin operation: Fixture)
(machine: not set, mm/min)
G54
(finish operation: Fixture)
(begin operation: TC: 1mm-thread-cutter001)
(machine: not set, mm/min)
(TC: 1mm-thread-cutter001)
M05
M09M6 T10
(finish operation: TC: 1mm-thread-cutter001)
(begin operation: Holes)
(machine: not set, mm/min)
(Holes)
(Compensated Tool Path. Diameter: 1.0)
G0 Z18.000
G0 X7.601 Y-31.299
G0 Z16.000
G1 X7.601 Y-31.299 Z12.000
G3 X7.002 Y-31.221 Z12.000 I-0.351 J-0.351
G3 X6.821 Y-31.898 Z12.000 I0.248 J-0.429
G3 X7.498 Y-32.079 Z12.000 I0.429 J0.248
G3 X7.601 Y-31.299 Z12.000 I-0.248 J0.429
G1 X7.601 Y-31.299 Z11.000
G3 X7.002 Y-31.221 Z11.000 I-0.351 J-0.351
G3 X6.821 Y-31.898 Z11.000 I0.248 J-0.429
G3 X7.498 Y-32.079 Z11.000 I0.429 J0.248
G3 X7.601 Y-31.299 Z11.000 I-0.248 J0.429
G1 X7.601 Y-31.299 Z10.000
G3 X7.002 Y-31.221 Z10.000 I-0.351 J-0.351
G3 X6.821 Y-31.898 Z10.000 I0.248 J-0.429
G3 X7.498 Y-32.079 Z10.000 I0.429 J0.248
G3 X7.601 Y-31.299 Z10.000 I-0.248 J0.429
G1 X7.601 Y-31.299 Z9.000
G3 X7.002 Y-31.221 Z9.000 I-0.351 J-0.351
G3 X6.821 Y-31.898 Z9.000 I0.248 J-0.429
G3 X7.498 Y-32.079 Z9.000 I0.429 J0.248
G3 X7.601 Y-31.299 Z9.000 I-0.248 J0.429
G1 X7.601 Y-31.299 Z8.000
G3 X7.002 Y-31.221 Z8.000 I-0.351 J-0.351
G3 X6.821 Y-31.898 Z8.000 I0.248 J-0.429
G3 X7.498 Y-32.079 Z8.000 I0.429 J0.248
G3 X7.601 Y-31.299 Z8.000 I-0.248 J0.429
G1 X7.601 Y-31.299 Z7.000
G3 X7.002 Y-31.221 Z7.000 I-0.351 J-0.351
G3 X6.821 Y-31.898 Z7.000 I0.248 J-0.429
G3 X7.498 Y-32.079 Z7.000 I0.429 J0.248
G3 X7.601 Y-31.299 Z7.000 I-0.248 J0.429
G1 X7.601 Y-31.299 Z6.000
G3 X7.002 Y-31.221 Z6.000 I-0.351 J-0.351
G3 X6.821 Y-31.898 Z6.000 I0.248 J-0.429
G3 X7.498 Y-32.079 Z6.000 I0.429 J0.248
G3 X7.601 Y-31.299 Z6.000 I-0.248 J0.429
G1 X7.601 Y-31.299 Z5.000
G3 X7.002 Y-31.221 Z5.000 I-0.351 J-0.351
G3 X6.821 Y-31.898 Z5.000 I0.248 J-0.429
G3 X7.498 Y-32.079 Z5.000 I0.429 J0.248
G3 X7.601 Y-31.299 Z5.000 I-0.248 J0.429
G1 X7.601 Y-31.299 Z4.000
G3 X7.002 Y-31.221 Z4.000 I-0.351 J-0.351
G3 X6.821 Y-31.898 Z4.000 I0.248 J-0.429
G3 X7.498 Y-32.079 Z4.000 I0.429 J0.248
G3 X7.601 Y-31.299 Z4.000 I-0.248 J0.429
G1 X7.601 Y-31.299 Z3.000
G3 X7.002 Y-31.221 Z3.000 I-0.351 J-0.351
G3 X6.821 Y-31.898 Z3.000 I0.248 J-0.429
G3 X7.498 Y-32.079 Z3.000 I0.429 J0.248
G3 X7.601 Y-31.299 Z3.000 I-0.248 J0.429
G1 X7.601 Y-31.299 Z2.000
G3 X7.002 Y-31.221 Z2.000 I-0.351 J-0.351
G3 X6.821 Y-31.898 Z2.000 I0.248 J-0.429
G3 X7.498 Y-32.079 Z2.000 I0.429 J0.248
G3 X7.601 Y-31.299 Z2.000 I-0.248 J0.429
G1 X7.601 Y-31.299 Z1.000
G3 X7.002 Y-31.221 Z1.000 I-0.351 J-0.351
G3 X6.821 Y-31.898 Z1.000 I0.248 J-0.429
G3 X7.498 Y-32.079 Z1.000 I0.429 J0.248
G3 X7.601 Y-31.299 Z1.000 I-0.248 J0.429
G1 X7.601 Y-31.299 Z0.000
G3 X7.002 Y-31.221 Z0.000 I-0.351 J-0.351
G3 X6.821 Y-31.898 Z0.000 I0.248 J-0.429
G3 X7.498 Y-32.079 Z0.000 I0.429 J0.248
G3 X7.601 Y-31.299 Z0.000 I-0.248 J0.429
G0 Z18.000
G0 Z18.000
G0 X7.601 Y-31.299
G0 X30.704 Y-7.605
G0 X30.704 Y-7.605 Z16.000
G1 X30.704 Y-7.605 Z12.000
G3 X31.298 Y-7.679 Z12.000 I0.346 J0.355
G3 X30.802 Y-6.821 Z12.000 I-0.248 J0.429
G3 X30.704 Y-7.605 Z12.000 I0.248 J-0.429
G1 X30.704 Y-7.605 Z11.000
G3 X31.298 Y-7.679 Z11.000 I0.346 J0.355
G3 X30.802 Y-6.821 Z11.000 I-0.248 J0.429
G3 X30.704 Y-7.605 Z11.000 I0.248 J-0.429
G1 X30.704 Y-7.605 Z10.000
G3 X31.298 Y-7.679 Z10.000 I0.346 J0.355
G3 X30.802 Y-6.821 Z10.000 I-0.248 J0.429
G3 X30.704 Y-7.605 Z10.000 I0.248 J-0.429
G1 X30.704 Y-7.605 Z9.000
G3 X31.298 Y-7.679 Z9.000 I0.346 J0.355
G3 X30.802 Y-6.821 Z9.000 I-0.248 J0.429
G3 X30.704 Y-7.605 Z9.000 I0.248 J-0.429
G1 X30.704 Y-7.605 Z8.000
G3 X31.298 Y-7.679 Z8.000 I0.346 J0.355
G3 X30.802 Y-6.821 Z8.000 I-0.248 J0.429
G3 X30.704 Y-7.605 Z8.000 I0.248 J-0.429
G1 X30.704 Y-7.605 Z7.000
G3 X31.298 Y-7.679 Z7.000 I0.346 J0.355
G3 X30.802 Y-6.821 Z7.000 I-0.248 J0.429
G3 X30.704 Y-7.605 Z7.000 I0.248 J-0.429
G1 X30.704 Y-7.605 Z6.000
G3 X31.298 Y-7.679 Z6.000 I0.346 J0.355
G3 X30.802 Y-6.821 Z6.000 I-0.248 J0.429
G3 X30.704 Y-7.605 Z6.000 I0.248 J-0.429
G1 X30.704 Y-7.605 Z5.000
G3 X31.298 Y-7.679 Z5.000 I0.346 J0.355
G3 X30.802 Y-6.821 Z5.000 I-0.248 J0.429
G3 X30.704 Y-7.605 Z5.000 I0.248 J-0.429
G1 X30.704 Y-7.605 Z4.000
G3 X31.298 Y-7.679 Z4.000 I0.346 J0.355
G3 X30.802 Y-6.821 Z4.000 I-0.248 J0.429
G3 X30.704 Y-7.605 Z4.000 I0.248 J-0.429
G1 X30.704 Y-7.605 Z3.000
G3 X31.298 Y-7.679 Z3.000 I0.346 J0.355
G3 X30.802 Y-6.821 Z3.000 I-0.248 J0.429
G3 X30.704 Y-7.605 Z3.000 I0.248 J-0.429
G1 X30.704 Y-7.605 Z2.000
G3 X31.298 Y-7.679 Z2.000 I0.346 J0.355
G3 X30.802 Y-6.821 Z2.000 I-0.248 J0.429
G3 X30.704 Y-7.605 Z2.000 I0.248 J-0.429
G1 X30.704 Y-7.605 Z1.000
G3 X31.298 Y-7.679 Z1.000 I0.346 J0.355
G3 X30.802 Y-6.821 Z1.000 I-0.248 J0.429
G3 X30.704 Y-7.605 Z1.000 I0.248 J-0.429
G1 X30.704 Y-7.605 Z0.000
G3 X31.298 Y-7.679 Z0.000 I0.346 J0.355
G3 X30.802 Y-6.821 Z0.000 I-0.248 J0.429
G3 X30.704 Y-7.605 Z0.000 I0.248 J-0.429
G0 Z18.000
G0 Z18.000
G0 X30.704 Y-7.605
G0 X100.088 Y-7.253
G0 X100.088 Y-7.253 Z16.000
G1 X100.088 Y-7.253 Z12.000
G3 X100.831 Y-7.679 Z12.000 I0.496 J0.003
G3 X100.335 Y-6.821 Z12.000 I-0.248 J0.429
G3 X100.088 Y-7.253 Z12.000 I0.248 J-0.429
G1 X100.088 Y-7.253 Z11.000
G3 X100.831 Y-7.679 Z11.000 I0.496 J0.003
G3 X100.335 Y-6.821 Z11.000 I-0.248 J0.429
G3 X100.088 Y-7.253 Z11.000 I0.248 J-0.429
G1 X100.088 Y-7.253 Z10.000
G3 X100.831 Y-7.679 Z10.000 I0.496 J0.003
G3 X100.335 Y-6.821 Z10.000 I-0.248 J0.429
G3 X100.088 Y-7.253 Z10.000 I0.248 J-0.429
G1 X100.088 Y-7.253 Z9.000
G3 X100.831 Y-7.679 Z9.000 I0.496 J0.003
G3 X100.335 Y-6.821 Z9.000 I-0.248 J0.429
G3 X100.088 Y-7.253 Z9.000 I0.248 J-0.429
G1 X100.088 Y-7.253 Z8.000
G3 X100.831 Y-7.679 Z8.000 I0.496 J0.003
G3 X100.335 Y-6.821 Z8.000 I-0.248 J0.429
G3 X100.088 Y-7.253 Z8.000 I0.248 J-0.429
G1 X100.088 Y-7.253 Z7.000
G3 X100.831 Y-7.679 Z7.000 I0.496 J0.003
G3 X100.335 Y-6.821 Z7.000 I-0.248 J0.429
G3 X100.088 Y-7.253 Z7.000 I0.248 J-0.429
G1 X100.088 Y-7.253 Z6.000
G3 X100.831 Y-7.679 Z6.000 I0.496 J0.003
G3 X100.335 Y-6.821 Z6.000 I-0.248 J0.429
G3 X100.088 Y-7.253 Z6.000 I0.248 J-0.429
G1 X100.088 Y-7.253 Z5.000
G3 X100.831 Y-7.679 Z5.000 I0.496 J0.003
G3 X100.335 Y-6.821 Z5.000 I-0.248 J0.429
G3 X100.088 Y-7.253 Z5.000 I0.248 J-0.429
G1 X100.088 Y-7.253 Z4.000
G3 X100.831 Y-7.679 Z4.000 I0.496 J0.003
G3 X100.335 Y-6.821 Z4.000 I-0.248 J0.429
G3 X100.088 Y-7.253 Z4.000 I0.248 J-0.429
G1 X100.088 Y-7.253 Z3.000
G3 X100.831 Y-7.679 Z3.000 I0.496 J0.003
G3 X100.335 Y-6.821 Z3.000 I-0.248 J0.429
G3 X100.088 Y-7.253 Z3.000 I0.248 J-0.429
G1 X100.088 Y-7.253 Z2.000
G3 X100.831 Y-7.679 Z2.000 I0.496 J0.003
G3 X100.335 Y-6.821 Z2.000 I-0.248 J0.429
G3 X100.088 Y-7.253 Z2.000 I0.248 J-0.429
G1 X100.088 Y-7.253 Z1.000
G3 X100.831 Y-7.679 Z1.000 I0.496 J0.003
G3 X100.335 Y-6.821 Z1.000 I-0.248 J0.429
G3 X100.088 Y-7.253 Z1.000 I0.248 J-0.429
G1 X100.088 Y-7.253 Z0.000
G3 X100.831 Y-7.679 Z0.000 I0.496 J0.003
G3 X100.335 Y-6.821 Z0.000 I-0.248 J0.429
G3 X100.088 Y-7.253 Z0.000 I0.248 J-0.429
G0 Z18.000
G0 Z18.000
G0 X100.088 Y-7.253
G0 X75.341 Y-77.068
G0 X75.341 Y-77.068 Z16.000
G1 X75.341 Y-77.068 Z12.000
G3 X74.575 Y-77.109 Z12.000 I-0.333 J-0.940
G3 X75.440 Y-78.906 Z12.000 I0.433 J-0.898
G3 X75.341 Y-77.068 Z12.000 I-0.433 J0.898
G1 X75.341 Y-77.068 Z11.000
G3 X74.575 Y-77.109 Z11.000 I-0.333 J-0.940
G3 X75.440 Y-78.906 Z11.000 I0.433 J-0.898
G3 X75.341 Y-77.068 Z11.000 I-0.433 J0.898
G1 X75.341 Y-77.068 Z10.000
G3 X74.575 Y-77.109 Z10.000 I-0.333 J-0.940
G3 X75.440 Y-78.906 Z10.000 I0.433 J-0.898
G3 X75.341 Y-77.068 Z10.000 I-0.433 J0.898
G1 X75.341 Y-77.068 Z9.000
G3 X74.575 Y-77.109 Z9.000 I-0.333 J-0.940
G3 X75.440 Y-78.906 Z9.000 I0.433 J-0.898
G3 X75.341 Y-77.068 Z9.000 I-0.433 J0.898
G1 X75.341 Y-77.068 Z8.000
G3 X74.575 Y-77.109 Z8.000 I-0.333 J-0.940
G3 X75.440 Y-78.906 Z8.000 I0.433 J-0.898
G3 X75.341 Y-77.068 Z8.000 I-0.433 J0.898
G1 X75.341 Y-77.068 Z7.000
G3 X74.575 Y-77.109 Z7.000 I-0.333 J-0.940
G3 X75.440 Y-78.906 Z7.000 I0.433 J-0.898
G3 X75.341 Y-77.068 Z7.000 I-0.433 J0.898
G1 X75.341 Y-77.068 Z6.000
G3 X74.575 Y-77.109 Z6.000 I-0.333 J-0.940
G3 X75.440 Y-78.906 Z6.000 I0.433 J-0.898
G3 X75.341 Y-77.068 Z6.000 I-0.433 J0.898
G1 X75.341 Y-77.068 Z5.000
G3 X74.575 Y-77.109 Z5.000 I-0.333 J-0.940
G3 X75.440 Y-78.906 Z5.000 I0.433 J-0.898
G3 X75.341 Y-77.068 Z5.000 I-0.433 J0.898
G1 X75.341 Y-77.068 Z4.000
G3 X74.575 Y-77.109 Z4.000 I-0.333 J-0.940
G3 X75.440 Y-78.906 Z4.000 I0.433 J-0.898
G3 X75.341 Y-77.068 Z4.000 I-0.433 J0.898
G1 X75.341 Y-77.068 Z3.000
G3 X74.575 Y-77.109 Z3.000 I-0.333 J-0.940
G3 X75.440 Y-78.906 Z3.000 I0.433 J-0.898
G3 X75.341 Y-77.068 Z3.000 I-0.433 J0.898
G1 X75.341 Y-77.068 Z2.000
G3 X74.575 Y-77.109 Z2.000 I-0.333 J-0.940
G3 X75.440 Y-78.906 Z2.000 I0.433 J-0.898
G3 X75.341 Y-77.068 Z2.000 I-0.433 J0.898
G1 X75.341 Y-77.068 Z1.000
G3 X74.575 Y-77.109 Z1.000 I-0.333 J-0.940
G3 X75.440 Y-78.906 Z1.000 I0.433 J-0.898
G3 X75.341 Y-77.068 Z1.000 I-0.433 J0.898
G1 X75.341 Y-77.068 Z0.000
G3 X74.575 Y-77.109 Z0.000 I-0.333 J-0.940
G3 X75.440 Y-78.906 Z0.000 I0.433 J-0.898
G3 X75.341 Y-77.068 Z0.000 I-0.433 J0.898
G0 Z18.000
G0 Z18.000
G0 X75.341 Y-77.068
G0 X7.714 Y-102.409
G0 X7.714 Y-102.409 Z16.000
G1 X7.714 Y-102.409 Z12.000
G3 X7.002 Y-102.154 Z12.000 I-0.464 J-0.174
G3 X7.498 Y-103.013 Z12.000 I0.248 J-0.429
G3 X7.714 Y-102.409 Z12.000 I-0.248 J0.429
G1 X7.714 Y-102.409 Z11.000
G3 X7.002 Y-102.154 Z11.000 I-0.464 J-0.174
G3 X7.498 Y-103.013 Z11.000 I0.248 J-0.429
G3 X7.714 Y-102.409 Z11.000 I-0.248 J0.429
G1 X7.714 Y-102.409 Z10.000
G3 X7.002 Y-102.154 Z10.000 I-0.464 J-0.174
G3 X7.498 Y-103.013 Z10.000 I0.248 J-0.429
G3 X7.714 Y-102.409 Z10.000 I-0.248 J0.429
G1 X7.714 Y-102.409 Z9.000
G3 X7.002 Y-102.154 Z9.000 I-0.464 J-0.174
G3 X7.498 Y-103.013 Z9.000 I0.248 J-0.429
G3 X7.714 Y-102.409 Z9.000 I-0.248 J0.429
G1 X7.714 Y-102.409 Z8.000
G3 X7.002 Y-102.154 Z8.000 I-0.464 J-0.174
G3 X7.498 Y-103.013 Z8.000 I0.248 J-0.429
G3 X7.714 Y-102.409 Z8.000 I-0.248 J0.429
G1 X7.714 Y-102.409 Z7.000
G3 X7.002 Y-102.154 Z7.000 I-0.464 J-0.174
G3 X7.498 Y-103.013 Z7.000 I0.248 J-0.429
G3 X7.714 Y-102.409 Z7.000 I-0.248 J0.429
G1 X7.714 Y-102.409 Z6.000
G3 X7.002 Y-102.154 Z6.000 I-0.464 J-0.174
G3 X7.498 Y-103.013 Z6.000 I0.248 J-0.429
G3 X7.714 Y-102.409 Z6.000 I-0.248 J0.429
G1 X7.714 Y-102.409 Z5.000
G3 X7.002 Y-102.154 Z5.000 I-0.464 J-0.174
G3 X7.498 Y-103.013 Z5.000 I0.248 J-0.429
G3 X7.714 Y-102.409 Z5.000 I-0.248 J0.429
G1 X7.714 Y-102.409 Z4.000
G3 X7.002 Y-102.154 Z4.000 I-0.464 J-0.174
G3 X7.498 Y-103.013 Z4.000 I0.248 J-0.429
G3 X7.714 Y-102.409 Z4.000 I-0.248 J0.429
G1 X7.714 Y-102.409 Z3.000
G3 X7.002 Y-102.154 Z3.000 I-0.464 J-0.174
G3 X7.498 Y-103.013 Z3.000 I0.248 J-0.429
G3 X7.714 Y-102.409 Z3.000 I-0.248 J0.429
G1 X7.714 Y-102.409 Z2.000
G3 X7.002 Y-102.154 Z2.000 I-0.464 J-0.174
G3 X7.498 Y-103.013 Z2.000 I0.248 J-0.429
G3 X7.714 Y-102.409 Z2.000 I-0.248 J0.429
G1 X7.714 Y-102.409 Z1.000
G3 X7.002 Y-102.154 Z1.000 I-0.464 J-0.174
G3 X7.498 Y-103.013 Z1.000 I0.248 J-0.429
G3 X7.714 Y-102.409 Z1.000 I-0.248 J0.429
G1 X7.714 Y-102.409 Z0.000
G3 X7.002 Y-102.154 Z0.000 I-0.464 J-0.174
G3 X7.498 Y-103.013 Z0.000 I0.248 J-0.429
G3 X7.714 Y-102.409 Z0.000 I-0.248 J0.429
G0 Z18.000
G0 Z18.000
G0 X7.714 Y-102.409
G0 X7.252 Y-203.421
G0 X7.252 Y-203.421 Z16.000
G1 X7.252 Y-203.421 Z12.000
G3 X7.002 Y-203.487 Z12.000 I-0.002 J-0.496
G3 X6.821 Y-204.165 Z12.000 I0.248 J-0.429
G3 X7.498 Y-204.346 Z12.000 I0.429 J0.248
G3 X7.252 Y-203.421 Z12.000 I-0.248 J0.429
G1 X7.252 Y-203.421 Z11.000
G3 X7.002 Y-203.487 Z11.000 I-0.002 J-0.496
G3 X6.821 Y-204.165 Z11.000 I0.248 J-0.429
G3 X7.498 Y-204.346 Z11.000 I0.429 J0.248
G3 X7.252 Y-203.421 Z11.000 I-0.248 J0.429
G1 X7.252 Y-203.421 Z10.000
G3 X7.002 Y-203.487 Z10.000 I-0.002 J-0.496
G3 X6.821 Y-204.165 Z10.000 I0.248 J-0.429
G3 X7.498 Y-204.346 Z10.000 I0.429 J0.248
G3 X7.252 Y-203.421 Z10.000 I-0.248 J0.429
G1 X7.252 Y-203.421 Z9.000
G3 X7.002 Y-203.487 Z9.000 I-0.002 J-0.496
G3 X6.821 Y-204.165 Z9.000 I0.248 J-0.429
G3 X7.498 Y-204.346 Z9.000 I0.429 J0.248
G3 X7.252 Y-203.421 Z9.000 I-0.248 J0.429
G1 X7.252 Y-203.421 Z8.000
G3 X7.002 Y-203.487 Z8.000 I-0.002 J-0.496
G3 X6.821 Y-204.165 Z8.000 I0.248 J-0.429
G3 X7.498 Y-204.346 Z8.000 I0.429 J0.248
G3 X7.252 Y-203.421 Z8.000 I-0.248 J0.429
G1 X7.252 Y-203.421 Z7.000
G3 X7.002 Y-203.487 Z7.000 I-0.002 J-0.496
G3 X6.821 Y-204.165 Z7.000 I0.248 J-0.429
G3 X7.498 Y-204.346 Z7.000 I0.429 J0.248
G3 X7.252 Y-203.421 Z7.000 I-0.248 J0.429
G1 X7.252 Y-203.421 Z6.000
G3 X7.002 Y-203.487 Z6.000 I-0.002 J-0.496
G3 X6.821 Y-204.165 Z6.000 I0.248 J-0.429
G3 X7.498 Y-204.346 Z6.000 I0.429 J0.248
G3 X7.252 Y-203.421 Z6.000 I-0.248 J0.429
G1 X7.252 Y-203.421 Z5.000
G3 X7.002 Y-203.487 Z5.000 I-0.002 J-0.496
G3 X6.821 Y-204.165 Z5.000 I0.248 J-0.429
G3 X7.498 Y-204.346 Z5.000 I0.429 J0.248
G3 X7.252 Y-203.421 Z5.000 I-0.248 J0.429
G1 X7.252 Y-203.421 Z4.000
G3 X7.002 Y-203.487 Z4.000 I-0.002 J-0.496
G3 X6.821 Y-204.165 Z4.000 I0.248 J-0.429
G3 X7.498 Y-204.346 Z4.000 I0.429 J0.248
G3 X7.252 Y-203.421 Z4.000 I-0.248 J0.429
G1 X7.252 Y-203.421 Z3.000
G3 X7.002 Y-203.487 Z3.000 I-0.002 J-0.496
G3 X6.821 Y-204.165 Z3.000 I0.248 J-0.429
G3 X7.498 Y-204.346 Z3.000 I0.429 J0.248
G3 X7.252 Y-203.421 Z3.000 I-0.248 J0.429
G1 X7.252 Y-203.421 Z2.000
G3 X7.002 Y-203.487 Z2.000 I-0.002 J-0.496
G3 X6.821 Y-204.165 Z2.000 I0.248 J-0.429
G3 X7.498 Y-204.346 Z2.000 I0.429 J0.248
G3 X7.252 Y-203.421 Z2.000 I-0.248 J0.429
G1 X7.252 Y-203.421 Z1.000
G3 X7.002 Y-203.487 Z1.000 I-0.002 J-0.496
G3 X6.821 Y-204.165 Z1.000 I0.248 J-0.429
G3 X7.498 Y-204.346 Z1.000 I0.429 J0.248
G3 X7.252 Y-203.421 Z1.000 I-0.248 J0.429
G1 X7.252 Y-203.421 Z0.000
G3 X7.002 Y-203.487 Z0.000 I-0.002 J-0.496
G3 X6.821 Y-204.165 Z0.000 I0.248 J-0.429
G3 X7.498 Y-204.346 Z0.000 I0.429 J0.248
G3 X7.252 Y-203.421 Z0.000 I-0.248 J0.429
G0 Z18.000
G0 Z18.000
G0 X7.252 Y-203.421
G0 X7.250 Y-274.354
G0 X7.250 Y-274.354 Z16.000
G1 X7.250 Y-274.354 Z12.000
G3 X7.002 Y-274.421 Z12.000 I-0.000 J-0.496
G3 X7.498 Y-275.279 Z12.000 I0.248 J-0.429
G3 X7.250 Y-274.354 Z12.000 I-0.248 J0.429
G1 X7.250 Y-274.354 Z11.000
G3 X7.002 Y-274.421 Z11.000 I-0.000 J-0.496
G3 X7.498 Y-275.279 Z11.000 I0.248 J-0.429
G3 X7.250 Y-274.354 Z11.000 I-0.248 J0.429
G1 X7.250 Y-274.354 Z10.000
G3 X7.002 Y-274.421 Z10.000 I-0.000 J-0.496
G3 X7.498 Y-275.279 Z10.000 I0.248 J-0.429
G3 X7.250 Y-274.354 Z10.000 I-0.248 J0.429
G1 X7.250 Y-274.354 Z9.000
G3 X7.002 Y-274.421 Z9.000 I-0.000 J-0.496
G3 X7.498 Y-275.279 Z9.000 I0.248 J-0.429
G3 X7.250 Y-274.354 Z9.000 I-0.248 J0.429
G1 X7.250 Y-274.354 Z8.000
G3 X7.002 Y-274.421 Z8.000 I-0.000 J-0.496
G3 X7.498 Y-275.279 Z8.000 I0.248 J-0.429
G3 X7.250 Y-274.354 Z8.000 I-0.248 J0.429
G1 X7.250 Y-274.354 Z7.000
G3 X7.002 Y-274.421 Z7.000 I-0.000 J-0.496
G3 X7.498 Y-275.279 Z7.000 I0.248 J-0.429
G3 X7.250 Y-274.354 Z7.000 I-0.248 J0.429
G1 X7.250 Y-274.354 Z6.000
G3 X7.002 Y-274.421 Z6.000 I-0.000 J-0.496
G3 X7.498 Y-275.279 Z6.000 I0.248 J-0.429
G3 X7.250 Y-274.354 Z6.000 I-0.248 J0.429
G1 X7.250 Y-274.354 Z5.000
G3 X7.002 Y-274.421 Z5.000 I-0.000 J-0.496
G3 X7.498 Y-275.279 Z5.000 I0.248 J-0.429
G3 X7.250 Y-274.354 Z5.000 I-0.248 J0.429
G1 X7.250 Y-274.354 Z4.000
G3 X7.002 Y-274.421 Z4.000 I-0.000 J-0.496
G3 X7.498 Y-275.279 Z4.000 I0.248 J-0.429
G3 X7.250 Y-274.354 Z4.000 I-0.248 J0.429
G1 X7.250 Y-274.354 Z3.000
G3 X7.002 Y-274.421 Z3.000 I-0.000 J-0.496
G3 X7.498 Y-275.279 Z3.000 I0.248 J-0.429
G3 X7.250 Y-274.354 Z3.000 I-0.248 J0.429
G1 X7.250 Y-274.354 Z2.000
G3 X7.002 Y-274.421 Z2.000 I-0.000 J-0.496
G3 X7.498 Y-275.279 Z2.000 I0.248 J-0.429
G3 X7.250 Y-274.354 Z2.000 I-0.248 J0.429
G1 X7.250 Y-274.354 Z1.000
G3 X7.002 Y-274.421 Z1.000 I-0.000 J-0.496
G3 X7.498 Y-275.279 Z1.000 I0.248 J-0.429
G3 X7.250 Y-274.354 Z1.000 I-0.248 J0.429
G1 X7.250 Y-274.354 Z0.000
G3 X7.002 Y-274.421 Z0.000 I-0.000 J-0.496
G3 X7.498 Y-275.279 Z0.000 I0.248 J-0.429
G3 X7.250 Y-274.354 Z0.000 I-0.248 J0.429
G0 Z18.000
G0 Z18.000
G0 X7.250 Y-274.354
G0 X30.707 Y-298.892
G0 X30.707 Y-298.892 Z16.000
G1 X30.707 Y-298.892 Z12.000
G3 X31.298 Y-299.679 Z12.000 I0.343 J-0.358
G3 X30.802 Y-298.821 Z12.000 I-0.248 J0.429
G3 X30.707 Y-298.892 Z12.000 I0.248 J-0.429
G1 X30.707 Y-298.892 Z11.000
G3 X31.298 Y-299.679 Z11.000 I0.343 J-0.358
G3 X30.802 Y-298.821 Z11.000 I-0.248 J0.429
G3 X30.707 Y-298.892 Z11.000 I0.248 J-0.429
G1 X30.707 Y-298.892 Z10.000
G3 X31.298 Y-299.679 Z10.000 I0.343 J-0.358
G3 X30.802 Y-298.821 Z10.000 I-0.248 J0.429
G3 X30.707 Y-298.892 Z10.000 I0.248 J-0.429
G1 X30.707 Y-298.892 Z9.000
G3 X31.298 Y-299.679 Z9.000 I0.343 J-0.358
G3 X30.802 Y-298.821 Z9.000 I-0.248 J0.429
G3 X30.707 Y-298.892 Z9.000 I0.248 J-0.429
G1 X30.707 Y-298.892 Z8.000
G3 X31.298 Y-299.679 Z8.000 I0.343 J-0.358
G3 X30.802 Y-298.821 Z8.000 I-0.248 J0.429
G3 X30.707 Y-298.892 Z8.000 I0.248 J-0.429
G1 X30.707 Y-298.892 Z7.000
G3 X31.298 Y-299.679 Z7.000 I0.343 J-0.358
G3 X30.802 Y-298.821 Z7.000 I-0.248 J0.429
G3 X30.707 Y-298.892 Z7.000 I0.248 J-0.429
G1 X30.707 Y-298.892 Z6.000
G3 X31.298 Y-299.679 Z6.000 I0.343 J-0.358
G3 X30.802 Y-298.821 Z6.000 I-0.248 J0.429
G3 X30.707 Y-298.892 Z6.000 I0.248 J-0.429
G1 X30.707 Y-298.892 Z5.000
G3 X31.298 Y-299.679 Z5.000 I0.343 J-0.358
G3 X30.802 Y-298.821 Z5.000 I-0.248 J0.429
G3 X30.707 Y-298.892 Z5.000 I0.248 J-0.429
G1 X30.707 Y-298.892 Z4.000
G3 X31.298 Y-299.679 Z4.000 I0.343 J-0.358
G3 X30.802 Y-298.821 Z4.000 I-0.248 J0.429
G3 X30.707 Y-298.892 Z4.000 I0.248 J-0.429
G1 X30.707 Y-298.892 Z3.000
G3 X31.298 Y-299.679 Z3.000 I0.343 J-0.358
G3 X30.802 Y-298.821 Z3.000 I-0.248 J0.429
G3 X30.707 Y-298.892 Z3.000 I0.248 J-0.429
G1 X30.707 Y-298.892 Z2.000
G3 X31.298 Y-299.679 Z2.000 I0.343 J-0.358
G3 X30.802 Y-298.821 Z2.000 I-0.248 J0.429
G3 X30.707 Y-298.892 Z2.000 I0.248 J-0.429
G1 X30.707 Y-298.892 Z1.000
G3 X31.298 Y-299.679 Z1.000 I0.343 J-0.358
G3 X30.802 Y-298.821 Z1.000 I-0.248 J0.429
G3 X30.707 Y-298.892 Z1.000 I0.248 J-0.429
G1 X30.707 Y-298.892 Z0.000
G3 X31.298 Y-299.679 Z0.000 I0.343 J-0.358
G3 X30.802 Y-298.821 Z0.000 I-0.248 J0.429
G3 X30.707 Y-298.892 Z0.000 I0.248 J-0.429
G0 Z18.000
G0 Z18.000
G0 X30.707 Y-298.892
G0 X23.803 Y-337.019
G0 X23.803 Y-337.019 Z16.000
G1 X23.803 Y-337.019 Z12.000
G3 X23.192 Y-337.102 Z12.000 I-0.178 J-0.981
G3 X24.058 Y-338.898 Z12.000 I0.433 J-0.898
G3 X23.803 Y-337.019 Z12.000 I-0.433 J0.898
G1 X23.803 Y-337.019 Z11.000
G3 X23.192 Y-337.102 Z11.000 I-0.178 J-0.981
G3 X24.058 Y-338.898 Z11.000 I0.433 J-0.898
G3 X23.803 Y-337.019 Z11.000 I-0.433 J0.898
G1 X23.803 Y-337.019 Z10.000
G3 X23.192 Y-337.102 Z10.000 I-0.178 J-0.981
G3 X24.058 Y-338.898 Z10.000 I0.433 J-0.898
G3 X23.803 Y-337.019 Z10.000 I-0.433 J0.898
G1 X23.803 Y-337.019 Z9.000
G3 X23.192 Y-337.102 Z9.000 I-0.178 J-0.981
G3 X24.058 Y-338.898 Z9.000 I0.433 J-0.898
G3 X23.803 Y-337.019 Z9.000 I-0.433 J0.898
G1 X23.803 Y-337.019 Z8.000
G3 X23.192 Y-337.102 Z8.000 I-0.178 J-0.981
G3 X24.058 Y-338.898 Z8.000 I0.433 J-0.898
G3 X23.803 Y-337.019 Z8.000 I-0.433 J0.898
G1 X23.803 Y-337.019 Z7.000
G3 X23.192 Y-337.102 Z7.000 I-0.178 J-0.981
G3 X24.058 Y-338.898 Z7.000 I0.433 J-0.898
G3 X23.803 Y-337.019 Z7.000 I-0.433 J0.898
G1 X23.803 Y-337.019 Z6.000
G3 X23.192 Y-337.102 Z6.000 I-0.178 J-0.981
G3 X24.058 Y-338.898 Z6.000 I0.433 J-0.898
G3 X23.803 Y-337.019 Z6.000 I-0.433 J0.898
G1 X23.803 Y-337.019 Z5.000
G3 X23.192 Y-337.102 Z5.000 I-0.178 J-0.981
G3 X24.058 Y-338.898 Z5.000 I0.433 J-0.898
G3 X23.803 Y-337.019 Z5.000 I-0.433 J0.898
G1 X23.803 Y-337.019 Z4.000
G3 X23.192 Y-337.102 Z4.000 I-0.178 J-0.981
G3 X24.058 Y-338.898 Z4.000 I0.433 J-0.898
G3 X23.803 Y-337.019 Z4.000 I-0.433 J0.898
G1 X23.803 Y-337.019 Z3.000
G3 X23.192 Y-337.102 Z3.000 I-0.178 J-0.981
G3 X24.058 Y-338.898 Z3.000 I0.433 J-0.898
G3 X23.803 Y-337.019 Z3.000 I-0.433 J0.898
G1 X23.803 Y-337.019 Z2.000
G3 X23.192 Y-337.102 Z2.000 I-0.178 J-0.981
G3 X24.058 Y-338.898 Z2.000 I0.433 J-0.898
G3 X23.803 Y-337.019 Z2.000 I-0.433 J0.898
G1 X23.803 Y-337.019 Z1.000
G3 X23.192 Y-337.102 Z1.000 I-0.178 J-0.981
G3 X24.058 Y-338.898 Z1.000 I0.433 J-0.898
G3 X23.803 Y-337.019 Z1.000 I-0.433 J0.898
G1 X23.803 Y-337.019 Z0.000
G3 X23.192 Y-337.102 Z0.000 I-0.178 J-0.981
G3 X24.058 Y-338.898 Z0.000 I0.433 J-0.898
G3 X23.803 Y-337.019 Z0.000 I-0.433 J0.898
G0 Z18.000
G0 Z18.000
G0 X23.803 Y-337.019
G0 X99.066 Y-337.987
G0 X99.066 Y-337.987 Z16.000
G1 X99.066 Y-337.987 Z12.000
G3 X100.495 Y-338.898 Z12.000 I0.997 J-0.013
G3 X100.961 Y-337.567 Z12.000 I-0.433 J0.898
G3 X99.630 Y-337.102 Z12.000 I-0.898 J-0.433
G3 X99.066 Y-337.987 Z12.000 I0.433 J-0.898
G1 X99.066 Y-337.987 Z11.000
G3 X100.495 Y-338.898 Z11.000 I0.997 J-0.013
G3 X100.961 Y-337.567 Z11.000 I-0.433 J0.898
G3 X99.630 Y-337.102 Z11.000 I-0.898 J-0.433
G3 X99.066 Y-337.987 Z11.000 I0.433 J-0.898
G1 X99.066 Y-337.987 Z10.000
G3 X100.495 Y-338.898 Z10.000 I0.997 J-0.013
G3 X100.961 Y-337.567 Z10.000 I-0.433 J0.898
G3 X99.630 Y-337.102 Z10.000 I-0.898 J-0.433
G3 X99.066 Y-337.987 Z10.000 I0.433 J-0.898
G1 X99.066 Y-337.987 Z9.000
G3 X100.495 Y-338.898 Z9.000 I0.997 J-0.013
G3 X100.961 Y-337.567 Z9.000 I-0.433 J0.898
G3 X99.630 Y-337.102 Z9.000 I-0.898 J-0.433
G3 X99.066 Y-337.987 Z9.000 I0.433 J-0.898
G1 X99.066 Y-337.987 Z8.000
G3 X100.495 Y-338.898 Z8.000 I0.997 J-0.013
G3 X100.961 Y-337.567 Z8.000 I-0.433 J0.898
G3 X99.630 Y-337.102 Z8.000 I-0.898 J-0.433
G3 X99.066 Y-337.987 Z8.000 I0.433 J-0.898
G1 X99.066 Y-337.987 Z7.000
G3 X100.495 Y-338.898 Z7.000 I0.997 J-0.013
G3 X100.961 Y-337.567 Z7.000 I-0.433 J0.898
G3 X99.630 Y-337.102 Z7.000 I-0.898 J-0.433
G3 X99.066 Y-337.987 Z7.000 I0.433 J-0.898
G1 X99.066 Y-337.987 Z6.000
G3 X100.495 Y-338.898 Z6.000 I0.997 J-0.013
G3 X100.961 Y-337.567 Z6.000 I-0.433 J0.898
G3 X99.630 Y-337.102 Z6.000 I-0.898 J-0.433
G3 X99.066 Y-337.987 Z6.000 I0.433 J-0.898
G1 X99.066 Y-337.987 Z5.000
G3 X100.495 Y-338.898 Z5.000 I0.997 J-0.013
G3 X100.961 Y-337.567 Z5.000 I-0.433 J0.898
G3 X99.630 Y-337.102 Z5.000 I-0.898 J-0.433
G3 X99.066 Y-337.987 Z5.000 I0.433 J-0.898
G1 X99.066 Y-337.987 Z4.000
G3 X100.495 Y-338.898 Z4.000 I0.997 J-0.013
G3 X100.961 Y-337.567 Z4.000 I-0.433 J0.898
G3 X99.630 Y-337.102 Z4.000 I-0.898 J-0.433
G3 X99.066 Y-337.987 Z4.000 I0.433 J-0.898
G1 X99.066 Y-337.987 Z3.000
G3 X100.495 Y-338.898 Z3.000 I0.997 J-0.013
G3 X100.961 Y-337.567 Z3.000 I-0.433 J0.898
G3 X99.630 Y-337.102 Z3.000 I-0.898 J-0.433
G3 X99.066 Y-337.987 Z3.000 I0.433 J-0.898
G1 X99.066 Y-337.987 Z2.000
G3 X100.495 Y-338.898 Z2.000 I0.997 J-0.013
G3 X100.961 Y-337.567 Z2.000 I-0.433 J0.898
G3 X99.630 Y-337.102 Z2.000 I-0.898 J-0.433
G3 X99.066 Y-337.987 Z2.000 I0.433 J-0.898
G1 X99.066 Y-337.987 Z1.000
G3 X100.495 Y-338.898 Z1.000 I0.997 J-0.013
G3 X100.961 Y-337.567 Z1.000 I-0.433 J0.898
G3 X99.630 Y-337.102 Z1.000 I-0.898 J-0.433
G3 X99.066 Y-337.987 Z1.000 I0.433 J-0.898
G1 X99.066 Y-337.987 Z0.000
G3 X100.495 Y-338.898 Z0.000 I0.997 J-0.013
G3 X100.961 Y-337.567 Z0.000 I-0.433 J0.898
G3 X99.630 Y-337.102 Z0.000 I-0.898 J-0.433
G3 X99.066 Y-337.987 Z0.000 I0.433 J-0.898
G0 Z18.000
G0 Z18.000
G0 X99.066 Y-337.987
G0 X100.564 Y-299.745
G0 X100.564 Y-299.745 Z16.000
G1 X100.564 Y-299.745 Z12.000
G3 X100.831 Y-299.679 Z12.000 I0.019 J0.495
G3 X100.335 Y-298.821 Z12.000 I-0.248 J0.429
G3 X100.564 Y-299.745 Z12.000 I0.248 J-0.429
G1 X100.564 Y-299.745 Z11.000
G3 X100.831 Y-299.679 Z11.000 I0.019 J0.495
G3 X100.335 Y-298.821 Z11.000 I-0.248 J0.429
G3 X100.564 Y-299.745 Z11.000 I0.248 J-0.429
G1 X100.564 Y-299.745 Z10.000
G3 X100.831 Y-299.679 Z10.000 I0.019 J0.495
G3 X100.335 Y-298.821 Z10.000 I-0.248 J0.429
G3 X100.564 Y-299.745 Z10.000 I0.248 J-0.429
G1 X100.564 Y-299.745 Z9.000
G3 X100.831 Y-299.679 Z9.000 I0.019 J0.495
G3 X100.335 Y-298.821 Z9.000 I-0.248 J0.429
G3 X100.564 Y-299.745 Z9.000 I0.248 J-0.429
G1 X100.564 Y-299.745 Z8.000
G3 X100.831 Y-299.679 Z8.000 I0.019 J0.495
G3 X100.335 Y-298.821 Z8.000 I-0.248 J0.429
G3 X100.564 Y-299.745 Z8.000 I0.248 J-0.429
G1 X100.564 Y-299.745 Z7.000
G3 X100.831 Y-299.679 Z7.000 I0.019 J0.495
G3 X100.335 Y-298.821 Z7.000 I-0.248 J0.429
G3 X100.564 Y-299.745 Z7.000 I0.248 J-0.429
G1 X100.564 Y-299.745 Z6.000
G3 X100.831 Y-299.679 Z6.000 I0.019 J0.495
G3 X100.335 Y-298.821 Z6.000 I-0.248 J0.429
G3 X100.564 Y-299.745 Z6.000 I0.248 J-0.429
G1 X100.564 Y-299.745 Z5.000
G3 X100.831 Y-299.679 Z5.000 I0.019 J0.495
G3 X100.335 Y-298.821 Z5.000 I-0.248 J0.429
G3 X100.564 Y-299.745 Z5.000 I0.248 J-0.429
G1 X100.564 Y-299.745 Z4.000
G3 X100.831 Y-299.679 Z4.000 I0.019 J0.495
G3 X100.335 Y-298.821 Z4.000 I-0.248 J0.429
G3 X100.564 Y-299.745 Z4.000 I0.248 J-0.429
G1 X100.564 Y-299.745 Z3.000
G3 X100.831 Y-299.679 Z3.000 I0.019 J0.495
G3 X100.335 Y-298.821 Z3.000 I-0.248 J0.429
G3 X100.564 Y-299.745 Z3.000 I0.248 J-0.429
G1 X100.564 Y-299.745 Z2.000
G3 X100.831 Y-299.679 Z2.000 I0.019 J0.495
G3 X100.335 Y-298.821 Z2.000 I-0.248 J0.429
G3 X100.564 Y-299.745 Z2.000 I0.248 J-0.429
G1 X100.564 Y-299.745 Z1.000
G3 X100.831 Y-299.679 Z1.000 I0.019 J0.495
G3 X100.335 Y-298.821 Z1.000 I-0.248 J0.429
G3 X100.564 Y-299.745 Z1.000 I0.248 J-0.429
G1 X100.564 Y-299.745 Z0.000
G3 X100.831 Y-299.679 Z0.000 I0.019 J0.495
G3 X100.335 Y-298.821 Z0.000 I-0.248 J0.429
G3 X100.564 Y-299.745 Z0.000 I0.248 J-0.429
G0 Z18.000
G0 Z18.000
G0 X100.564 Y-299.745
G0 X75.344 Y-229.431
G0 X75.344 Y-229.431 Z16.000
G1 X75.344 Y-229.431 Z12.000
G3 X75.440 Y-229.391 Z12.000 I-0.337 J0.938
G3 X75.906 Y-228.060 Z12.000 I-0.433 J0.898
G3 X74.575 Y-227.594 Z12.000 I-0.898 J-0.433
G3 X75.344 Y-229.431 Z12.000 I0.433 J-0.898
G1 X75.344 Y-229.431 Z11.000
G3 X75.440 Y-229.391 Z11.000 I-0.337 J0.938
G3 X75.906 Y-228.060 Z11.000 I-0.433 J0.898
G3 X74.575 Y-227.594 Z11.000 I-0.898 J-0.433
G3 X75.344 Y-229.431 Z11.000 I0.433 J-0.898
G1 X75.344 Y-229.431 Z10.000
G3 X75.440 Y-229.391 Z10.000 I-0.337 J0.938
G3 X75.906 Y-228.060 Z10.000 I-0.433 J0.898
G3 X74.575 Y-227.594 Z10.000 I-0.898 J-0.433
G3 X75.344 Y-229.431 Z10.000 I0.433 J-0.898
G1 X75.344 Y-229.431 Z9.000
G3 X75.440 Y-229.391 Z9.000 I-0.337 J0.938
G3 X75.906 Y-228.060 Z9.000 I-0.433 J0.898
G3 X74.575 Y-227.594 Z9.000 I-0.898 J-0.433
G3 X75.344 Y-229.431 Z9.000 I0.433 J-0.898
G1 X75.344 Y-229.431 Z8.000
G3 X75.440 Y-229.391 Z8.000 I-0.337 J0.938
G3 X75.906 Y-228.060 Z8.000 I-0.433 J0.898
G3 X74.575 Y-227.594 Z8.000 I-0.898 J-0.433
G3 X75.344 Y-229.431 Z8.000 I0.433 J-0.898
G1 X75.344 Y-229.431 Z7.000
G3 X75.440 Y-229.391 Z7.000 I-0.337 J0.938
G3 X75.906 Y-228.060 Z7.000 I-0.433 J0.898
G3 X74.575 Y-227.594 Z7.000 I-0.898 J-0.433
G3 X75.344 Y-229.431 Z7.000 I0.433 J-0.898
G1 X75.344 Y-229.431 Z6.000
G3 X75.440 Y-229.391 Z6.000 I-0.337 J0.938
G3 X75.906 Y-228.060 Z6.000 I-0.433 J0.898
G3 X74.575 Y-227.594 Z6.000 I-0.898 J-0.433
G3 X75.344 Y-229.431 Z6.000 I0.433 J-0.898
G1 X75.344 Y-229.431 Z5.000
G3 X75.440 Y-229.391 Z5.000 I-0.337 J0.938
G3 X75.906 Y-228.060 Z5.000 I-0.433 J0.898
G3 X74.575 Y-227.594 Z5.000 I-0.898 J-0.433
G3 X75.344 Y-229.431 Z5.000 I0.433 J-0.898
G1 X75.344 Y-229.431 Z4.000
G3 X75.440 Y-229.391 Z4.000 I-0.337 J0.938
G3 X75.906 Y-228.060 Z4.000 I-0.433 J0.898
G3 X74.575 Y-227.594 Z4.000 I-0.898 J-0.433
G3 X75.344 Y-229.431 Z4.000 I0.433 J-0.898
G1 X75.344 Y-229.431 Z3.000
G3 X75.440 Y-229.391 Z3.000 I-0.337 J0.938
G3 X75.906 Y-228.060 Z3.000 I-0.433 J0.898
G3 X74.575 Y-227.594 Z3.000 I-0.898 J-0.433
G3 X75.344 Y-229.431 Z3.000 I0.433 J-0.898
G1 X75.344 Y-229.431 Z2.000
G3 X75.440 Y-229.391 Z2.000 I-0.337 J0.938
G3 X75.906 Y-228.060 Z2.000 I-0.433 J0.898
G3 X74.575 Y-227.594 Z2.000 I-0.898 J-0.433
G3 X75.344 Y-229.431 Z2.000 I0.433 J-0.898
G1 X75.344 Y-229.431 Z1.000
G3 X75.440 Y-229.391 Z1.000 I-0.337 J0.938
G3 X75.906 Y-228.060 Z1.000 I-0.433 J0.898
G3 X74.575 Y-227.594 Z1.000 I-0.898 J-0.433
G3 X75.344 Y-229.431 Z1.000 I0.433 J-0.898
G1 X75.344 Y-229.431 Z0.000
G3 X75.440 Y-229.391 Z0.000 I-0.337 J0.938
G3 X75.906 Y-228.060 Z0.000 I-0.433 J0.898
G3 X74.575 Y-227.594 Z0.000 I-0.898 J-0.433
G3 X75.344 Y-229.431 Z0.000 I0.433 J-0.898
G0 Z18.000
G0 Z18.000
G0 X75.344 Y-229.431
G0 X199.484 Y-299.008
G0 X199.484 Y-299.008 Z16.000
G1 X199.484 Y-299.008 Z12.000
G3 X200.165 Y-299.679 Z12.000 I0.432 J-0.242
G3 X199.669 Y-298.821 Z12.000 I-0.248 J0.429
G3 X199.484 Y-299.008 Z12.000 I0.248 J-0.429
G1 X199.484 Y-299.008 Z11.000
G3 X200.165 Y-299.679 Z11.000 I0.432 J-0.242
G3 X199.669 Y-298.821 Z11.000 I-0.248 J0.429
G3 X199.484 Y-299.008 Z11.000 I0.248 J-0.429
G1 X199.484 Y-299.008 Z10.000
G3 X200.165 Y-299.679 Z10.000 I0.432 J-0.242
G3 X199.669 Y-298.821 Z10.000 I-0.248 J0.429
G3 X199.484 Y-299.008 Z10.000 I0.248 J-0.429
G1 X199.484 Y-299.008 Z9.000
G3 X200.165 Y-299.679 Z9.000 I0.432 J-0.242
G3 X199.669 Y-298.821 Z9.000 I-0.248 J0.429
G3 X199.484 Y-299.008 Z9.000 I0.248 J-0.429
G1 X199.484 Y-299.008 Z8.000
G3 X200.165 Y-299.679 Z8.000 I0.432 J-0.242
G3 X199.669 Y-298.821 Z8.000 I-0.248 J0.429
G3 X199.484 Y-299.008 Z8.000 I0.248 J-0.429
G1 X199.484 Y-299.008 Z7.000
G3 X200.165 Y-299.679 Z7.000 I0.432 J-0.242
G3 X199.669 Y-298.821 Z7.000 I-0.248 J0.429
G3 X199.484 Y-299.008 Z7.000 I0.248 J-0.429
G1 X199.484 Y-299.008 Z6.000
G3 X200.165 Y-299.679 Z6.000 I0.432 J-0.242
G3 X199.669 Y-298.821 Z6.000 I-0.248 J0.429
G3 X199.484 Y-299.008 Z6.000 I0.248 J-0.429
G1 X199.484 Y-299.008 Z5.000
G3 X200.165 Y-299.679 Z5.000 I0.432 J-0.242
G3 X199.669 Y-298.821 Z5.000 I-0.248 J0.429
G3 X199.484 Y-299.008 Z5.000 I0.248 J-0.429
G1 X199.484 Y-299.008 Z4.000
G3 X200.165 Y-299.679 Z4.000 I0.432 J-0.242
G3 X199.669 Y-298.821 Z4.000 I-0.248 J0.429
G3 X199.484 Y-299.008 Z4.000 I0.248 J-0.429
G1 X199.484 Y-299.008 Z3.000
G3 X200.165 Y-299.679 Z3.000 I0.432 J-0.242
G3 X199.669 Y-298.821 Z3.000 I-0.248 J0.429
G3 X199.484 Y-299.008 Z3.000 I0.248 J-0.429
G1 X199.484 Y-299.008 Z2.000
G3 X200.165 Y-299.679 Z2.000 I0.432 J-0.242
G3 X199.669 Y-298.821 Z2.000 I-0.248 J0.429
G3 X199.484 Y-299.008 Z2.000 I0.248 J-0.429
G1 X199.484 Y-299.008 Z1.000
G3 X200.165 Y-299.679 Z1.000 I0.432 J-0.242
G3 X199.669 Y-298.821 Z1.000 I-0.248 J0.429
G3 X199.484 Y-299.008 Z1.000 I0.248 J-0.429
G1 X199.484 Y-299.008 Z0.000
G3 X200.165 Y-299.679 Z0.000 I0.432 J-0.242
G3 X199.669 Y-298.821 Z0.000 I-0.248 J0.429
G3 X199.484 Y-299.008 Z0.000 I0.248 J-0.429
G0 Z18.000
G0 Z18.000
G0 X199.484 Y-299.008
G0 Y-307.500
G0 Y-307.500 Z16.000
G1 X199.484 Y-307.500 Z12.000
G1 X206.500 Y-307.500 Z12.000
G2 X207.000 Y-308.000 Z12.000 I0.000 J-0.500
G1 X207.000 Y-418.000 Z12.000
G2 X176.513 Y-448.500 Z12.000 I-30.500 J0.000
G1 X46.500 Y-448.500 Z12.000
G1 X46.500 Y-588.000 Z12.000
G2 X46.000 Y-588.500 Z12.000 I-0.500 J-0.000
G1 X1.250 Y-588.500 Z12.000
G2 X0.750 Y-588.000 Z12.000 I-0.000 J0.500
G1 X0.750 Y-308.000 Z12.000
G2 X1.250 Y-307.500 Z12.000 I0.500 J0.000
G1 X199.484 Y-307.500 Z12.000
G1 X199.484 Y-307.500 Z11.000
G1 X206.500 Y-307.500 Z11.000
G2 X207.000 Y-308.000 Z11.000 I0.000 J-0.500
G1 X207.000 Y-418.000 Z11.000
G2 X176.513 Y-448.500 Z11.000 I-30.500 J0.000
G1 X46.500 Y-448.500 Z11.000
G1 X46.500 Y-588.000 Z11.000
G2 X46.000 Y-588.500 Z11.000 I-0.500 J-0.000
G1 X1.250 Y-588.500 Z11.000
G2 X0.750 Y-588.000 Z11.000 I-0.000 J0.500
G1 X0.750 Y-308.000 Z11.000
G2 X1.250 Y-307.500 Z11.000 I0.500 J0.000
G1 X199.484 Y-307.500 Z11.000
G1 X199.484 Y-307.500 Z10.000
G1 X206.500 Y-307.500 Z10.000
G2 X207.000 Y-308.000 Z10.000 I0.000 J-0.500
G1 X207.000 Y-418.000 Z10.000
G2 X176.513 Y-448.500 Z10.000 I-30.500 J0.000
G1 X46.500 Y-448.500 Z10.000
G1 X46.500 Y-588.000 Z10.000
G2 X46.000 Y-588.500 Z10.000 I-0.500 J-0.000
G1 X1.250 Y-588.500 Z10.000
G2 X0.750 Y-588.000 Z10.000 I-0.000 J0.500
G1 X0.750 Y-308.000 Z10.000
G2 X1.250 Y-307.500 Z10.000 I0.500 J0.000
G1 X199.484 Y-307.500 Z10.000
G1 X199.484 Y-307.500 Z9.000
G1 X206.500 Y-307.500 Z9.000
G2 X207.000 Y-308.000 Z9.000 I0.000 J-0.500
G1 X207.000 Y-418.000 Z9.000
G2 X176.513 Y-448.500 Z9.000 I-30.500 J0.000
G1 X46.500 Y-448.500 Z9.000
G1 X46.500 Y-588.000 Z9.000
G2 X46.000 Y-588.500 Z9.000 I-0.500 J-0.000
G1 X1.250 Y-588.500 Z9.000
G2 X0.750 Y-588.000 Z9.000 I-0.000 J0.500
G1 X0.750 Y-308.000 Z9.000
G2 X1.250 Y-307.500 Z9.000 I0.500 J0.000
G1 X199.484 Y-307.500 Z9.000
G1 X199.484 Y-307.500 Z8.000
G1 X206.500 Y-307.500 Z8.000
G2 X207.000 Y-308.000 Z8.000 I0.000 J-0.500
G1 X207.000 Y-418.000 Z8.000
G2 X176.513 Y-448.500 Z8.000 I-30.500 J0.000
G1 X46.500 Y-448.500 Z8.000
G1 X46.500 Y-588.000 Z8.000
G2 X46.000 Y-588.500 Z8.000 I-0.500 J-0.000
G1 X1.250 Y-588.500 Z8.000
G2 X0.750 Y-588.000 Z8.000 I-0.000 J0.500
G1 X0.750 Y-308.000 Z8.000
G2 X1.250 Y-307.500 Z8.000 I0.500 J0.000
G1 X199.484 Y-307.500 Z8.000
G1 X199.484 Y-307.500 Z7.000
G1 X206.500 Y-307.500 Z7.000
G2 X207.000 Y-308.000 Z7.000 I0.000 J-0.500
G1 X207.000 Y-418.000 Z7.000
G2 X176.513 Y-448.500 Z7.000 I-30.500 J0.000
G1 X46.500 Y-448.500 Z7.000
G1 X46.500 Y-588.000 Z7.000
G2 X46.000 Y-588.500 Z7.000 I-0.500 J-0.000
G1 X1.250 Y-588.500 Z7.000
G2 X0.750 Y-588.000 Z7.000 I-0.000 J0.500
G1 X0.750 Y-308.000 Z7.000
G2 X1.250 Y-307.500 Z7.000 I0.500 J0.000
G1 X199.484 Y-307.500 Z7.000
G1 X199.484 Y-307.500 Z6.000
G1 X206.500 Y-307.500 Z6.000
G2 X207.000 Y-308.000 Z6.000 I0.000 J-0.500
G1 X207.000 Y-418.000 Z6.000
G2 X176.513 Y-448.500 Z6.000 I-30.500 J0.000
G1 X46.500 Y-448.500 Z6.000
G1 X46.500 Y-588.000 Z6.000
G2 X46.000 Y-588.500 Z6.000 I-0.500 J-0.000
G1 X1.250 Y-588.500 Z6.000
G2 X0.750 Y-588.000 Z6.000 I-0.000 J0.500
G1 X0.750 Y-308.000 Z6.000
G2 X1.250 Y-307.500 Z6.000 I0.500 J0.000
G1 X199.484 Y-307.500 Z6.000
G1 X199.484 Y-307.500 Z5.000
G1 X206.500 Y-307.500 Z5.000
G2 X207.000 Y-308.000 Z5.000 I0.000 J-0.500
G1 X207.000 Y-418.000 Z5.000
G2 X176.513 Y-448.500 Z5.000 I-30.500 J0.000
G1 X46.500 Y-448.500 Z5.000
G1 X46.500 Y-588.000 Z5.000
G2 X46.000 Y-588.500 Z5.000 I-0.500 J-0.000
G1 X1.250 Y-588.500 Z5.000
G2 X0.750 Y-588.000 Z5.000 I-0.000 J0.500
G1 X0.750 Y-308.000 Z5.000
G2 X1.250 Y-307.500 Z5.000 I0.500 J0.000
G1 X199.484 Y-307.500 Z5.000
G1 X199.484 Y-307.500 Z4.000
G1 X206.500 Y-307.500 Z4.000
G2 X207.000 Y-308.000 Z4.000 I0.000 J-0.500
G1 X207.000 Y-418.000 Z4.000
G2 X176.513 Y-448.500 Z4.000 I-30.500 J0.000
G1 X46.500 Y-448.500 Z4.000
G1 X46.500 Y-588.000 Z4.000
G2 X46.000 Y-588.500 Z4.000 I-0.500 J-0.000
G1 X1.250 Y-588.500 Z4.000
G2 X0.750 Y-588.000 Z4.000 I-0.000 J0.500
G1 X0.750 Y-308.000 Z4.000
G2 X1.250 Y-307.500 Z4.000 I0.500 J0.000
G1 X199.484 Y-307.500 Z4.000
G1 X199.484 Y-307.500 Z3.000
G1 X206.500 Y-307.500 Z3.000
G2 X207.000 Y-308.000 Z3.000 I0.000 J-0.500
G1 X207.000 Y-418.000 Z3.000
G2 X176.513 Y-448.500 Z3.000 I-30.500 J0.000
G1 X46.500 Y-448.500 Z3.000
G1 X46.500 Y-588.000 Z3.000
G2 X46.000 Y-588.500 Z3.000 I-0.500 J-0.000
G1 X1.250 Y-588.500 Z3.000
G2 X0.750 Y-588.000 Z3.000 I-0.000 J0.500
G1 X0.750 Y-308.000 Z3.000
G2 X1.250 Y-307.500 Z3.000 I0.500 J0.000
G1 X199.484 Y-307.500 Z3.000
G1 X199.484 Y-307.500 Z2.000
G1 X206.500 Y-307.500 Z2.000
G2 X207.000 Y-308.000 Z2.000 I0.000 J-0.500
G1 X207.000 Y-418.000 Z2.000
G2 X176.513 Y-448.500 Z2.000 I-30.500 J0.000
G1 X46.500 Y-448.500 Z2.000
G1 X46.500 Y-588.000 Z2.000
G2 X46.000 Y-588.500 Z2.000 I-0.500 J-0.000
G1 X1.250 Y-588.500 Z2.000
G2 X0.750 Y-588.000 Z2.000 I-0.000 J0.500
G1 X0.750 Y-308.000 Z2.000
G2 X1.250 Y-307.500 Z2.000 I0.500 J0.000
G1 X199.484 Y-307.500 Z2.000
G1 X199.484 Y-307.500 Z1.000
G1 X206.500 Y-307.500 Z1.000
G2 X207.000 Y-308.000 Z1.000 I0.000 J-0.500
G1 X207.000 Y-418.000 Z1.000
G2 X176.513 Y-448.500 Z1.000 I-30.500 J0.000
G1 X46.500 Y-448.500 Z1.000
G1 X46.500 Y-588.000 Z1.000
G2 X46.000 Y-588.500 Z1.000 I-0.500 J-0.000
G1 X1.250 Y-588.500 Z1.000
G2 X0.750 Y-588.000 Z1.000 I-0.000 J0.500
G1 X0.750 Y-308.000 Z1.000
G2 X1.250 Y-307.500 Z1.000 I0.500 J0.000
G1 X199.484 Y-307.500 Z1.000
G1 X199.484 Y-307.500 Z0.000
G1 X206.500 Y-307.500 Z0.000
G2 X207.000 Y-308.000 Z0.000 I0.000 J-0.500
G1 X207.000 Y-418.000 Z0.000
G2 X176.513 Y-448.500 Z0.000 I-30.500 J0.000
G1 X46.500 Y-448.500 Z0.000
G1 X46.500 Y-588.000 Z0.000
G2 X46.000 Y-588.500 Z0.000 I-0.500 J-0.000
G1 X1.250 Y-588.500 Z0.000
G2 X0.750 Y-588.000 Z0.000 I-0.000 J0.500
G1 X0.750 Y-308.000 Z0.000
G2 X1.250 Y-307.500 Z0.000 I0.500 J0.000
G1 X199.484 Y-307.500 Z0.000
G0 Z18.000
G0 Z18.000
G0 X199.484 Y-307.500
G0 X229.164 Y-336.676
G0 X229.164 Y-336.676 Z16.000
G1 X229.164 Y-336.676 Z12.000
G3 X230.308 Y-338.273 Z12.000 I0.711 J-0.699
G3 X230.773 Y-336.942 Z12.000 I-0.433 J0.898
G3 X229.442 Y-336.477 Z12.000 I-0.898 J-0.433
G3 X229.164 Y-336.676 Z12.000 I0.433 J-0.898
G1 X229.164 Y-336.676 Z11.000
G3 X230.308 Y-338.273 Z11.000 I0.711 J-0.699
G3 X230.773 Y-336.942 Z11.000 I-0.433 J0.898
G3 X229.442 Y-336.477 Z11.000 I-0.898 J-0.433
G3 X229.164 Y-336.676 Z11.000 I0.433 J-0.898
G1 X229.164 Y-336.676 Z10.000
G3 X230.308 Y-338.273 Z10.000 I0.711 J-0.699
G3 X230.773 Y-336.942 Z10.000 I-0.433 J0.898
G3 X229.442 Y-336.477 Z10.000 I-0.898 J-0.433
G3 X229.164 Y-336.676 Z10.000 I0.433 J-0.898
G1 X229.164 Y-336.676 Z9.000
G3 X230.308 Y-338.273 Z9.000 I0.711 J-0.699
G3 X230.773 Y-336.942 Z9.000 I-0.433 J0.898
G3 X229.442 Y-336.477 Z9.000 I-0.898 J-0.433
G3 X229.164 Y-336.676 Z9.000 I0.433 J-0.898
G1 X229.164 Y-336.676 Z8.000
G3 X230.308 Y-338.273 Z8.000 I0.711 J-0.699
G3 X230.773 Y-336.942 Z8.000 I-0.433 J0.898
G3 X229.442 Y-336.477 Z8.000 I-0.898 J-0.433
G3 X229.164 Y-336.676 Z8.000 I0.433 J-0.898
G1 X229.164 Y-336.676 Z7.000
G3 X230.308 Y-338.273 Z7.000 I0.711 J-0.699
G3 X230.773 Y-336.942 Z7.000 I-0.433 J0.898
G3 X229.442 Y-336.477 Z7.000 I-0.898 J-0.433
G3 X229.164 Y-336.676 Z7.000 I0.433 J-0.898
G1 X229.164 Y-336.676 Z6.000
G3 X230.308 Y-338.273 Z6.000 I0.711 J-0.699
G3 X230.773 Y-336.942 Z6.000 I-0.433 J0.898
G3 X229.442 Y-336.477 Z6.000 I-0.898 J-0.433
G3 X229.164 Y-336.676 Z6.000 I0.433 J-0.898
G1 X229.164 Y-336.676 Z5.000
G3 X230.308 Y-338.273 Z5.000 I0.711 J-0.699
G3 X230.773 Y-336.942 Z5.000 I-0.433 J0.898
G3 X229.442 Y-336.477 Z5.000 I-0.898 J-0.433
G3 X229.164 Y-336.676 Z5.000 I0.433 J-0.898
G1 X229.164 Y-336.676 Z4.000
G3 X230.308 Y-338.273 Z4.000 I0.711 J-0.699
G3 X230.773 Y-336.942 Z4.000 I-0.433 J0.898
G3 X229.442 Y-336.477 Z4.000 I-0.898 J-0.433
G3 X229.164 Y-336.676 Z4.000 I0.433 J-0.898
G1 X229.164 Y-336.676 Z3.000
G3 X230.308 Y-338.273 Z3.000 I0.711 J-0.699
G3 X230.773 Y-336.942 Z3.000 I-0.433 J0.898
G3 X229.442 Y-336.477 Z3.000 I-0.898 J-0.433
G3 X229.164 Y-336.676 Z3.000 I0.433 J-0.898
G1 X229.164 Y-336.676 Z2.000
G3 X230.308 Y-338.273 Z2.000 I0.711 J-0.699
G3 X230.773 Y-336.942 Z2.000 I-0.433 J0.898
G3 X229.442 Y-336.477 Z2.000 I-0.898 J-0.433
G3 X229.164 Y-336.676 Z2.000 I0.433 J-0.898
G1 X229.164 Y-336.676 Z1.000
G3 X230.308 Y-338.273 Z1.000 I0.711 J-0.699
G3 X230.773 Y-336.942 Z1.000 I-0.433 J0.898
G3 X229.442 Y-336.477 Z1.000 I-0.898 J-0.433
G3 X229.164 Y-336.676 Z1.000 I0.433 J-0.898
G1 X229.164 Y-336.676 Z0.000
G3 X230.308 Y-338.273 Z0.000 I0.711 J-0.699
G3 X230.773 Y-336.942 Z0.000 I-0.433 J0.898
G3 X229.442 Y-336.477 Z0.000 I-0.898 J-0.433
G3 X229.164 Y-336.676 Z0.000 I0.433 J-0.898
G0 Z18.000
G0 Z18.000
G0 X229.164 Y-336.676
G0 X207.000
G0 X207.000 Z16.000
G1 X207.000 Y-336.676 Z12.000
G1 X207.000 Y-315.000 Z12.000
G2 X207.500 Y-314.500 Z12.000 I0.500 J0.000
G1 X252.250 Y-314.500 Z12.000
G2 X252.750 Y-315.000 Z12.000 I0.000 J-0.500
G1 X252.750 Y-595.000 Z12.000
G2 X252.250 Y-595.500 Z12.000 I-0.500 J-0.000
G1 X47.000 Y-595.500 Z12.000
G2 X46.500 Y-595.000 Z12.000 I-0.000 J0.500
G1 X46.500 Y-485.000 Z12.000
G2 X76.987 Y-454.500 Z12.000 I30.500 J-0.000
G1 X207.000 Y-454.500 Z12.000
G1 X207.000 Y-336.676 Z12.000
G1 X207.000 Y-336.676 Z11.000
G1 X207.000 Y-315.000 Z11.000
G2 X207.500 Y-314.500 Z11.000 I0.500 J0.000
G1 X252.250 Y-314.500 Z11.000
G2 X252.750 Y-315.000 Z11.000 I0.000 J-0.500
G1 X252.750 Y-595.000 Z11.000
G2 X252.250 Y-595.500 Z11.000 I-0.500 J-0.000
G1 X47.000 Y-595.500 Z11.000
G2 X46.500 Y-595.000 Z11.000 I-0.000 J0.500
G1 X46.500 Y-485.000 Z11.000
G2 X76.987 Y-454.500 Z11.000 I30.500 J-0.000
G1 X207.000 Y-454.500 Z11.000
G1 X207.000 Y-336.676 Z11.000
G1 X207.000 Y-336.676 Z10.000
G1 X207.000 Y-315.000 Z10.000
G2 X207.500 Y-314.500 Z10.000 I0.500 J0.000
G1 X252.250 Y-314.500 Z10.000
G2 X252.750 Y-315.000 Z10.000 I0.000 J-0.500
G1 X252.750 Y-595.000 Z10.000
G2 X252.250 Y-595.500 Z10.000 I-0.500 J-0.000
G1 X47.000 Y-595.500 Z10.000
G2 X46.500 Y-595.000 Z10.000 I-0.000 J0.500
G1 X46.500 Y-485.000 Z10.000
G2 X76.987 Y-454.500 Z10.000 I30.500 J-0.000
G1 X207.000 Y-454.500 Z10.000
G1 X207.000 Y-336.676 Z10.000
G1 X207.000 Y-336.676 Z9.000
G1 X207.000 Y-315.000 Z9.000
G2 X207.500 Y-314.500 Z9.000 I0.500 J0.000
G1 X252.250 Y-314.500 Z9.000
G2 X252.750 Y-315.000 Z9.000 I0.000 J-0.500
G1 X252.750 Y-595.000 Z9.000
G2 X252.250 Y-595.500 Z9.000 I-0.500 J-0.000
G1 X47.000 Y-595.500 Z9.000
G2 X46.500 Y-595.000 Z9.000 I-0.000 J0.500
G1 X46.500 Y-485.000 Z9.000
G2 X76.987 Y-454.500 Z9.000 I30.500 J-0.000
G1 X207.000 Y-454.500 Z9.000
G1 X207.000 Y-336.676 Z9.000
G1 X207.000 Y-336.676 Z8.000
G1 X207.000 Y-315.000 Z8.000
G2 X207.500 Y-314.500 Z8.000 I0.500 J0.000
G1 X252.250 Y-314.500 Z8.000
G2 X252.750 Y-315.000 Z8.000 I0.000 J-0.500
G1 X252.750 Y-595.000 Z8.000
G2 X252.250 Y-595.500 Z8.000 I-0.500 J-0.000
G1 X47.000 Y-595.500 Z8.000
G2 X46.500 Y-595.000 Z8.000 I-0.000 J0.500
G1 X46.500 Y-485.000 Z8.000
G2 X76.987 Y-454.500 Z8.000 I30.500 J-0.000
G1 X207.000 Y-454.500 Z8.000
G1 X207.000 Y-336.676 Z8.000
G1 X207.000 Y-336.676 Z7.000
G1 X207.000 Y-315.000 Z7.000
G2 X207.500 Y-314.500 Z7.000 I0.500 J0.000
G1 X252.250 Y-314.500 Z7.000
G2 X252.750 Y-315.000 Z7.000 I0.000 J-0.500
G1 X252.750 Y-595.000 Z7.000
G2 X252.250 Y-595.500 Z7.000 I-0.500 J-0.000
G1 X47.000 Y-595.500 Z7.000
G2 X46.500 Y-595.000 Z7.000 I-0.000 J0.500
G1 X46.500 Y-485.000 Z7.000
G2 X76.987 Y-454.500 Z7.000 I30.500 J-0.000
G1 X207.000 Y-454.500 Z7.000
G1 X207.000 Y-336.676 Z7.000
G1 X207.000 Y-336.676 Z6.000
G1 X207.000 Y-315.000 Z6.000
G2 X207.500 Y-314.500 Z6.000 I0.500 J0.000
G1 X252.250 Y-314.500 Z6.000
G2 X252.750 Y-315.000 Z6.000 I0.000 J-0.500
G1 X252.750 Y-595.000 Z6.000
G2 X252.250 Y-595.500 Z6.000 I-0.500 J-0.000
G1 X47.000 Y-595.500 Z6.000
G2 X46.500 Y-595.000 Z6.000 I-0.000 J0.500
G1 X46.500 Y-485.000 Z6.000
G2 X76.987 Y-454.500 Z6.000 I30.500 J-0.000
G1 X207.000 Y-454.500 Z6.000
G1 X207.000 Y-336.676 Z6.000
G1 X207.000 Y-336.676 Z5.000
G1 X207.000 Y-315.000 Z5.000
G2 X207.500 Y-314.500 Z5.000 I0.500 J0.000
G1 X252.250 Y-314.500 Z5.000
G2 X252.750 Y-315.000 Z5.000 I0.000 J-0.500
G1 X252.750 Y-595.000 Z5.000
G2 X252.250 Y-595.500 Z5.000 I-0.500 J-0.000
G1 X47.000 Y-595.500 Z5.000
G2 X46.500 Y-595.000 Z5.000 I-0.000 J0.500
G1 X46.500 Y-485.000 Z5.000
G2 X76.987 Y-454.500 Z5.000 I30.500 J-0.000
G1 X207.000 Y-454.500 Z5.000
G1 X207.000 Y-336.676 Z5.000
G1 X207.000 Y-336.676 Z4.000
G1 X207.000 Y-315.000 Z4.000
G2 X207.500 Y-314.500 Z4.000 I0.500 J0.000
G1 X252.250 Y-314.500 Z4.000
G2 X252.750 Y-315.000 Z4.000 I0.000 J-0.500
G1 X252.750 Y-595.000 Z4.000
G2 X252.250 Y-595.500 Z4.000 I-0.500 J-0.000
G1 X47.000 Y-595.500 Z4.000
G2 X46.500 Y-595.000 Z4.000 I-0.000 J0.500
G1 X46.500 Y-485.000 Z4.000
G2 X76.987 Y-454.500 Z4.000 I30.500 J-0.000
G1 X207.000 Y-454.500 Z4.000
G1 X207.000 Y-336.676 Z4.000
G1 X207.000 Y-336.676 Z3.000
G1 X207.000 Y-315.000 Z3.000
G2 X207.500 Y-314.500 Z3.000 I0.500 J0.000
G1 X252.250 Y-314.500 Z3.000
G2 X252.750 Y-315.000 Z3.000 I0.000 J-0.500
G1 X252.750 Y-595.000 Z3.000
G2 X252.250 Y-595.500 Z3.000 I-0.500 J-0.000
G1 X47.000 Y-595.500 Z3.000
G2 X46.500 Y-595.000 Z3.000 I-0.000 J0.500
G1 X46.500 Y-485.000 Z3.000
G2 X76.987 Y-454.500 Z3.000 I30.500 J-0.000
G1 X207.000 Y-454.500 Z3.000
G1 X207.000 Y-336.676 Z3.000
G1 X207.000 Y-336.676 Z2.000
G1 X207.000 Y-315.000 Z2.000
G2 X207.500 Y-314.500 Z2.000 I0.500 J0.000
G1 X252.250 Y-314.500 Z2.000
G2 X252.750 Y-315.000 Z2.000 I0.000 J-0.500
G1 X252.750 Y-595.000 Z2.000
G2 X252.250 Y-595.500 Z2.000 I-0.500 J-0.000
G1 X47.000 Y-595.500 Z2.000
G2 X46.500 Y-595.000 Z2.000 I-0.000 J0.500
G1 X46.500 Y-485.000 Z2.000
G2 X76.987 Y-454.500 Z2.000 I30.500 J-0.000
G1 X207.000 Y-454.500 Z2.000
G1 X207.000 Y-336.676 Z2.000
G1 X207.000 Y-336.676 Z1.000
G1 X207.000 Y-315.000 Z1.000
G2 X207.500 Y-314.500 Z1.000 I0.500 J0.000
G1 X252.250 Y-314.500 Z1.000
G2 X252.750 Y-315.000 Z1.000 I0.000 J-0.500
G1 X252.750 Y-595.000 Z1.000
G2 X252.250 Y-595.500 Z1.000 I-0.500 J-0.000
G1 X47.000 Y-595.500 Z1.000
G2 X46.500 Y-595.000 Z1.000 I-0.000 J0.500
G1 X46.500 Y-485.000 Z1.000
G2 X76.987 Y-454.500 Z1.000 I30.500 J-0.000
G1 X207.000 Y-454.500 Z1.000
G1 X207.000 Y-336.676 Z1.000
G1 X207.000 Y-336.676 Z0.000
G1 X207.000 Y-315.000 Z0.000
G2 X207.500 Y-314.500 Z0.000 I0.500 J0.000
G1 X252.250 Y-314.500 Z0.000
G2 X252.750 Y-315.000 Z0.000 I0.000 J-0.500
G1 X252.750 Y-595.000 Z0.000
G2 X252.250 Y-595.500 Z0.000 I-0.500 J-0.000
G1 X47.000 Y-595.500 Z0.000
G2 X46.500 Y-595.000 Z0.000 I-0.000 J0.500
G1 X46.500 Y-485.000 Z0.000
G2 X76.987 Y-454.500 Z0.000 I30.500 J-0.000
G1 X207.000 Y-454.500 Z0.000
G1 X207.000 Y-336.676 Z0.000
G0 Z18.000
G0 Z18.000
G0 X207.000 Y-336.676
G0 X269.025 Y-299.505
G0 X269.025 Y-299.505 Z16.000
G1 X269.025 Y-299.505 Z12.000
G3 X269.698 Y-299.679 Z12.000 I0.425 J0.255
G3 X269.202 Y-298.821 Z12.000 I-0.248 J0.429
G3 X269.025 Y-299.505 Z12.000 I0.248 J-0.429
G1 X269.025 Y-299.505 Z11.000
G3 X269.698 Y-299.679 Z11.000 I0.425 J0.255
G3 X269.202 Y-298.821 Z11.000 I-0.248 J0.429
G3 X269.025 Y-299.505 Z11.000 I0.248 J-0.429
G1 X269.025 Y-299.505 Z10.000
G3 X269.698 Y-299.679 Z10.000 I0.425 J0.255
G3 X269.202 Y-298.821 Z10.000 I-0.248 J0.429
G3 X269.025 Y-299.505 Z10.000 I0.248 J-0.429
G1 X269.025 Y-299.505 Z9.000
G3 X269.698 Y-299.679 Z9.000 I0.425 J0.255
G3 X269.202 Y-298.821 Z9.000 I-0.248 J0.429
G3 X269.025 Y-299.505 Z9.000 I0.248 J-0.429
G1 X269.025 Y-299.505 Z8.000
G3 X269.698 Y-299.679 Z8.000 I0.425 J0.255
G3 X269.202 Y-298.821 Z8.000 I-0.248 J0.429
G3 X269.025 Y-299.505 Z8.000 I0.248 J-0.429
G1 X269.025 Y-299.505 Z7.000
G3 X269.698 Y-299.679 Z7.000 I0.425 J0.255
G3 X269.202 Y-298.821 Z7.000 I-0.248 J0.429
G3 X269.025 Y-299.505 Z7.000 I0.248 J-0.429
G1 X269.025 Y-299.505 Z6.000
G3 X269.698 Y-299.679 Z6.000 I0.425 J0.255
G3 X269.202 Y-298.821 Z6.000 I-0.248 J0.429
G3 X269.025 Y-299.505 Z6.000 I0.248 J-0.429
G1 X269.025 Y-299.505 Z5.000
G3 X269.698 Y-299.679 Z5.000 I0.425 J0.255
G3 X269.202 Y-298.821 Z5.000 I-0.248 J0.429
G3 X269.025 Y-299.505 Z5.000 I0.248 J-0.429
G1 X269.025 Y-299.505 Z4.000
G3 X269.698 Y-299.679 Z4.000 I0.425 J0.255
G3 X269.202 Y-298.821 Z4.000 I-0.248 J0.429
G3 X269.025 Y-299.505 Z4.000 I0.248 J-0.429
G1 X269.025 Y-299.505 Z3.000
G3 X269.698 Y-299.679 Z3.000 I0.425 J0.255
G3 X269.202 Y-298.821 Z3.000 I-0.248 J0.429
G3 X269.025 Y-299.505 Z3.000 I0.248 J-0.429
G1 X269.025 Y-299.505 Z2.000
G3 X269.698 Y-299.679 Z2.000 I0.425 J0.255
G3 X269.202 Y-298.821 Z2.000 I-0.248 J0.429
G3 X269.025 Y-299.505 Z2.000 I0.248 J-0.429
G1 X269.025 Y-299.505 Z1.000
G3 X269.698 Y-299.679 Z1.000 I0.425 J0.255
G3 X269.202 Y-298.821 Z1.000 I-0.248 J0.429
G3 X269.025 Y-299.505 Z1.000 I0.248 J-0.429
G1 X269.025 Y-299.505 Z0.000
G3 X269.698 Y-299.679 Z0.000 I0.425 J0.255
G3 X269.202 Y-298.821 Z0.000 I-0.248 J0.429
G3 X269.025 Y-299.505 Z0.000 I0.248 J-0.429
G0 Z18.000
G0 Z18.000
G0 X269.025 Y-299.505
G0 X292.903 Y-275.204
G0 X292.903 Y-275.204 Z16.000
G1 X292.903 Y-275.204 Z12.000
G3 X293.498 Y-275.279 Z12.000 I0.347 J0.354
G3 X293.679 Y-274.602 Z12.000 I-0.248 J0.429
G3 X293.002 Y-274.421 Z12.000 I-0.429 J-0.248
G3 X292.903 Y-275.204 Z12.000 I0.248 J-0.429
G1 X292.903 Y-275.204 Z11.000
G3 X293.498 Y-275.279 Z11.000 I0.347 J0.354
G3 X293.679 Y-274.602 Z11.000 I-0.248 J0.429
G3 X293.002 Y-274.421 Z11.000 I-0.429 J-0.248
G3 X292.903 Y-275.204 Z11.000 I0.248 J-0.429
G1 X292.903 Y-275.204 Z10.000
G3 X293.498 Y-275.279 Z10.000 I0.347 J0.354
G3 X293.679 Y-274.602 Z10.000 I-0.248 J0.429
G3 X293.002 Y-274.421 Z10.000 I-0.429 J-0.248
G3 X292.903 Y-275.204 Z10.000 I0.248 J-0.429
G1 X292.903 Y-275.204 Z9.000
G3 X293.498 Y-275.279 Z9.000 I0.347 J0.354
G3 X293.679 Y-274.602 Z9.000 I-0.248 J0.429
G3 X293.002 Y-274.421 Z9.000 I-0.429 J-0.248
G3 X292.903 Y-275.204 Z9.000 I0.248 J-0.429
G1 X292.903 Y-275.204 Z8.000
G3 X293.498 Y-275.279 Z8.000 I0.347 J0.354
G3 X293.679 Y-274.602 Z8.000 I-0.248 J0.429
G3 X293.002 Y-274.421 Z8.000 I-0.429 J-0.248
G3 X292.903 Y-275.204 Z8.000 I0.248 J-0.429
G1 X292.903 Y-275.204 Z7.000
G3 X293.498 Y-275.279 Z7.000 I0.347 J0.354
G3 X293.679 Y-274.602 Z7.000 I-0.248 J0.429
G3 X293.002 Y-274.421 Z7.000 I-0.429 J-0.248
G3 X292.903 Y-275.204 Z7.000 I0.248 J-0.429
G1 X292.903 Y-275.204 Z6.000
G3 X293.498 Y-275.279 Z6.000 I0.347 J0.354
G3 X293.679 Y-274.602 Z6.000 I-0.248 J0.429
G3 X293.002 Y-274.421 Z6.000 I-0.429 J-0.248
G3 X292.903 Y-275.204 Z6.000 I0.248 J-0.429
G1 X292.903 Y-275.204 Z5.000
G3 X293.498 Y-275.279 Z5.000 I0.347 J0.354
G3 X293.679 Y-274.602 Z5.000 I-0.248 J0.429
G3 X293.002 Y-274.421 Z5.000 I-0.429 J-0.248
G3 X292.903 Y-275.204 Z5.000 I0.248 J-0.429
G1 X292.903 Y-275.204 Z4.000
G3 X293.498 Y-275.279 Z4.000 I0.347 J0.354
G3 X293.679 Y-274.602 Z4.000 I-0.248 J0.429
G3 X293.002 Y-274.421 Z4.000 I-0.429 J-0.248
G3 X292.903 Y-275.204 Z4.000 I0.248 J-0.429
G1 X292.903 Y-275.204 Z3.000
G3 X293.498 Y-275.279 Z3.000 I0.347 J0.354
G3 X293.679 Y-274.602 Z3.000 I-0.248 J0.429
G3 X293.002 Y-274.421 Z3.000 I-0.429 J-0.248
G3 X292.903 Y-275.204 Z3.000 I0.248 J-0.429
G1 X292.903 Y-275.204 Z2.000
G3 X293.498 Y-275.279 Z2.000 I0.347 J0.354
G3 X293.679 Y-274.602 Z2.000 I-0.248 J0.429
G3 X293.002 Y-274.421 Z2.000 I-0.429 J-0.248
G3 X292.903 Y-275.204 Z2.000 I0.248 J-0.429
G1 X292.903 Y-275.204 Z1.000
G3 X293.498 Y-275.279 Z1.000 I0.347 J0.354
G3 X293.679 Y-274.602 Z1.000 I-0.248 J0.429
G3 X293.002 Y-274.421 Z1.000 I-0.429 J-0.248
G3 X292.903 Y-275.204 Z1.000 I0.248 J-0.429
G1 X292.903 Y-275.204 Z0.000
G3 X293.498 Y-275.279 Z0.000 I0.347 J0.354
G3 X293.679 Y-274.602 Z0.000 I-0.248 J0.429
G3 X293.002 Y-274.421 Z0.000 I-0.429 J-0.248
G3 X292.903 Y-275.204 Z0.000 I0.248 J-0.429
G0 Z18.000
G0 Z18.000
G0 X292.903 Y-275.204
G0 X319.106 Y-273.497
G0 X319.106 Y-273.497 Z16.000
G1 X319.106 Y-273.497 Z12.000
G3 X321.173 Y-274.784 Z12.000 I1.494 J0.097
G3 X320.027 Y-272.016 Z12.000 I-0.573 J1.384
G3 X319.106 Y-273.497 Z12.000 I0.573 J-1.384
G1 X319.106 Y-273.497 Z11.000
G3 X321.173 Y-274.784 Z11.000 I1.494 J0.097
G3 X320.027 Y-272.016 Z11.000 I-0.573 J1.384
G3 X319.106 Y-273.497 Z11.000 I0.573 J-1.384
G1 X319.106 Y-273.497 Z10.000
G3 X321.173 Y-274.784 Z10.000 I1.494 J0.097
G3 X320.027 Y-272.016 Z10.000 I-0.573 J1.384
G3 X319.106 Y-273.497 Z10.000 I0.573 J-1.384
G1 X319.106 Y-273.497 Z9.000
G3 X321.173 Y-274.784 Z9.000 I1.494 J0.097
G3 X320.027 Y-272.016 Z9.000 I-0.573 J1.384
G3 X319.106 Y-273.497 Z9.000 I0.573 J-1.384
G1 X319.106 Y-273.497 Z8.000
G3 X321.173 Y-274.784 Z8.000 I1.494 J0.097
G3 X320.027 Y-272.016 Z8.000 I-0.573 J1.384
G3 X319.106 Y-273.497 Z8.000 I0.573 J-1.384
G1 X319.106 Y-273.497 Z7.000
G3 X321.173 Y-274.784 Z7.000 I1.494 J0.097
G3 X320.027 Y-272.016 Z7.000 I-0.573 J1.384
G3 X319.106 Y-273.497 Z7.000 I0.573 J-1.384
G1 X319.106 Y-273.497 Z6.000
G3 X321.173 Y-274.784 Z6.000 I1.494 J0.097
G3 X320.027 Y-272.016 Z6.000 I-0.573 J1.384
G3 X319.106 Y-273.497 Z6.000 I0.573 J-1.384
G1 X319.106 Y-273.497 Z5.000
G3 X321.173 Y-274.784 Z5.000 I1.494 J0.097
G3 X320.027 Y-272.016 Z5.000 I-0.573 J1.384
G3 X319.106 Y-273.497 Z5.000 I0.573 J-1.384
G1 X319.106 Y-273.497 Z4.000
G3 X321.173 Y-274.784 Z4.000 I1.494 J0.097
G3 X320.027 Y-272.016 Z4.000 I-0.573 J1.384
G3 X319.106 Y-273.497 Z4.000 I0.573 J-1.384
G1 X319.106 Y-273.497 Z3.000
G3 X321.173 Y-274.784 Z3.000 I1.494 J0.097
G3 X320.027 Y-272.016 Z3.000 I-0.573 J1.384
G3 X319.106 Y-273.497 Z3.000 I0.573 J-1.384
G1 X319.106 Y-273.497 Z2.000
G3 X321.173 Y-274.784 Z2.000 I1.494 J0.097
G3 X320.027 Y-272.016 Z2.000 I-0.573 J1.384
G3 X319.106 Y-273.497 Z2.000 I0.573 J-1.384
G1 X319.106 Y-273.497 Z1.000
G3 X321.173 Y-274.784 Z1.000 I1.494 J0.097
G3 X320.027 Y-272.016 Z1.000 I-0.573 J1.384
G3 X319.106 Y-273.497 Z1.000 I0.573 J-1.384
G1 X319.106 Y-273.497 Z0.000
G3 X321.173 Y-274.784 Z0.000 I1.494 J0.097
G3 X320.027 Y-272.016 Z0.000 I-0.573 J1.384
G3 X319.106 Y-273.497 Z0.000 I0.573 J-1.384
G0 Z18.000
G0 Z18.000
G0 X319.106 Y-273.497
G0 X320.507 Y-295.905
G0 X320.507 Y-295.905 Z16.000
G1 X320.507 Y-295.905 Z12.000
G3 X320.027 Y-296.016 Z12.000 I0.093 J-1.495
G3 X321.173 Y-298.784 Z12.000 I0.573 J-1.384
G3 X320.507 Y-295.905 Z12.000 I-0.573 J1.384
G1 X320.507 Y-295.905 Z11.000
G3 X320.027 Y-296.016 Z11.000 I0.093 J-1.495
G3 X321.173 Y-298.784 Z11.000 I0.573 J-1.384
G3 X320.507 Y-295.905 Z11.000 I-0.573 J1.384
G1 X320.507 Y-295.905 Z10.000
G3 X320.027 Y-296.016 Z10.000 I0.093 J-1.495
G3 X321.173 Y-298.784 Z10.000 I0.573 J-1.384
G3 X320.507 Y-295.905 Z10.000 I-0.573 J1.384
G1 X320.507 Y-295.905 Z9.000
G3 X320.027 Y-296.016 Z9.000 I0.093 J-1.495
G3 X321.173 Y-298.784 Z9.000 I0.573 J-1.384
G3 X320.507 Y-295.905 Z9.000 I-0.573 J1.384
G1 X320.507 Y-295.905 Z8.000
G3 X320.027 Y-296.016 Z8.000 I0.093 J-1.495
G3 X321.173 Y-298.784 Z8.000 I0.573 J-1.384
G3 X320.507 Y-295.905 Z8.000 I-0.573 J1.384
G1 X320.507 Y-295.905 Z7.000
G3 X320.027 Y-296.016 Z7.000 I0.093 J-1.495
G3 X321.173 Y-298.784 Z7.000 I0.573 J-1.384
G3 X320.507 Y-295.905 Z7.000 I-0.573 J1.384
G1 X320.507 Y-295.905 Z6.000
G3 X320.027 Y-296.016 Z6.000 I0.093 J-1.495
G3 X321.173 Y-298.784 Z6.000 I0.573 J-1.384
G3 X320.507 Y-295.905 Z6.000 I-0.573 J1.384
G1 X320.507 Y-295.905 Z5.000
G3 X320.027 Y-296.016 Z5.000 I0.093 J-1.495
G3 X321.173 Y-298.784 Z5.000 I0.573 J-1.384
G3 X320.507 Y-295.905 Z5.000 I-0.573 J1.384
G1 X320.507 Y-295.905 Z4.000
G3 X320.027 Y-296.016 Z4.000 I0.093 J-1.495
G3 X321.173 Y-298.784 Z4.000 I0.573 J-1.384
G3 X320.507 Y-295.905 Z4.000 I-0.573 J1.384
G1 X320.507 Y-295.905 Z3.000
G3 X320.027 Y-296.016 Z3.000 I0.093 J-1.495
G3 X321.173 Y-298.784 Z3.000 I0.573 J-1.384
G3 X320.507 Y-295.905 Z3.000 I-0.573 J1.384
G1 X320.507 Y-295.905 Z2.000
G3 X320.027 Y-296.016 Z2.000 I0.093 J-1.495
G3 X321.173 Y-298.784 Z2.000 I0.573 J-1.384
G3 X320.507 Y-295.905 Z2.000 I-0.573 J1.384
G1 X320.507 Y-295.905 Z1.000
G3 X320.027 Y-296.016 Z1.000 I0.093 J-1.495
G3 X321.173 Y-298.784 Z1.000 I0.573 J-1.384
G3 X320.507 Y-295.905 Z1.000 I-0.573 J1.384
G1 X320.507 Y-295.905 Z0.000
G3 X320.027 Y-296.016 Z0.000 I0.093 J-1.495
G3 X321.173 Y-298.784 Z0.000 I0.573 J-1.384
G3 X320.507 Y-295.905 Z0.000 I-0.573 J1.384
G0 Z18.000
G0 Z18.000
G0 X320.507 Y-295.905
G0 X315.372 Y-340.246
G0 X315.372 Y-340.246 Z16.000
G1 X315.372 Y-340.246 Z12.000
G3 X314.627 Y-340.350 Z12.000 I-0.172 J-1.488
G3 X315.773 Y-343.117 Z12.000 I0.573 J-1.384
G3 X315.372 Y-340.246 Z12.000 I-0.573 J1.384
G1 X315.372 Y-340.246 Z11.000
G3 X314.627 Y-340.350 Z11.000 I-0.172 J-1.488
G3 X315.773 Y-343.117 Z11.000 I0.573 J-1.384
G3 X315.372 Y-340.246 Z11.000 I-0.573 J1.384
G1 X315.372 Y-340.246 Z10.000
G3 X314.627 Y-340.350 Z10.000 I-0.172 J-1.488
G3 X315.773 Y-343.117 Z10.000 I0.573 J-1.384
G3 X315.372 Y-340.246 Z10.000 I-0.573 J1.384
G1 X315.372 Y-340.246 Z9.000
G3 X314.627 Y-340.350 Z9.000 I-0.172 J-1.488
G3 X315.773 Y-343.117 Z9.000 I0.573 J-1.384
G3 X315.372 Y-340.246 Z9.000 I-0.573 J1.384
G1 X315.372 Y-340.246 Z8.000
G3 X314.627 Y-340.350 Z8.000 I-0.172 J-1.488
G3 X315.773 Y-343.117 Z8.000 I0.573 J-1.384
G3 X315.372 Y-340.246 Z8.000 I-0.573 J1.384
G1 X315.372 Y-340.246 Z7.000
G3 X314.627 Y-340.350 Z7.000 I-0.172 J-1.488
G3 X315.773 Y-343.117 Z7.000 I0.573 J-1.384
G3 X315.372 Y-340.246 Z7.000 I-0.573 J1.384
G1 X315.372 Y-340.246 Z6.000
G3 X314.627 Y-340.350 Z6.000 I-0.172 J-1.488
G3 X315.773 Y-343.117 Z6.000 I0.573 J-1.384
G3 X315.372 Y-340.246 Z6.000 I-0.573 J1.384
G1 X315.372 Y-340.246 Z5.000
G3 X314.627 Y-340.350 Z5.000 I-0.172 J-1.488
G3 X315.773 Y-343.117 Z5.000 I0.573 J-1.384
G3 X315.372 Y-340.246 Z5.000 I-0.573 J1.384
G1 X315.372 Y-340.246 Z4.000
G3 X314.627 Y-340.350 Z4.000 I-0.172 J-1.488
G3 X315.773 Y-343.117 Z4.000 I0.573 J-1.384
G3 X315.372 Y-340.246 Z4.000 I-0.573 J1.384
G1 X315.372 Y-340.246 Z3.000
G3 X314.627 Y-340.350 Z3.000 I-0.172 J-1.488
G3 X315.773 Y-343.117 Z3.000 I0.573 J-1.384
G3 X315.372 Y-340.246 Z3.000 I-0.573 J1.384
G1 X315.372 Y-340.246 Z2.000
G3 X314.627 Y-340.350 Z2.000 I-0.172 J-1.488
G3 X315.773 Y-343.117 Z2.000 I0.573 J-1.384
G3 X315.372 Y-340.246 Z2.000 I-0.573 J1.384
G1 X315.372 Y-340.246 Z1.000
G3 X314.627 Y-340.350 Z1.000 I-0.172 J-1.488
G3 X315.773 Y-343.117 Z1.000 I0.573 J-1.384
G3 X315.372 Y-340.246 Z1.000 I-0.573 J1.384
G1 X315.372 Y-340.246 Z0.000
G3 X314.627 Y-340.350 Z0.000 I-0.172 J-1.488
G3 X315.773 Y-343.117 Z0.000 I0.573 J-1.384
G3 X315.372 Y-340.246 Z0.000 I-0.573 J1.384
G0 Z18.000
G0 Z18.000
G0 X315.372 Y-340.246
G0 X271.497 Y-341.684
G0 X271.497 Y-341.684 Z16.000
G1 X271.497 Y-341.684 Z12.000
G3 X269.427 Y-340.350 Z12.000 I-1.497 J-0.049
G3 X270.573 Y-343.117 Z12.000 I0.573 J-1.384
G3 X271.497 Y-341.684 Z12.000 I-0.573 J1.384
G1 X271.497 Y-341.684 Z11.000
G3 X269.427 Y-340.350 Z11.000 I-1.497 J-0.049
G3 X270.573 Y-343.117 Z11.000 I0.573 J-1.384
G3 X271.497 Y-341.684 Z11.000 I-0.573 J1.384
G1 X271.497 Y-341.684 Z10.000
G3 X269.427 Y-340.350 Z10.000 I-1.497 J-0.049
G3 X270.573 Y-343.117 Z10.000 I0.573 J-1.384
G3 X271.497 Y-341.684 Z10.000 I-0.573 J1.384
G1 X271.497 Y-341.684 Z9.000
G3 X269.427 Y-340.350 Z9.000 I-1.497 J-0.049
G3 X270.573 Y-343.117 Z9.000 I0.573 J-1.384
G3 X271.497 Y-341.684 Z9.000 I-0.573 J1.384
G1 X271.497 Y-341.684 Z8.000
G3 X269.427 Y-340.350 Z8.000 I-1.497 J-0.049
G3 X270.573 Y-343.117 Z8.000 I0.573 J-1.384
G3 X271.497 Y-341.684 Z8.000 I-0.573 J1.384
G1 X271.497 Y-341.684 Z7.000
G3 X269.427 Y-340.350 Z7.000 I-1.497 J-0.049
G3 X270.573 Y-343.117 Z7.000 I0.573 J-1.384
G3 X271.497 Y-341.684 Z7.000 I-0.573 J1.384
G1 X271.497 Y-341.684 Z6.000
G3 X269.427 Y-340.350 Z6.000 I-1.497 J-0.049
G3 X270.573 Y-343.117 Z6.000 I0.573 J-1.384
G3 X271.497 Y-341.684 Z6.000 I-0.573 J1.384
G1 X271.497 Y-341.684 Z5.000
G3 X269.427 Y-340.350 Z5.000 I-1.497 J-0.049
G3 X270.573 Y-343.117 Z5.000 I0.573 J-1.384
G3 X271.497 Y-341.684 Z5.000 I-0.573 J1.384
G1 X271.497 Y-341.684 Z4.000
G3 X269.427 Y-340.350 Z4.000 I-1.497 J-0.049
G3 X270.573 Y-343.117 Z4.000 I0.573 J-1.384
G3 X271.497 Y-341.684 Z4.000 I-0.573 J1.384
G1 X271.497 Y-341.684 Z3.000
G3 X269.427 Y-340.350 Z3.000 I-1.497 J-0.049
G3 X270.573 Y-343.117 Z3.000 I0.573 J-1.384
G3 X271.497 Y-341.684 Z3.000 I-0.573 J1.384
G1 X271.497 Y-341.684 Z2.000
G3 X269.427 Y-340.350 Z2.000 I-1.497 J-0.049
G3 X270.573 Y-343.117 Z2.000 I0.573 J-1.384
G3 X271.497 Y-341.684 Z2.000 I-0.573 J1.384
G1 X271.497 Y-341.684 Z1.000
G3 X269.427 Y-340.350 Z1.000 I-1.497 J-0.049
G3 X270.573 Y-343.117 Z1.000 I0.573 J-1.384
G3 X271.497 Y-341.684 Z1.000 I-0.573 J1.384
G1 X271.497 Y-341.684 Z0.000
G3 X269.427 Y-340.350 Z0.000 I-1.497 J-0.049
G3 X270.573 Y-343.117 Z0.000 I0.573 J-1.384
G3 X271.497 Y-341.684 Z0.000 I-0.573 J1.384
G0 Z18.000
G0 Z18.000
G0 X271.497 Y-341.684
G0 X270.048 Y-386.903
G0 X270.048 Y-386.903 Z16.000
G1 X270.048 Y-386.903 Z12.000
G3 X269.427 Y-387.016 Z12.000 I-0.048 J-1.497
G3 X270.573 Y-389.784 Z12.000 I0.573 J-1.384
G3 X270.048 Y-386.903 Z12.000 I-0.573 J1.384
G1 X270.048 Y-386.903 Z11.000
G3 X269.427 Y-387.016 Z11.000 I-0.048 J-1.497
G3 X270.573 Y-389.784 Z11.000 I0.573 J-1.384
G3 X270.048 Y-386.903 Z11.000 I-0.573 J1.384
G1 X270.048 Y-386.903 Z10.000
G3 X269.427 Y-387.016 Z10.000 I-0.048 J-1.497
G3 X270.573 Y-389.784 Z10.000 I0.573 J-1.384
G3 X270.048 Y-386.903 Z10.000 I-0.573 J1.384
G1 X270.048 Y-386.903 Z9.000
G3 X269.427 Y-387.016 Z9.000 I-0.048 J-1.497
G3 X270.573 Y-389.784 Z9.000 I0.573 J-1.384
G3 X270.048 Y-386.903 Z9.000 I-0.573 J1.384
G1 X270.048 Y-386.903 Z8.000
G3 X269.427 Y-387.016 Z8.000 I-0.048 J-1.497
G3 X270.573 Y-389.784 Z8.000 I0.573 J-1.384
G3 X270.048 Y-386.903 Z8.000 I-0.573 J1.384
G1 X270.048 Y-386.903 Z7.000
G3 X269.427 Y-387.016 Z7.000 I-0.048 J-1.497
G3 X270.573 Y-389.784 Z7.000 I0.573 J-1.384
G3 X270.048 Y-386.903 Z7.000 I-0.573 J1.384
G1 X270.048 Y-386.903 Z6.000
G3 X269.427 Y-387.016 Z6.000 I-0.048 J-1.497
G3 X270.573 Y-389.784 Z6.000 I0.573 J-1.384
G3 X270.048 Y-386.903 Z6.000 I-0.573 J1.384
G1 X270.048 Y-386.903 Z5.000
G3 X269.427 Y-387.016 Z5.000 I-0.048 J-1.497
G3 X270.573 Y-389.784 Z5.000 I0.573 J-1.384
G3 X270.048 Y-386.903 Z5.000 I-0.573 J1.384
G1 X270.048 Y-386.903 Z4.000
G3 X269.427 Y-387.016 Z4.000 I-0.048 J-1.497
G3 X270.573 Y-389.784 Z4.000 I0.573 J-1.384
G3 X270.048 Y-386.903 Z4.000 I-0.573 J1.384
G1 X270.048 Y-386.903 Z3.000
G3 X269.427 Y-387.016 Z3.000 I-0.048 J-1.497
G3 X270.573 Y-389.784 Z3.000 I0.573 J-1.384
G3 X270.048 Y-386.903 Z3.000 I-0.573 J1.384
G1 X270.048 Y-386.903 Z2.000
G3 X269.427 Y-387.016 Z2.000 I-0.048 J-1.497
G3 X270.573 Y-389.784 Z2.000 I0.573 J-1.384
G3 X270.048 Y-386.903 Z2.000 I-0.573 J1.384
G1 X270.048 Y-386.903 Z1.000
G3 X269.427 Y-387.016 Z1.000 I-0.048 J-1.497
G3 X270.573 Y-389.784 Z1.000 I0.573 J-1.384
G3 X270.048 Y-386.903 Z1.000 I-0.573 J1.384
G1 X270.048 Y-386.903 Z0.000
G3 X269.427 Y-387.016 Z0.000 I-0.048 J-1.497
G3 X270.573 Y-389.784 Z0.000 I0.573 J-1.384
G3 X270.048 Y-386.903 Z0.000 I-0.573 J1.384
G0 Z18.000
G0 Z18.000
G0 X270.048 Y-386.903
G0 X313.703 Y-388.350
G0 X313.703 Y-388.350 Z16.000
G1 X313.703 Y-388.350 Z12.000
G3 X315.773 Y-389.784 Z12.000 I1.497 J-0.050
G3 X314.627 Y-387.016 Z12.000 I-0.573 J1.384
G3 X313.703 Y-388.350 Z12.000 I0.573 J-1.384
G1 X313.703 Y-388.350 Z11.000
G3 X315.773 Y-389.784 Z11.000 I1.497 J-0.050
G3 X314.627 Y-387.016 Z11.000 I-0.573 J1.384
G3 X313.703 Y-388.350 Z11.000 I0.573 J-1.384
G1 X313.703 Y-388.350 Z10.000
G3 X315.773 Y-389.784 Z10.000 I1.497 J-0.050
G3 X314.627 Y-387.016 Z10.000 I-0.573 J1.384
G3 X313.703 Y-388.350 Z10.000 I0.573 J-1.384
G1 X313.703 Y-388.350 Z9.000
G3 X315.773 Y-389.784 Z9.000 I1.497 J-0.050
G3 X314.627 Y-387.016 Z9.000 I-0.573 J1.384
G3 X313.703 Y-388.350 Z9.000 I0.573 J-1.384
G1 X313.703 Y-388.350 Z8.000
G3 X315.773 Y-389.784 Z8.000 I1.497 J-0.050
G3 X314.627 Y-387.016 Z8.000 I-0.573 J1.384
G3 X313.703 Y-388.350 Z8.000 I0.573 J-1.384
G1 X313.703 Y-388.350 Z7.000
G3 X315.773 Y-389.784 Z7.000 I1.497 J-0.050
G3 X314.627 Y-387.016 Z7.000 I-0.573 J1.384
G3 X313.703 Y-388.350 Z7.000 I0.573 J-1.384
G1 X313.703 Y-388.350 Z6.000
G3 X315.773 Y-389.784 Z6.000 I1.497 J-0.050
G3 X314.627 Y-387.016 Z6.000 I-0.573 J1.384
G3 X313.703 Y-388.350 Z6.000 I0.573 J-1.384
G1 X313.703 Y-388.350 Z5.000
G3 X315.773 Y-389.784 Z5.000 I1.497 J-0.050
G3 X314.627 Y-387.016 Z5.000 I-0.573 J1.384
G3 X313.703 Y-388.350 Z5.000 I0.573 J-1.384
G1 X313.703 Y-388.350 Z4.000
G3 X315.773 Y-389.784 Z4.000 I1.497 J-0.050
G3 X314.627 Y-387.016 Z4.000 I-0.573 J1.384
G3 X313.703 Y-388.350 Z4.000 I0.573 J-1.384
G1 X313.703 Y-388.350 Z3.000
G3 X315.773 Y-389.784 Z3.000 I1.497 J-0.050
G3 X314.627 Y-387.016 Z3.000 I-0.573 J1.384
G3 X313.703 Y-388.350 Z3.000 I0.573 J-1.384
G1 X313.703 Y-388.350 Z2.000
G3 X315.773 Y-389.784 Z2.000 I1.497 J-0.050
G3 X314.627 Y-387.016 Z2.000 I-0.573 J1.384
G3 X313.703 Y-388.350 Z2.000 I0.573 J-1.384
G1 X313.703 Y-388.350 Z1.000
G3 X315.773 Y-389.784 Z1.000 I1.497 J-0.050
G3 X314.627 Y-387.016 Z1.000 I-0.573 J1.384
G3 X313.703 Y-388.350 Z1.000 I0.573 J-1.384
G1 X313.703 Y-388.350 Z0.000
G3 X315.773 Y-389.784 Z0.000 I1.497 J-0.050
G3 X314.627 Y-387.016 Z0.000 I-0.573 J1.384
G3 X313.703 Y-388.350 Z0.000 I0.573 J-1.384
G0 Z18.000
G0 Z18.000
G0 X313.703 Y-388.350
G0 X358.902 Y-388.398
G0 X358.902 Y-388.398 Z16.000
G1 X358.902 Y-388.398 Z12.000
G3 X360.973 Y-389.784 Z12.000 I1.498 J-0.002
G3 X359.827 Y-387.016 Z12.000 I-0.573 J1.384
G3 X358.902 Y-388.398 Z12.000 I0.573 J-1.384
G1 X358.902 Y-388.398 Z11.000
G3 X360.973 Y-389.784 Z11.000 I1.498 J-0.002
G3 X359.827 Y-387.016 Z11.000 I-0.573 J1.384
G3 X358.902 Y-388.398 Z11.000 I0.573 J-1.384
G1 X358.902 Y-388.398 Z10.000
G3 X360.973 Y-389.784 Z10.000 I1.498 J-0.002
G3 X359.827 Y-387.016 Z10.000 I-0.573 J1.384
G3 X358.902 Y-388.398 Z10.000 I0.573 J-1.384
G1 X358.902 Y-388.398 Z9.000
G3 X360.973 Y-389.784 Z9.000 I1.498 J-0.002
G3 X359.827 Y-387.016 Z9.000 I-0.573 J1.384
G3 X358.902 Y-388.398 Z9.000 I0.573 J-1.384
G1 X358.902 Y-388.398 Z8.000
G3 X360.973 Y-389.784 Z8.000 I1.498 J-0.002
G3 X359.827 Y-387.016 Z8.000 I-0.573 J1.384
G3 X358.902 Y-388.398 Z8.000 I0.573 J-1.384
G1 X358.902 Y-388.398 Z7.000
G3 X360.973 Y-389.784 Z7.000 I1.498 J-0.002
G3 X359.827 Y-387.016 Z7.000 I-0.573 J1.384
G3 X358.902 Y-388.398 Z7.000 I0.573 J-1.384
G1 X358.902 Y-388.398 Z6.000
G3 X360.973 Y-389.784 Z6.000 I1.498 J-0.002
G3 X359.827 Y-387.016 Z6.000 I-0.573 J1.384
G3 X358.902 Y-388.398 Z6.000 I0.573 J-1.384
G1 X358.902 Y-388.398 Z5.000
G3 X360.973 Y-389.784 Z5.000 I1.498 J-0.002
G3 X359.827 Y-387.016 Z5.000 I-0.573 J1.384
G3 X358.902 Y-388.398 Z5.000 I0.573 J-1.384
G1 X358.902 Y-388.398 Z4.000
G3 X360.973 Y-389.784 Z4.000 I1.498 J-0.002
G3 X359.827 Y-387.016 Z4.000 I-0.573 J1.384
G3 X358.902 Y-388.398 Z4.000 I0.573 J-1.384
G1 X358.902 Y-388.398 Z3.000
G3 X360.973 Y-389.784 Z3.000 I1.498 J-0.002
G3 X359.827 Y-387.016 Z3.000 I-0.573 J1.384
G3 X358.902 Y-388.398 Z3.000 I0.573 J-1.384
G1 X358.902 Y-388.398 Z2.000
G3 X360.973 Y-389.784 Z2.000 I1.498 J-0.002
G3 X359.827 Y-387.016 Z2.000 I-0.573 J1.384
G3 X358.902 Y-388.398 Z2.000 I0.573 J-1.384
G1 X358.902 Y-388.398 Z1.000
G3 X360.973 Y-389.784 Z1.000 I1.498 J-0.002
G3 X359.827 Y-387.016 Z1.000 I-0.573 J1.384
G3 X358.902 Y-388.398 Z1.000 I0.573 J-1.384
G1 X358.902 Y-388.398 Z0.000
G3 X360.973 Y-389.784 Z0.000 I1.498 J-0.002
G3 X359.827 Y-387.016 Z0.000 I-0.573 J1.384
G3 X358.902 Y-388.398 Z0.000 I0.573 J-1.384
G0 Z18.000
G0 Z18.000
G0 X358.902 Y-388.398
G0 X404.102 Y-388.400
G0 X404.102 Y-388.400 Z16.000
G1 X404.102 Y-388.400 Z12.000
G3 X406.173 Y-389.784 Z12.000 I1.498 J-0.000
G3 X405.027 Y-387.016 Z12.000 I-0.573 J1.384
G3 X404.102 Y-388.400 Z12.000 I0.573 J-1.384
G1 X404.102 Y-388.400 Z11.000
G3 X406.173 Y-389.784 Z11.000 I1.498 J-0.000
G3 X405.027 Y-387.016 Z11.000 I-0.573 J1.384
G3 X404.102 Y-388.400 Z11.000 I0.573 J-1.384
G1 X404.102 Y-388.400 Z10.000
G3 X406.173 Y-389.784 Z10.000 I1.498 J-0.000
G3 X405.027 Y-387.016 Z10.000 I-0.573 J1.384
G3 X404.102 Y-388.400 Z10.000 I0.573 J-1.384
G1 X404.102 Y-388.400 Z9.000
G3 X406.173 Y-389.784 Z9.000 I1.498 J-0.000
G3 X405.027 Y-387.016 Z9.000 I-0.573 J1.384
G3 X404.102 Y-388.400 Z9.000 I0.573 J-1.384
G1 X404.102 Y-388.400 Z8.000
G3 X406.173 Y-389.784 Z8.000 I1.498 J-0.000
G3 X405.027 Y-387.016 Z8.000 I-0.573 J1.384
G3 X404.102 Y-388.400 Z8.000 I0.573 J-1.384
G1 X404.102 Y-388.400 Z7.000
G3 X406.173 Y-389.784 Z7.000 I1.498 J-0.000
G3 X405.027 Y-387.016 Z7.000 I-0.573 J1.384
G3 X404.102 Y-388.400 Z7.000 I0.573 J-1.384
G1 X404.102 Y-388.400 Z6.000
G3 X406.173 Y-389.784 Z6.000 I1.498 J-0.000
G3 X405.027 Y-387.016 Z6.000 I-0.573 J1.384
G3 X404.102 Y-388.400 Z6.000 I0.573 J-1.384
G1 X404.102 Y-388.400 Z5.000
G3 X406.173 Y-389.784 Z5.000 I1.498 J-0.000
G3 X405.027 Y-387.016 Z5.000 I-0.573 J1.384
G3 X404.102 Y-388.400 Z5.000 I0.573 J-1.384
G1 X404.102 Y-388.400 Z4.000
G3 X406.173 Y-389.784 Z4.000 I1.498 J-0.000
G3 X405.027 Y-387.016 Z4.000 I-0.573 J1.384
G3 X404.102 Y-388.400 Z4.000 I0.573 J-1.384
G1 X404.102 Y-388.400 Z3.000
G3 X406.173 Y-389.784 Z3.000 I1.498 J-0.000
G3 X405.027 Y-387.016 Z3.000 I-0.573 J1.384
G3 X404.102 Y-388.400 Z3.000 I0.573 J-1.384
G1 X404.102 Y-388.400 Z2.000
G3 X406.173 Y-389.784 Z2.000 I1.498 J-0.000
G3 X405.027 Y-387.016 Z2.000 I-0.573 J1.384
G3 X404.102 Y-388.400 Z2.000 I0.573 J-1.384
G1 X404.102 Y-388.400 Z1.000
G3 X406.173 Y-389.784 Z1.000 I1.498 J-0.000
G3 X405.027 Y-387.016 Z1.000 I-0.573 J1.384
G3 X404.102 Y-388.400 Z1.000 I0.573 J-1.384
G1 X404.102 Y-388.400 Z0.000
G3 X406.173 Y-389.784 Z0.000 I1.498 J-0.000
G3 X405.027 Y-387.016 Z0.000 I-0.573 J1.384
G3 X404.102 Y-388.400 Z0.000 I0.573 J-1.384
G0 Z18.000
G0 Z18.000
G0 X404.102 Y-388.400
G0 X449.302 Y-388.400
G0 X449.302 Y-388.400 Z16.000
G1 X449.302 Y-388.400 Z12.000
G3 X451.373 Y-389.784 Z12.000 I1.498 J-0.000
G3 X450.227 Y-387.016 Z12.000 I-0.573 J1.384
G3 X449.302 Y-388.400 Z12.000 I0.573 J-1.384
G1 X449.302 Y-388.400 Z11.000
G3 X451.373 Y-389.784 Z11.000 I1.498 J-0.000
G3 X450.227 Y-387.016 Z11.000 I-0.573 J1.384
G3 X449.302 Y-388.400 Z11.000 I0.573 J-1.384
G1 X449.302 Y-388.400 Z10.000
G3 X451.373 Y-389.784 Z10.000 I1.498 J-0.000
G3 X450.227 Y-387.016 Z10.000 I-0.573 J1.384
G3 X449.302 Y-388.400 Z10.000 I0.573 J-1.384
G1 X449.302 Y-388.400 Z9.000
G3 X451.373 Y-389.784 Z9.000 I1.498 J-0.000
G3 X450.227 Y-387.016 Z9.000 I-0.573 J1.384
G3 X449.302 Y-388.400 Z9.000 I0.573 J-1.384
G1 X449.302 Y-388.400 Z8.000
G3 X451.373 Y-389.784 Z8.000 I1.498 J-0.000
G3 X450.227 Y-387.016 Z8.000 I-0.573 J1.384
G3 X449.302 Y-388.400 Z8.000 I0.573 J-1.384
G1 X449.302 Y-388.400 Z7.000
G3 X451.373 Y-389.784 Z7.000 I1.498 J-0.000
G3 X450.227 Y-387.016 Z7.000 I-0.573 J1.384
G3 X449.302 Y-388.400 Z7.000 I0.573 J-1.384
G1 X449.302 Y-388.400 Z6.000
G3 X451.373 Y-389.784 Z6.000 I1.498 J-0.000
G3 X450.227 Y-387.016 Z6.000 I-0.573 J1.384
G3 X449.302 Y-388.400 Z6.000 I0.573 J-1.384
G1 X449.302 Y-388.400 Z5.000
G3 X451.373 Y-389.784 Z5.000 I1.498 J-0.000
G3 X450.227 Y-387.016 Z5.000 I-0.573 J1.384
G3 X449.302 Y-388.400 Z5.000 I0.573 J-1.384
G1 X449.302 Y-388.400 Z4.000
G3 X451.373 Y-389.784 Z4.000 I1.498 J-0.000
G3 X450.227 Y-387.016 Z4.000 I-0.573 J1.384
G3 X449.302 Y-388.400 Z4.000 I0.573 J-1.384
G1 X449.302 Y-388.400 Z3.000
G3 X451.373 Y-389.784 Z3.000 I1.498 J-0.000
G3 X450.227 Y-387.016 Z3.000 I-0.573 J1.384
G3 X449.302 Y-388.400 Z3.000 I0.573 J-1.384
G1 X449.302 Y-388.400 Z2.000
G3 X451.373 Y-389.784 Z2.000 I1.498 J-0.000
G3 X450.227 Y-387.016 Z2.000 I-0.573 J1.384
G3 X449.302 Y-388.400 Z2.000 I0.573 J-1.384
G1 X449.302 Y-388.400 Z1.000
G3 X451.373 Y-389.784 Z1.000 I1.498 J-0.000
G3 X450.227 Y-387.016 Z1.000 I-0.573 J1.384
G3 X449.302 Y-388.400 Z1.000 I0.573 J-1.384
G1 X449.302 Y-388.400 Z0.000
G3 X451.373 Y-389.784 Z0.000 I1.498 J-0.000
G3 X450.227 Y-387.016 Z0.000 I-0.573 J1.384
G3 X449.302 Y-388.400 Z0.000 I0.573 J-1.384
G0 Z18.000
G0 Z18.000
G0 X449.302 Y-388.400
G0 X494.502 Y-388.400
G0 X494.502 Y-388.400 Z16.000
G1 X494.502 Y-388.400 Z12.000
G3 X496.573 Y-389.784 Z12.000 I1.498 J-0.000
G3 X495.427 Y-387.016 Z12.000 I-0.573 J1.384
G3 X494.502 Y-388.400 Z12.000 I0.573 J-1.384
G1 X494.502 Y-388.400 Z11.000
G3 X496.573 Y-389.784 Z11.000 I1.498 J-0.000
G3 X495.427 Y-387.016 Z11.000 I-0.573 J1.384
G3 X494.502 Y-388.400 Z11.000 I0.573 J-1.384
G1 X494.502 Y-388.400 Z10.000
G3 X496.573 Y-389.784 Z10.000 I1.498 J-0.000
G3 X495.427 Y-387.016 Z10.000 I-0.573 J1.384
G3 X494.502 Y-388.400 Z10.000 I0.573 J-1.384
G1 X494.502 Y-388.400 Z9.000
G3 X496.573 Y-389.784 Z9.000 I1.498 J-0.000
G3 X495.427 Y-387.016 Z9.000 I-0.573 J1.384
G3 X494.502 Y-388.400 Z9.000 I0.573 J-1.384
G1 X494.502 Y-388.400 Z8.000
G3 X496.573 Y-389.784 Z8.000 I1.498 J-0.000
G3 X495.427 Y-387.016 Z8.000 I-0.573 J1.384
G3 X494.502 Y-388.400 Z8.000 I0.573 J-1.384
G1 X494.502 Y-388.400 Z7.000
G3 X496.573 Y-389.784 Z7.000 I1.498 J-0.000
G3 X495.427 Y-387.016 Z7.000 I-0.573 J1.384
G3 X494.502 Y-388.400 Z7.000 I0.573 J-1.384
G1 X494.502 Y-388.400 Z6.000
G3 X496.573 Y-389.784 Z6.000 I1.498 J-0.000
G3 X495.427 Y-387.016 Z6.000 I-0.573 J1.384
G3 X494.502 Y-388.400 Z6.000 I0.573 J-1.384
G1 X494.502 Y-388.400 Z5.000
G3 X496.573 Y-389.784 Z5.000 I1.498 J-0.000
G3 X495.427 Y-387.016 Z5.000 I-0.573 J1.384
G3 X494.502 Y-388.400 Z5.000 I0.573 J-1.384
G1 X494.502 Y-388.400 Z4.000
G3 X496.573 Y-389.784 Z4.000 I1.498 J-0.000
G3 X495.427 Y-387.016 Z4.000 I-0.573 J1.384
G3 X494.502 Y-388.400 Z4.000 I0.573 J-1.384
G1 X494.502 Y-388.400 Z3.000
G3 X496.573 Y-389.784 Z3.000 I1.498 J-0.000
G3 X495.427 Y-387.016 Z3.000 I-0.573 J1.384
G3 X494.502 Y-388.400 Z3.000 I0.573 J-1.384
G1 X494.502 Y-388.400 Z2.000
G3 X496.573 Y-389.784 Z2.000 I1.498 J-0.000
G3 X495.427 Y-387.016 Z2.000 I-0.573 J1.384
G3 X494.502 Y-388.400 Z2.000 I0.573 J-1.384
G1 X494.502 Y-388.400 Z1.000
G3 X496.573 Y-389.784 Z1.000 I1.498 J-0.000
G3 X495.427 Y-387.016 Z1.000 I-0.573 J1.384
G3 X494.502 Y-388.400 Z1.000 I0.573 J-1.384
G1 X494.502 Y-388.400 Z0.000
G3 X496.573 Y-389.784 Z0.000 I1.498 J-0.000
G3 X495.427 Y-387.016 Z0.000 I-0.573 J1.384
G3 X494.502 Y-388.400 Z0.000 I0.573 J-1.384
G0 Z18.000
G0 Z18.000
G0 X494.502 Y-388.400
G0 X518.727 Y-379.238
G0 X518.727 Y-379.238 Z16.000
G1 X518.727 Y-379.238 Z12.000
G3 X523.172 Y-381.297 Z12.000 I3.273 J1.238
G3 X525.297 Y-376.828 Z12.000 I-1.172 J3.297
G3 X520.828 Y-374.703 Z12.000 I-3.297 J-1.172
G3 X518.727 Y-379.238 Z12.000 I1.172 J-3.297
G1 X518.727 Y-379.238 Z11.000
G3 X523.172 Y-381.297 Z11.000 I3.273 J1.238
G3 X525.297 Y-376.828 Z11.000 I-1.172 J3.297
G3 X520.828 Y-374.703 Z11.000 I-3.297 J-1.172
G3 X518.727 Y-379.238 Z11.000 I1.172 J-3.297
G1 X518.727 Y-379.238 Z10.000
G3 X523.172 Y-381.297 Z10.000 I3.273 J1.238
G3 X525.297 Y-376.828 Z10.000 I-1.172 J3.297
G3 X520.828 Y-374.703 Z10.000 I-3.297 J-1.172
G3 X518.727 Y-379.238 Z10.000 I1.172 J-3.297
G1 X518.727 Y-379.238 Z9.000
G3 X523.172 Y-381.297 Z9.000 I3.273 J1.238
G3 X525.297 Y-376.828 Z9.000 I-1.172 J3.297
G3 X520.828 Y-374.703 Z9.000 I-3.297 J-1.172
G3 X518.727 Y-379.238 Z9.000 I1.172 J-3.297
G1 X518.727 Y-379.238 Z8.000
G3 X523.172 Y-381.297 Z8.000 I3.273 J1.238
G3 X525.297 Y-376.828 Z8.000 I-1.172 J3.297
G3 X520.828 Y-374.703 Z8.000 I-3.297 J-1.172
G3 X518.727 Y-379.238 Z8.000 I1.172 J-3.297
G1 X518.727 Y-379.238 Z7.000
G3 X523.172 Y-381.297 Z7.000 I3.273 J1.238
G3 X525.297 Y-376.828 Z7.000 I-1.172 J3.297
G3 X520.828 Y-374.703 Z7.000 I-3.297 J-1.172
G3 X518.727 Y-379.238 Z7.000 I1.172 J-3.297
G1 X518.727 Y-379.238 Z6.000
G3 X523.172 Y-381.297 Z6.000 I3.273 J1.238
G3 X525.297 Y-376.828 Z6.000 I-1.172 J3.297
G3 X520.828 Y-374.703 Z6.000 I-3.297 J-1.172
G3 X518.727 Y-379.238 Z6.000 I1.172 J-3.297
G1 X518.727 Y-379.238 Z5.000
G3 X523.172 Y-381.297 Z5.000 I3.273 J1.238
G3 X525.297 Y-376.828 Z5.000 I-1.172 J3.297
G3 X520.828 Y-374.703 Z5.000 I-3.297 J-1.172
G3 X518.727 Y-379.238 Z5.000 I1.172 J-3.297
G1 X518.727 Y-379.238 Z4.000
G3 X523.172 Y-381.297 Z4.000 I3.273 J1.238
G3 X525.297 Y-376.828 Z4.000 I-1.172 J3.297
G3 X520.828 Y-374.703 Z4.000 I-3.297 J-1.172
G3 X518.727 Y-379.238 Z4.000 I1.172 J-3.297
G1 X518.727 Y-379.238 Z3.000
G3 X523.172 Y-381.297 Z3.000 I3.273 J1.238
G3 X525.297 Y-376.828 Z3.000 I-1.172 J3.297
G3 X520.828 Y-374.703 Z3.000 I-3.297 J-1.172
G3 X518.727 Y-379.238 Z3.000 I1.172 J-3.297
G1 X518.727 Y-379.238 Z2.000
G3 X523.172 Y-381.297 Z2.000 I3.273 J1.238
G3 X525.297 Y-376.828 Z2.000 I-1.172 J3.297
G3 X520.828 Y-374.703 Z2.000 I-3.297 J-1.172
G3 X518.727 Y-379.238 Z2.000 I1.172 J-3.297
G1 X518.727 Y-379.238 Z1.000
G3 X523.172 Y-381.297 Z1.000 I3.273 J1.238
G3 X525.297 Y-376.828 Z1.000 I-1.172 J3.297
G3 X520.828 Y-374.703 Z1.000 I-3.297 J-1.172
G3 X518.727 Y-379.238 Z1.000 I1.172 J-3.297
G1 X518.727 Y-379.238 Z0.000
G3 X523.172 Y-381.297 Z0.000 I3.273 J1.238
G3 X525.297 Y-376.828 Z0.000 I-1.172 J3.297
G3 X520.828 Y-374.703 Z0.000 I-3.297 J-1.172
G3 X518.727 Y-379.238 Z0.000 I1.172 J-3.297
G0 Z18.000
G0 Z18.000
G0 X518.727 Y-379.238
G0 X533.218 Y-368.454
G0 X533.218 Y-368.454 Z16.000
G1 X533.218 Y-368.454 Z12.000
G3 X535.212 Y-368.930 Z12.000 I1.282 J0.954
G3 X535.930 Y-366.788 Z12.000 I-0.712 J1.430
G3 X533.788 Y-366.070 Z12.000 I-1.430 J-0.712
G3 X533.218 Y-368.454 Z12.000 I0.712 J-1.430
G1 X533.218 Y-368.454 Z11.000
G3 X535.212 Y-368.930 Z11.000 I1.282 J0.954
G3 X535.930 Y-366.788 Z11.000 I-0.712 J1.430
G3 X533.788 Y-366.070 Z11.000 I-1.430 J-0.712
G3 X533.218 Y-368.454 Z11.000 I0.712 J-1.430
G1 X533.218 Y-368.454 Z10.000
G3 X535.212 Y-368.930 Z10.000 I1.282 J0.954
G3 X535.930 Y-366.788 Z10.000 I-0.712 J1.430
G3 X533.788 Y-366.070 Z10.000 I-1.430 J-0.712
G3 X533.218 Y-368.454 Z10.000 I0.712 J-1.430
G1 X533.218 Y-368.454 Z9.000
G3 X535.212 Y-368.930 Z9.000 I1.282 J0.954
G3 X535.930 Y-366.788 Z9.000 I-0.712 J1.430
G3 X533.788 Y-366.070 Z9.000 I-1.430 J-0.712
G3 X533.218 Y-368.454 Z9.000 I0.712 J-1.430
G1 X533.218 Y-368.454 Z8.000
G3 X535.212 Y-368.930 Z8.000 I1.282 J0.954
G3 X535.930 Y-366.788 Z8.000 I-0.712 J1.430
G3 X533.788 Y-366.070 Z8.000 I-1.430 J-0.712
G3 X533.218 Y-368.454 Z8.000 I0.712 J-1.430
G1 X533.218 Y-368.454 Z7.000
G3 X535.212 Y-368.930 Z7.000 I1.282 J0.954
G3 X535.930 Y-366.788 Z7.000 I-0.712 J1.430
G3 X533.788 Y-366.070 Z7.000 I-1.430 J-0.712
G3 X533.218 Y-368.454 Z7.000 I0.712 J-1.430
G1 X533.218 Y-368.454 Z6.000
G3 X535.212 Y-368.930 Z6.000 I1.282 J0.954
G3 X535.930 Y-366.788 Z6.000 I-0.712 J1.430
G3 X533.788 Y-366.070 Z6.000 I-1.430 J-0.712
G3 X533.218 Y-368.454 Z6.000 I0.712 J-1.430
G1 X533.218 Y-368.454 Z5.000
G3 X535.212 Y-368.930 Z5.000 I1.282 J0.954
G3 X535.930 Y-366.788 Z5.000 I-0.712 J1.430
G3 X533.788 Y-366.070 Z5.000 I-1.430 J-0.712
G3 X533.218 Y-368.454 Z5.000 I0.712 J-1.430
G1 X533.218 Y-368.454 Z4.000
G3 X535.212 Y-368.930 Z4.000 I1.282 J0.954
G3 X535.930 Y-366.788 Z4.000 I-0.712 J1.430
G3 X533.788 Y-366.070 Z4.000 I-1.430 J-0.712
G3 X533.218 Y-368.454 Z4.000 I0.712 J-1.430
G1 X533.218 Y-368.454 Z3.000
G3 X535.212 Y-368.930 Z3.000 I1.282 J0.954
G3 X535.930 Y-366.788 Z3.000 I-0.712 J1.430
G3 X533.788 Y-366.070 Z3.000 I-1.430 J-0.712
G3 X533.218 Y-368.454 Z3.000 I0.712 J-1.430
G1 X533.218 Y-368.454 Z2.000
G3 X535.212 Y-368.930 Z2.000 I1.282 J0.954
G3 X535.930 Y-366.788 Z2.000 I-0.712 J1.430
G3 X533.788 Y-366.070 Z2.000 I-1.430 J-0.712
G3 X533.218 Y-368.454 Z2.000 I0.712 J-1.430
G1 X533.218 Y-368.454 Z1.000
G3 X535.212 Y-368.930 Z1.000 I1.282 J0.954
G3 X535.930 Y-366.788 Z1.000 I-0.712 J1.430
G3 X533.788 Y-366.070 Z1.000 I-1.430 J-0.712
G3 X533.218 Y-368.454 Z1.000 I0.712 J-1.430
G1 X533.218 Y-368.454 Z0.000
G3 X535.212 Y-368.930 Z0.000 I1.282 J0.954
G3 X535.930 Y-366.788 Z0.000 I-0.712 J1.430
G3 X533.788 Y-366.070 Z0.000 I-1.430 J-0.712
G3 X533.218 Y-368.454 Z0.000 I0.712 J-1.430
G0 Z18.000
G0 Z18.000
G0 X533.218 Y-368.454
G0 X534.421 Y-344.096
G0 X534.421 Y-344.096 Z16.000
G1 X534.421 Y-344.096 Z12.000
G3 X535.212 Y-343.930 Z12.000 I0.079 J1.596
G3 X535.930 Y-341.788 Z12.000 I-0.712 J1.430
G3 X533.788 Y-341.070 Z12.000 I-1.430 J-0.712
G3 X534.421 Y-344.096 Z12.000 I0.712 J-1.430
G1 X534.421 Y-344.096 Z11.000
G3 X535.212 Y-343.930 Z11.000 I0.079 J1.596
G3 X535.930 Y-341.788 Z11.000 I-0.712 J1.430
G3 X533.788 Y-341.070 Z11.000 I-1.430 J-0.712
G3 X534.421 Y-344.096 Z11.000 I0.712 J-1.430
G1 X534.421 Y-344.096 Z10.000
G3 X535.212 Y-343.930 Z10.000 I0.079 J1.596
G3 X535.930 Y-341.788 Z10.000 I-0.712 J1.430
G3 X533.788 Y-341.070 Z10.000 I-1.430 J-0.712
G3 X534.421 Y-344.096 Z10.000 I0.712 J-1.430
G1 X534.421 Y-344.096 Z9.000
G3 X535.212 Y-343.930 Z9.000 I0.079 J1.596
G3 X535.930 Y-341.788 Z9.000 I-0.712 J1.430
G3 X533.788 Y-341.070 Z9.000 I-1.430 J-0.712
G3 X534.421 Y-344.096 Z9.000 I0.712 J-1.430
G1 X534.421 Y-344.096 Z8.000
G3 X535.212 Y-343.930 Z8.000 I0.079 J1.596
G3 X535.930 Y-341.788 Z8.000 I-0.712 J1.430
G3 X533.788 Y-341.070 Z8.000 I-1.430 J-0.712
G3 X534.421 Y-344.096 Z8.000 I0.712 J-1.430
G1 X534.421 Y-344.096 Z7.000
G3 X535.212 Y-343.930 Z7.000 I0.079 J1.596
G3 X535.930 Y-341.788 Z7.000 I-0.712 J1.430
G3 X533.788 Y-341.070 Z7.000 I-1.430 J-0.712
G3 X534.421 Y-344.096 Z7.000 I0.712 J-1.430
G1 X534.421 Y-344.096 Z6.000
G3 X535.212 Y-343.930 Z6.000 I0.079 J1.596
G3 X535.930 Y-341.788 Z6.000 I-0.712 J1.430
G3 X533.788 Y-341.070 Z6.000 I-1.430 J-0.712
G3 X534.421 Y-344.096 Z6.000 I0.712 J-1.430
G1 X534.421 Y-344.096 Z5.000
G3 X535.212 Y-343.930 Z5.000 I0.079 J1.596
G3 X535.930 Y-341.788 Z5.000 I-0.712 J1.430
G3 X533.788 Y-341.070 Z5.000 I-1.430 J-0.712
G3 X534.421 Y-344.096 Z5.000 I0.712 J-1.430
G1 X534.421 Y-344.096 Z4.000
G3 X535.212 Y-343.930 Z4.000 I0.079 J1.596
G3 X535.930 Y-341.788 Z4.000 I-0.712 J1.430
G3 X533.788 Y-341.070 Z4.000 I-1.430 J-0.712
G3 X534.421 Y-344.096 Z4.000 I0.712 J-1.430
G1 X534.421 Y-344.096 Z3.000
G3 X535.212 Y-343.930 Z3.000 I0.079 J1.596
G3 X535.930 Y-341.788 Z3.000 I-0.712 J1.430
G3 X533.788 Y-341.070 Z3.000 I-1.430 J-0.712
G3 X534.421 Y-344.096 Z3.000 I0.712 J-1.430
G1 X534.421 Y-344.096 Z2.000
G3 X535.212 Y-343.930 Z2.000 I0.079 J1.596
G3 X535.930 Y-341.788 Z2.000 I-0.712 J1.430
G3 X533.788 Y-341.070 Z2.000 I-1.430 J-0.712
G3 X534.421 Y-344.096 Z2.000 I0.712 J-1.430
G1 X534.421 Y-344.096 Z1.000
G3 X535.212 Y-343.930 Z1.000 I0.079 J1.596
G3 X535.930 Y-341.788 Z1.000 I-0.712 J1.430
G3 X533.788 Y-341.070 Z1.000 I-1.430 J-0.712
G3 X534.421 Y-344.096 Z1.000 I0.712 J-1.430
G1 X534.421 Y-344.096 Z0.000
G3 X535.212 Y-343.930 Z0.000 I0.079 J1.596
G3 X535.930 Y-341.788 Z0.000 I-0.712 J1.430
G3 X533.788 Y-341.070 Z0.000 I-1.430 J-0.712
G3 X534.421 Y-344.096 Z0.000 I0.712 J-1.430
G0 Z18.000
G0 Z18.000
G0 X534.421 Y-344.096
G0 X537.177 Y-346.485
G0 X537.177 Y-346.485 Z16.000
G1 X537.177 Y-346.485 Z12.000
G3 X549.475 Y-367.762 Z12.000 I9.823 J-8.515
G3 X544.525 Y-342.238 Z12.000 I-2.475 J12.762
G3 X537.177 Y-346.485 Z12.000 I2.475 J-12.762
G1 X537.177 Y-346.485 Z11.000
G3 X549.475 Y-367.762 Z11.000 I9.823 J-8.515
G3 X544.525 Y-342.238 Z11.000 I-2.475 J12.762
G3 X537.177 Y-346.485 Z11.000 I2.475 J-12.762
G1 X537.177 Y-346.485 Z10.000
G3 X549.475 Y-367.762 Z10.000 I9.823 J-8.515
G3 X544.525 Y-342.238 Z10.000 I-2.475 J12.762
G3 X537.177 Y-346.485 Z10.000 I2.475 J-12.762
G1 X537.177 Y-346.485 Z9.000
G3 X549.475 Y-367.762 Z9.000 I9.823 J-8.515
G3 X544.525 Y-342.238 Z9.000 I-2.475 J12.762
G3 X537.177 Y-346.485 Z9.000 I2.475 J-12.762
G1 X537.177 Y-346.485 Z8.000
G3 X549.475 Y-367.762 Z8.000 I9.823 J-8.515
G3 X544.525 Y-342.238 Z8.000 I-2.475 J12.762
G3 X537.177 Y-346.485 Z8.000 I2.475 J-12.762
G1 X537.177 Y-346.485 Z7.000
G3 X549.475 Y-367.762 Z7.000 I9.823 J-8.515
G3 X544.525 Y-342.238 Z7.000 I-2.475 J12.762
G3 X537.177 Y-346.485 Z7.000 I2.475 J-12.762
G1 X537.177 Y-346.485 Z6.000
G3 X549.475 Y-367.762 Z6.000 I9.823 J-8.515
G3 X544.525 Y-342.238 Z6.000 I-2.475 J12.762
G3 X537.177 Y-346.485 Z6.000 I2.475 J-12.762
G1 X537.177 Y-346.485 Z5.000
G3 X549.475 Y-367.762 Z5.000 I9.823 J-8.515
G3 X544.525 Y-342.238 Z5.000 I-2.475 J12.762
G3 X537.177 Y-346.485 Z5.000 I2.475 J-12.762
G1 X537.177 Y-346.485 Z4.000
G3 X549.475 Y-367.762 Z4.000 I9.823 J-8.515
G3 X544.525 Y-342.238 Z4.000 I-2.475 J12.762
G3 X537.177 Y-346.485 Z4.000 I2.475 J-12.762
G1 X537.177 Y-346.485 Z3.000
G3 X549.475 Y-367.762 Z3.000 I9.823 J-8.515
G3 X544.525 Y-342.238 Z3.000 I-2.475 J12.762
G3 X537.177 Y-346.485 Z3.000 I2.475 J-12.762
G1 X537.177 Y-346.485 Z2.000
G3 X549.475 Y-367.762 Z2.000 I9.823 J-8.515
G3 X544.525 Y-342.238 Z2.000 I-2.475 J12.762
G3 X537.177 Y-346.485 Z2.000 I2.475 J-12.762
G1 X537.177 Y-346.485 Z1.000
G3 X549.475 Y-367.762 Z1.000 I9.823 J-8.515
G3 X544.525 Y-342.238 Z1.000 I-2.475 J12.762
G3 X537.177 Y-346.485 Z1.000 I2.475 J-12.762
G1 X537.177 Y-346.485 Z0.000
G3 X549.475 Y-367.762 Z0.000 I9.823 J-8.515
G3 X544.525 Y-342.238 Z0.000 I-2.475 J12.762
G3 X537.177 Y-346.485 Z0.000 I2.475 J-12.762
G0 Z18.000
G0 Z18.000
G0 X537.177 Y-346.485
G0 X557.927 Y-342.781
G0 X557.927 Y-342.781 Z16.000
G1 X557.927 Y-342.781 Z12.000
G3 X560.212 Y-343.930 Z12.000 I1.573 J0.281
G3 X560.930 Y-341.788 Z12.000 I-0.712 J1.430
G3 X558.788 Y-341.070 Z12.000 I-1.430 J-0.712
G3 X557.927 Y-342.781 Z12.000 I0.712 J-1.430
G1 X557.927 Y-342.781 Z11.000
G3 X560.212 Y-343.930 Z11.000 I1.573 J0.281
G3 X560.930 Y-341.788 Z11.000 I-0.712 J1.430
G3 X558.788 Y-341.070 Z11.000 I-1.430 J-0.712
G3 X557.927 Y-342.781 Z11.000 I0.712 J-1.430
G1 X557.927 Y-342.781 Z10.000
G3 X560.212 Y-343.930 Z10.000 I1.573 J0.281
G3 X560.930 Y-341.788 Z10.000 I-0.712 J1.430
G3 X558.788 Y-341.070 Z10.000 I-1.430 J-0.712
G3 X557.927 Y-342.781 Z10.000 I0.712 J-1.430
G1 X557.927 Y-342.781 Z9.000
G3 X560.212 Y-343.930 Z9.000 I1.573 J0.281
G3 X560.930 Y-341.788 Z9.000 I-0.712 J1.430
G3 X558.788 Y-341.070 Z9.000 I-1.430 J-0.712
G3 X557.927 Y-342.781 Z9.000 I0.712 J-1.430
G1 X557.927 Y-342.781 Z8.000
G3 X560.212 Y-343.930 Z8.000 I1.573 J0.281
G3 X560.930 Y-341.788 Z8.000 I-0.712 J1.430
G3 X558.788 Y-341.070 Z8.000 I-1.430 J-0.712
G3 X557.927 Y-342.781 Z8.000 I0.712 J-1.430
G1 X557.927 Y-342.781 Z7.000
G3 X560.212 Y-343.930 Z7.000 I1.573 J0.281
G3 X560.930 Y-341.788 Z7.000 I-0.712 J1.430
G3 X558.788 Y-341.070 Z7.000 I-1.430 J-0.712
G3 X557.927 Y-342.781 Z7.000 I0.712 J-1.430
G1 X557.927 Y-342.781 Z6.000
G3 X560.212 Y-343.930 Z6.000 I1.573 J0.281
G3 X560.930 Y-341.788 Z6.000 I-0.712 J1.430
G3 X558.788 Y-341.070 Z6.000 I-1.430 J-0.712
G3 X557.927 Y-342.781 Z6.000 I0.712 J-1.430
G1 X557.927 Y-342.781 Z5.000
G3 X560.212 Y-343.930 Z5.000 I1.573 J0.281
G3 X560.930 Y-341.788 Z5.000 I-0.712 J1.430
G3 X558.788 Y-341.070 Z5.000 I-1.430 J-0.712
G3 X557.927 Y-342.781 Z5.000 I0.712 J-1.430
G1 X557.927 Y-342.781 Z4.000
G3 X560.212 Y-343.930 Z4.000 I1.573 J0.281
G3 X560.930 Y-341.788 Z4.000 I-0.712 J1.430
G3 X558.788 Y-341.070 Z4.000 I-1.430 J-0.712
G3 X557.927 Y-342.781 Z4.000 I0.712 J-1.430
G1 X557.927 Y-342.781 Z3.000
G3 X560.212 Y-343.930 Z3.000 I1.573 J0.281
G3 X560.930 Y-341.788 Z3.000 I-0.712 J1.430
G3 X558.788 Y-341.070 Z3.000 I-1.430 J-0.712
G3 X557.927 Y-342.781 Z3.000 I0.712 J-1.430
G1 X557.927 Y-342.781 Z2.000
G3 X560.212 Y-343.930 Z2.000 I1.573 J0.281
G3 X560.930 Y-341.788 Z2.000 I-0.712 J1.430
G3 X558.788 Y-341.070 Z2.000 I-1.430 J-0.712
G3 X557.927 Y-342.781 Z2.000 I0.712 J-1.430
G1 X557.927 Y-342.781 Z1.000
G3 X560.212 Y-343.930 Z1.000 I1.573 J0.281
G3 X560.930 Y-341.788 Z1.000 I-0.712 J1.430
G3 X558.788 Y-341.070 Z1.000 I-1.430 J-0.712
G3 X557.927 Y-342.781 Z1.000 I0.712 J-1.430
G1 X557.927 Y-342.781 Z0.000
G3 X560.212 Y-343.930 Z0.000 I1.573 J0.281
G3 X560.930 Y-341.788 Z0.000 I-0.712 J1.430
G3 X558.788 Y-341.070 Z0.000 I-1.430 J-0.712
G3 X557.927 Y-342.781 Z0.000 I0.712 J-1.430
G0 Z18.000
G0 Z18.000
G0 X557.927 Y-342.781
G0 Y-326.500
G0 Y-326.500 Z16.000
G1 X557.927 Y-326.500 Z12.000
G1 X567.000 Y-326.500 Z12.000
G2 X567.354 Y-326.646 Z12.000 I0.000 J-0.500
G1 X579.354 Y-338.646 Z12.000
G2 X579.500 Y-339.000 Z12.000 I-0.354 J-0.354
G1 X579.500 Y-383.000 Z12.000
G2 X579.000 Y-383.500 Z12.000 I-0.500 J-0.000
G1 X515.000 Y-383.500 Z12.000
G2 X514.500 Y-383.000 Z12.000 I-0.000 J0.500
G1 X514.500 Y-339.000 Z12.000
G2 X514.646 Y-338.646 Z12.000 I0.500 J0.000
G1 X526.646 Y-326.646 Z12.000
G2 X527.000 Y-326.500 Z12.000 I0.354 J-0.354
G1 X557.927 Y-326.500 Z12.000
G1 X557.927 Y-326.500 Z11.000
G1 X567.000 Y-326.500 Z11.000
G2 X567.354 Y-326.646 Z11.000 I0.000 J-0.500
G1 X579.354 Y-338.646 Z11.000
G2 X579.500 Y-339.000 Z11.000 I-0.354 J-0.354
G1 X579.500 Y-383.000 Z11.000
G2 X579.000 Y-383.500 Z11.000 I-0.500 J-0.000
G1 X515.000 Y-383.500 Z11.000
G2 X514.500 Y-383.000 Z11.000 I-0.000 J0.500
G1 X514.500 Y-339.000 Z11.000
G2 X514.646 Y-338.646 Z11.000 I0.500 J0.000
G1 X526.646 Y-326.646 Z11.000
G2 X527.000 Y-326.500 Z11.000 I0.354 J-0.354
G1 X557.927 Y-326.500 Z11.000
G1 X557.927 Y-326.500 Z10.000
G1 X567.000 Y-326.500 Z10.000
G2 X567.354 Y-326.646 Z10.000 I0.000 J-0.500
G1 X579.354 Y-338.646 Z10.000
G2 X579.500 Y-339.000 Z10.000 I-0.354 J-0.354
G1 X579.500 Y-383.000 Z10.000
G2 X579.000 Y-383.500 Z10.000 I-0.500 J-0.000
G1 X515.000 Y-383.500 Z10.000
G2 X514.500 Y-383.000 Z10.000 I-0.000 J0.500
G1 X514.500 Y-339.000 Z10.000
G2 X514.646 Y-338.646 Z10.000 I0.500 J0.000
G1 X526.646 Y-326.646 Z10.000
G2 X527.000 Y-326.500 Z10.000 I0.354 J-0.354
G1 X557.927 Y-326.500 Z10.000
G1 X557.927 Y-326.500 Z9.000
G1 X567.000 Y-326.500 Z9.000
G2 X567.354 Y-326.646 Z9.000 I0.000 J-0.500
G1 X579.354 Y-338.646 Z9.000
G2 X579.500 Y-339.000 Z9.000 I-0.354 J-0.354
G1 X579.500 Y-383.000 Z9.000
G2 X579.000 Y-383.500 Z9.000 I-0.500 J-0.000
G1 X515.000 Y-383.500 Z9.000
G2 X514.500 Y-383.000 Z9.000 I-0.000 J0.500
G1 X514.500 Y-339.000 Z9.000
G2 X514.646 Y-338.646 Z9.000 I0.500 J0.000
G1 X526.646 Y-326.646 Z9.000
G2 X527.000 Y-326.500 Z9.000 I0.354 J-0.354
G1 X557.927 Y-326.500 Z9.000
G1 X557.927 Y-326.500 Z8.000
G1 X567.000 Y-326.500 Z8.000
G2 X567.354 Y-326.646 Z8.000 I0.000 J-0.500
G1 X579.354 Y-338.646 Z8.000
G2 X579.500 Y-339.000 Z8.000 I-0.354 J-0.354
G1 X579.500 Y-383.000 Z8.000
G2 X579.000 Y-383.500 Z8.000 I-0.500 J-0.000
G1 X515.000 Y-383.500 Z8.000
G2 X514.500 Y-383.000 Z8.000 I-0.000 J0.500
G1 X514.500 Y-339.000 Z8.000
G2 X514.646 Y-338.646 Z8.000 I0.500 J0.000
G1 X526.646 Y-326.646 Z8.000
G2 X527.000 Y-326.500 Z8.000 I0.354 J-0.354
G1 X557.927 Y-326.500 Z8.000
G1 X557.927 Y-326.500 Z7.000
G1 X567.000 Y-326.500 Z7.000
G2 X567.354 Y-326.646 Z7.000 I0.000 J-0.500
G1 X579.354 Y-338.646 Z7.000
G2 X579.500 Y-339.000 Z7.000 I-0.354 J-0.354
G1 X579.500 Y-383.000 Z7.000
G2 X579.000 Y-383.500 Z7.000 I-0.500 J-0.000
G1 X515.000 Y-383.500 Z7.000
G2 X514.500 Y-383.000 Z7.000 I-0.000 J0.500
G1 X514.500 Y-339.000 Z7.000
G2 X514.646 Y-338.646 Z7.000 I0.500 J0.000
G1 X526.646 Y-326.646 Z7.000
G2 X527.000 Y-326.500 Z7.000 I0.354 J-0.354
G1 X557.927 Y-326.500 Z7.000
G1 X557.927 Y-326.500 Z6.000
G1 X567.000 Y-326.500 Z6.000
G2 X567.354 Y-326.646 Z6.000 I0.000 J-0.500
G1 X579.354 Y-338.646 Z6.000
G2 X579.500 Y-339.000 Z6.000 I-0.354 J-0.354
G1 X579.500 Y-383.000 Z6.000
G2 X579.000 Y-383.500 Z6.000 I-0.500 J-0.000
G1 X515.000 Y-383.500 Z6.000
G2 X514.500 Y-383.000 Z6.000 I-0.000 J0.500
G1 X514.500 Y-339.000 Z6.000
G2 X514.646 Y-338.646 Z6.000 I0.500 J0.000
G1 X526.646 Y-326.646 Z6.000
G2 X527.000 Y-326.500 Z6.000 I0.354 J-0.354
G1 X557.927 Y-326.500 Z6.000
G1 X557.927 Y-326.500 Z5.000
G1 X567.000 Y-326.500 Z5.000
G2 X567.354 Y-326.646 Z5.000 I0.000 J-0.500
G1 X579.354 Y-338.646 Z5.000
G2 X579.500 Y-339.000 Z5.000 I-0.354 J-0.354
G1 X579.500 Y-383.000 Z5.000
G2 X579.000 Y-383.500 Z5.000 I-0.500 J-0.000
G1 X515.000 Y-383.500 Z5.000
G2 X514.500 Y-383.000 Z5.000 I-0.000 J0.500
G1 X514.500 Y-339.000 Z5.000
G2 X514.646 Y-338.646 Z5.000 I0.500 J0.000
G1 X526.646 Y-326.646 Z5.000
G2 X527.000 Y-326.500 Z5.000 I0.354 J-0.354
G1 X557.927 Y-326.500 Z5.000
G1 X557.927 Y-326.500 Z4.000
G1 X567.000 Y-326.500 Z4.000
G2 X567.354 Y-326.646 Z4.000 I0.000 J-0.500
G1 X579.354 Y-338.646 Z4.000
G2 X579.500 Y-339.000 Z4.000 I-0.354 J-0.354
G1 X579.500 Y-383.000 Z4.000
G2 X579.000 Y-383.500 Z4.000 I-0.500 J-0.000
G1 X515.000 Y-383.500 Z4.000
G2 X514.500 Y-383.000 Z4.000 I-0.000 J0.500
G1 X514.500 Y-339.000 Z4.000
G2 X514.646 Y-338.646 Z4.000 I0.500 J0.000
G1 X526.646 Y-326.646 Z4.000
G2 X527.000 Y-326.500 Z4.000 I0.354 J-0.354
G1 X557.927 Y-326.500 Z4.000
G1 X557.927 Y-326.500 Z3.000
G1 X567.000 Y-326.500 Z3.000
G2 X567.354 Y-326.646 Z3.000 I0.000 J-0.500
G1 X579.354 Y-338.646 Z3.000
G2 X579.500 Y-339.000 Z3.000 I-0.354 J-0.354
G1 X579.500 Y-383.000 Z3.000
G2 X579.000 Y-383.500 Z3.000 I-0.500 J-0.000
G1 X515.000 Y-383.500 Z3.000
G2 X514.500 Y-383.000 Z3.000 I-0.000 J0.500
G1 X514.500 Y-339.000 Z3.000
G2 X514.646 Y-338.646 Z3.000 I0.500 J0.000
G1 X526.646 Y-326.646 Z3.000
G2 X527.000 Y-326.500 Z3.000 I0.354 J-0.354
G1 X557.927 Y-326.500 Z3.000
G1 X557.927 Y-326.500 Z2.000
G1 X567.000 Y-326.500 Z2.000
G2 X567.354 Y-326.646 Z2.000 I0.000 J-0.500
G1 X579.354 Y-338.646 Z2.000
G2 X579.500 Y-339.000 Z2.000 I-0.354 J-0.354
G1 X579.500 Y-383.000 Z2.000
G2 X579.000 Y-383.500 Z2.000 I-0.500 J-0.000
G1 X515.000 Y-383.500 Z2.000
G2 X514.500 Y-383.000 Z2.000 I-0.000 J0.500
G1 X514.500 Y-339.000 Z2.000
G2 X514.646 Y-338.646 Z2.000 I0.500 J0.000
G1 X526.646 Y-326.646 Z2.000
G2 X527.000 Y-326.500 Z2.000 I0.354 J-0.354
G1 X557.927 Y-326.500 Z2.000
G1 X557.927 Y-326.500 Z1.000
G1 X567.000 Y-326.500 Z1.000
G2 X567.354 Y-326.646 Z1.000 I0.000 J-0.500
G1 X579.354 Y-338.646 Z1.000
G2 X579.500 Y-339.000 Z1.000 I-0.354 J-0.354
G1 X579.500 Y-383.000 Z1.000
G2 X579.000 Y-383.500 Z1.000 I-0.500 J-0.000
G1 X515.000 Y-383.500 Z1.000
G2 X514.500 Y-383.000 Z1.000 I-0.000 J0.500
G1 X514.500 Y-339.000 Z1.000
G2 X514.646 Y-338.646 Z1.000 I0.500 J0.000
G1 X526.646 Y-326.646 Z1.000
G2 X527.000 Y-326.500 Z1.000 I0.354 J-0.354
G1 X557.927 Y-326.500 Z1.000
G1 X557.927 Y-326.500 Z0.000
G1 X567.000 Y-326.500 Z0.000
G2 X567.354 Y-326.646 Z0.000 I0.000 J-0.500
G1 X579.354 Y-338.646 Z0.000
G2 X579.500 Y-339.000 Z0.000 I-0.354 J-0.354
G1 X579.500 Y-383.000 Z0.000
G2 X579.000 Y-383.500 Z0.000 I-0.500 J-0.000
G1 X515.000 Y-383.500 Z0.000
G2 X514.500 Y-383.000 Z0.000 I-0.000 J0.500
G1 X514.500 Y-339.000 Z0.000
G2 X514.646 Y-338.646 Z0.000 I0.500 J0.000
G1 X526.646 Y-326.646 Z0.000
G2 X527.000 Y-326.500 Z0.000 I0.354 J-0.354
G1 X557.927 Y-326.500 Z0.000
G0 Z18.000
G0 Z18.000
G0 X557.927 Y-326.500
G0 X559.439 Y-365.903
G0 X559.439 Y-365.903 Z16.000
G1 X559.439 Y-365.903 Z12.000
G3 X558.788 Y-366.070 Z12.000 I0.061 J-1.597
G3 X558.070 Y-368.212 Z12.000 I0.712 J-1.430
G3 X560.212 Y-368.930 Z12.000 I1.430 J0.712
G3 X559.439 Y-365.903 Z12.000 I-0.712 J1.430
G1 X559.439 Y-365.903 Z11.000
G3 X558.788 Y-366.070 Z11.000 I0.061 J-1.597
G3 X558.070 Y-368.212 Z11.000 I0.712 J-1.430
G3 X560.212 Y-368.930 Z11.000 I1.430 J0.712
G3 X559.439 Y-365.903 Z11.000 I-0.712 J1.430
G1 X559.439 Y-365.903 Z10.000
G3 X558.788 Y-366.070 Z10.000 I0.061 J-1.597
G3 X558.070 Y-368.212 Z10.000 I0.712 J-1.430
G3 X560.212 Y-368.930 Z10.000 I1.430 J0.712
G3 X559.439 Y-365.903 Z10.000 I-0.712 J1.430
G1 X559.439 Y-365.903 Z9.000
G3 X558.788 Y-366.070 Z9.000 I0.061 J-1.597
G3 X558.070 Y-368.212 Z9.000 I0.712 J-1.430
G3 X560.212 Y-368.930 Z9.000 I1.430 J0.712
G3 X559.439 Y-365.903 Z9.000 I-0.712 J1.430
G1 X559.439 Y-365.903 Z8.000
G3 X558.788 Y-366.070 Z8.000 I0.061 J-1.597
G3 X558.070 Y-368.212 Z8.000 I0.712 J-1.430
G3 X560.212 Y-368.930 Z8.000 I1.430 J0.712
G3 X559.439 Y-365.903 Z8.000 I-0.712 J1.430
G1 X559.439 Y-365.903 Z7.000
G3 X558.788 Y-366.070 Z7.000 I0.061 J-1.597
G3 X558.070 Y-368.212 Z7.000 I0.712 J-1.430
G3 X560.212 Y-368.930 Z7.000 I1.430 J0.712
G3 X559.439 Y-365.903 Z7.000 I-0.712 J1.430
G1 X559.439 Y-365.903 Z6.000
G3 X558.788 Y-366.070 Z6.000 I0.061 J-1.597
G3 X558.070 Y-368.212 Z6.000 I0.712 J-1.430
G3 X560.212 Y-368.930 Z6.000 I1.430 J0.712
G3 X559.439 Y-365.903 Z6.000 I-0.712 J1.430
G1 X559.439 Y-365.903 Z5.000
G3 X558.788 Y-366.070 Z5.000 I0.061 J-1.597
G3 X558.070 Y-368.212 Z5.000 I0.712 J-1.430
G3 X560.212 Y-368.930 Z5.000 I1.430 J0.712
G3 X559.439 Y-365.903 Z5.000 I-0.712 J1.430
G1 X559.439 Y-365.903 Z4.000
G3 X558.788 Y-366.070 Z4.000 I0.061 J-1.597
G3 X558.070 Y-368.212 Z4.000 I0.712 J-1.430
G3 X560.212 Y-368.930 Z4.000 I1.430 J0.712
G3 X559.439 Y-365.903 Z4.000 I-0.712 J1.430
G1 X559.439 Y-365.903 Z3.000
G3 X558.788 Y-366.070 Z3.000 I0.061 J-1.597
G3 X558.070 Y-368.212 Z3.000 I0.712 J-1.430
G3 X560.212 Y-368.930 Z3.000 I1.430 J0.712
G3 X559.439 Y-365.903 Z3.000 I-0.712 J1.430
G1 X559.439 Y-365.903 Z2.000
G3 X558.788 Y-366.070 Z2.000 I0.061 J-1.597
G3 X558.070 Y-368.212 Z2.000 I0.712 J-1.430
G3 X560.212 Y-368.930 Z2.000 I1.430 J0.712
G3 X559.439 Y-365.903 Z2.000 I-0.712 J1.430
G1 X559.439 Y-365.903 Z1.000
G3 X558.788 Y-366.070 Z1.000 I0.061 J-1.597
G3 X558.070 Y-368.212 Z1.000 I0.712 J-1.430
G3 X560.212 Y-368.930 Z1.000 I1.430 J0.712
G3 X559.439 Y-365.903 Z1.000 I-0.712 J1.430
G1 X559.439 Y-365.903 Z0.000
G3 X558.788 Y-366.070 Z0.000 I0.061 J-1.597
G3 X558.070 Y-368.212 Z0.000 I0.712 J-1.430
G3 X560.212 Y-368.930 Z0.000 I1.430 J0.712
G3 X559.439 Y-365.903 Z0.000 I-0.712 J1.430
G0 Z18.000
G0 Z18.000
G0 X559.439 Y-365.903
G0 X569.480 Y-375.573
G0 X569.480 Y-375.573 Z16.000
G1 X569.480 Y-375.573 Z12.000
G3 X573.172 Y-381.297 Z12.000 I2.520 J-2.427
G3 X575.297 Y-376.828 Z12.000 I-1.172 J3.297
G3 X570.828 Y-374.703 Z12.000 I-3.297 J-1.172
G3 X569.480 Y-375.573 Z12.000 I1.172 J-3.297
G1 X569.480 Y-375.573 Z11.000
G3 X573.172 Y-381.297 Z11.000 I2.520 J-2.427
G3 X575.297 Y-376.828 Z11.000 I-1.172 J3.297
G3 X570.828 Y-374.703 Z11.000 I-3.297 J-1.172
G3 X569.480 Y-375.573 Z11.000 I1.172 J-3.297
G1 X569.480 Y-375.573 Z10.000
G3 X573.172 Y-381.297 Z10.000 I2.520 J-2.427
G3 X575.297 Y-376.828 Z10.000 I-1.172 J3.297
G3 X570.828 Y-374.703 Z10.000 I-3.297 J-1.172
G3 X569.480 Y-375.573 Z10.000 I1.172 J-3.297
G1 X569.480 Y-375.573 Z9.000
G3 X573.172 Y-381.297 Z9.000 I2.520 J-2.427
G3 X575.297 Y-376.828 Z9.000 I-1.172 J3.297
G3 X570.828 Y-374.703 Z9.000 I-3.297 J-1.172
G3 X569.480 Y-375.573 Z9.000 I1.172 J-3.297
G1 X569.480 Y-375.573 Z8.000
G3 X573.172 Y-381.297 Z8.000 I2.520 J-2.427
G3 X575.297 Y-376.828 Z8.000 I-1.172 J3.297
G3 X570.828 Y-374.703 Z8.000 I-3.297 J-1.172
G3 X569.480 Y-375.573 Z8.000 I1.172 J-3.297
G1 X569.480 Y-375.573 Z7.000
G3 X573.172 Y-381.297 Z7.000 I2.520 J-2.427
G3 X575.297 Y-376.828 Z7.000 I-1.172 J3.297
G3 X570.828 Y-374.703 Z7.000 I-3.297 J-1.172
G3 X569.480 Y-375.573 Z7.000 I1.172 J-3.297
G1 X569.480 Y-375.573 Z6.000
G3 X573.172 Y-381.297 Z6.000 I2.520 J-2.427
G3 X575.297 Y-376.828 Z6.000 I-1.172 J3.297
G3 X570.828 Y-374.703 Z6.000 I-3.297 J-1.172
G3 X569.480 Y-375.573 Z6.000 I1.172 J-3.297
G1 X569.480 Y-375.573 Z5.000
G3 X573.172 Y-381.297 Z5.000 I2.520 J-2.427
G3 X575.297 Y-376.828 Z5.000 I-1.172 J3.297
G3 X570.828 Y-374.703 Z5.000 I-3.297 J-1.172
G3 X569.480 Y-375.573 Z5.000 I1.172 J-3.297
G1 X569.480 Y-375.573 Z4.000
G3 X573.172 Y-381.297 Z4.000 I2.520 J-2.427
G3 X575.297 Y-376.828 Z4.000 I-1.172 J3.297
G3 X570.828 Y-374.703 Z4.000 I-3.297 J-1.172
G3 X569.480 Y-375.573 Z4.000 I1.172 J-3.297
G1 X569.480 Y-375.573 Z3.000
G3 X573.172 Y-381.297 Z3.000 I2.520 J-2.427
G3 X575.297 Y-376.828 Z3.000 I-1.172 J3.297
G3 X570.828 Y-374.703 Z3.000 I-3.297 J-1.172
G3 X569.480 Y-375.573 Z3.000 I1.172 J-3.297
G1 X569.480 Y-375.573 Z2.000
G3 X573.172 Y-381.297 Z2.000 I2.520 J-2.427
G3 X575.297 Y-376.828 Z2.000 I-1.172 J3.297
G3 X570.828 Y-374.703 Z2.000 I-3.297 J-1.172
G3 X569.480 Y-375.573 Z2.000 I1.172 J-3.297
G1 X569.480 Y-375.573 Z1.000
G3 X573.172 Y-381.297 Z1.000 I2.520 J-2.427
G3 X575.297 Y-376.828 Z1.000 I-1.172 J3.297
G3 X570.828 Y-374.703 Z1.000 I-3.297 J-1.172
G3 X569.480 Y-375.573 Z1.000 I1.172 J-3.297
G1 X569.480 Y-375.573 Z0.000
G3 X573.172 Y-381.297 Z0.000 I2.520 J-2.427
G3 X575.297 Y-376.828 Z0.000 I-1.172 J3.297
G3 X570.828 Y-374.703 Z0.000 I-3.297 J-1.172
G3 X569.480 Y-375.573 Z0.000 I1.172 J-3.297
G0 Z18.000
G0 Z18.000
G0 X569.480 Y-375.573
G0 X567.116 Y-385.514
G0 X567.116 Y-385.514 Z16.000
G1 X567.116 Y-385.514 Z12.000
G2 X567.354 Y-385.646 Z12.000 I-0.116 J-0.486
G1 X579.354 Y-397.646 Z12.000
G2 X579.500 Y-398.000 Z12.000 I-0.354 J-0.354
G1 X579.500 Y-476.000 Z12.000
G2 X579.000 Y-476.500 Z12.000 I-0.500 J-0.000
G1 X515.000 Y-476.500 Z12.000
G2 X514.500 Y-476.000 Z12.000 I-0.000 J0.500
G1 X514.500 Y-398.000 Z12.000
G2 X514.646 Y-397.646 Z12.000 I0.500 J0.000
G1 X526.646 Y-385.646 Z12.000
G2 X527.000 Y-385.500 Z12.000 I0.354 J-0.354
G1 X567.000 Y-385.500 Z12.000
G2 X567.116 Y-385.514 Z12.000 I0.000 J-0.500
G1 X567.116 Y-385.514 Z11.000
G2 X567.354 Y-385.646 Z11.000 I-0.116 J-0.486
G1 X579.354 Y-397.646 Z11.000
G2 X579.500 Y-398.000 Z11.000 I-0.354 J-0.354
G1 X579.500 Y-476.000 Z11.000
G2 X579.000 Y-476.500 Z11.000 I-0.500 J-0.000
G1 X515.000 Y-476.500 Z11.000
G2 X514.500 Y-476.000 Z11.000 I-0.000 J0.500
G1 X514.500 Y-398.000 Z11.000
G2 X514.646 Y-397.646 Z11.000 I0.500 J0.000
G1 X526.646 Y-385.646 Z11.000
G2 X527.000 Y-385.500 Z11.000 I0.354 J-0.354
G1 X567.000 Y-385.500 Z11.000
G2 X567.116 Y-385.514 Z11.000 I0.000 J-0.500
G1 X567.116 Y-385.514 Z10.000
G2 X567.354 Y-385.646 Z10.000 I-0.116 J-0.486
G1 X579.354 Y-397.646 Z10.000
G2 X579.500 Y-398.000 Z10.000 I-0.354 J-0.354
G1 X579.500 Y-476.000 Z10.000
G2 X579.000 Y-476.500 Z10.000 I-0.500 J-0.000
G1 X515.000 Y-476.500 Z10.000
G2 X514.500 Y-476.000 Z10.000 I-0.000 J0.500
G1 X514.500 Y-398.000 Z10.000
G2 X514.646 Y-397.646 Z10.000 I0.500 J0.000
G1 X526.646 Y-385.646 Z10.000
G2 X527.000 Y-385.500 Z10.000 I0.354 J-0.354
G1 X567.000 Y-385.500 Z10.000
G2 X567.116 Y-385.514 Z10.000 I0.000 J-0.500
G1 X567.116 Y-385.514 Z9.000
G2 X567.354 Y-385.646 Z9.000 I-0.116 J-0.486
G1 X579.354 Y-397.646 Z9.000
G2 X579.500 Y-398.000 Z9.000 I-0.354 J-0.354
G1 X579.500 Y-476.000 Z9.000
G2 X579.000 Y-476.500 Z9.000 I-0.500 J-0.000
G1 X515.000 Y-476.500 Z9.000
G2 X514.500 Y-476.000 Z9.000 I-0.000 J0.500
G1 X514.500 Y-398.000 Z9.000
G2 X514.646 Y-397.646 Z9.000 I0.500 J0.000
G1 X526.646 Y-385.646 Z9.000
G2 X527.000 Y-385.500 Z9.000 I0.354 J-0.354
G1 X567.000 Y-385.500 Z9.000
G2 X567.116 Y-385.514 Z9.000 I0.000 J-0.500
G1 X567.116 Y-385.514 Z8.000
G2 X567.354 Y-385.646 Z8.000 I-0.116 J-0.486
G1 X579.354 Y-397.646 Z8.000
G2 X579.500 Y-398.000 Z8.000 I-0.354 J-0.354
G1 X579.500 Y-476.000 Z8.000
G2 X579.000 Y-476.500 Z8.000 I-0.500 J-0.000
G1 X515.000 Y-476.500 Z8.000
G2 X514.500 Y-476.000 Z8.000 I-0.000 J0.500
G1 X514.500 Y-398.000 Z8.000
G2 X514.646 Y-397.646 Z8.000 I0.500 J0.000
G1 X526.646 Y-385.646 Z8.000
G2 X527.000 Y-385.500 Z8.000 I0.354 J-0.354
G1 X567.000 Y-385.500 Z8.000
